;FLAVOR:Marlin
;TIME:10289
;Filament used: 11.1048m
;Layer height: 0.25
;MINX:65.35
;MINY:55.368
;MINZ:0.25
;MAXX:184.65
;MAXY:154.632
;MAXZ:5
;Generated with Cura_SteamEngine 4.6.2
M82 ;absolute extrusion mode
G21 ; set units to millimeters
G90 ; use absolute positioning
M82 ; absolute extrusion mode
M104 S215.0 ; set extruder temp
M140 S0 ; set bed temp
M190 S0 ; wait for bed temp
M109 S215.0 ; wait for extruder temp
G28 W ; home all without mesh bed level
G80 ; mesh bed leveling
G92 E0.0 ; reset extruder distance position
G1 Y-3.0 F1000.0 ; go outside print area
G1 X60.0 E9.0 F1000.0 ; intro line
G1 X100.0 E21.5 F1000.0 ; intro line
G92 E0.0 ; reset extruder distance position
G92 E0
G92 E0
G1 F2400 E-0.8
;LAYER_COUNT:20
;LAYER:0
M106 S255
G0 F3600 X66.764 Y56.671 Z0.25
;TYPE:SKIRT
G1 F2400 E0
G1 F1500 X67.548 Y56.056 E0.04143
G1 X68.426 Y55.63 E0.082
G1 X69.371 Y55.399 E0.12244
G1 X69.662 Y55.368 E0.13461
G1 X180.338 Y55.368 E4.73599
G1 X181.297 Y55.541 E4.7765
G1 X182.191 Y55.904 E4.81661
G1 X182.999 Y56.454 E4.85725
G1 X183.659 Y57.14 E4.89683
G1 X184.167 Y57.953 E4.93669
G1 X184.502 Y58.864 E4.97704
G1 X184.639 Y59.829 E5.01756
G1 X184.65 Y147.749 E8.67285
G1 X184.65 Y149.999 E8.7664
G1 X184.575 Y150.802 E8.79993
G1 X184.307 Y151.734 E8.84024
G1 X183.855 Y152.587 E8.88038
G1 X183.236 Y153.329 E8.92055
G1 X182.453 Y153.943 E8.96192
G1 X181.575 Y154.369 E9.00249
G1 X180.629 Y154.601 E9.04299
G1 X180.338 Y154.632 E9.05516
G1 X69.662 Y154.632 E13.65653
G1 X68.703 Y154.459 E13.69704
G1 X67.807 Y154.094 E13.73727
G1 X67.001 Y153.547 E13.77776
G1 X66.341 Y152.86 E13.81737
G1 X65.832 Y152.045 E13.85732
G1 X65.498 Y151.135 E13.89762
G1 X65.361 Y150.172 E13.93806
G1 X65.35 Y62.251 E17.59339
G1 X65.35 Y60.001 E17.68694
G1 X65.425 Y59.197 E17.72051
G1 X65.693 Y58.265 E17.76083
G1 X66.146 Y57.412 E17.80098
G1 X66.764 Y56.671 E17.8411
G0 F3600 X67.063 Y56.936
G1 F1500 X67.785 Y56.378 E17.87903
G1 X68.588 Y55.996 E17.916
G1 X69.454 Y55.79 E17.95301
G1 X180.338 Y55.768 E22.56303
G1 X181.214 Y55.932 E22.60009
G1 X182.029 Y56.27 E22.63677
G1 X182.764 Y56.777 E22.67389
G1 X183.361 Y57.408 E22.71001
G1 X183.822 Y58.155 E22.7465
G1 X184.122 Y58.99 E22.78339
G1 X184.241 Y59.872 E22.82039
G1 X184.25 Y147.749 E26.47389
G1 X184.25 Y149.999 E26.56743
G1 X184.177 Y150.761 E26.59926
G1 X183.926 Y151.612 E26.63615
G1 X183.508 Y152.389 E26.67283
G1 X182.937 Y153.064 E26.70959
G1 X182.216 Y153.621 E26.74747
G1 X181.413 Y154.004 E26.78445
G1 X180.546 Y154.21 E26.8215
G1 X69.662 Y154.232 E31.43152
G1 X68.786 Y154.068 E31.46858
G1 X67.969 Y153.729 E31.50535
G1 X67.236 Y153.223 E31.54238
G1 X66.639 Y152.592 E31.5785
G1 X66.177 Y151.843 E31.61508
G1 X65.878 Y151.009 E31.65192
G1 X65.759 Y150.128 E31.68888
G1 X65.75 Y62.251 E35.34238
G1 X65.75 Y60.001 E35.43592
G1 X65.823 Y59.238 E35.46779
G1 X66.074 Y58.387 E35.50468
G1 X66.493 Y57.611 E35.54134
G1 X67.063 Y56.936 E35.57807
G0 F3600 X67.362 Y57.202
G1 F1500 X68.022 Y56.701 E35.61252
G1 X68.75 Y56.362 E35.64591
G1 X69.537 Y56.181 E35.67948
G1 X180.338 Y56.168 E40.28605
G1 X181.131 Y56.323 E40.31965
G1 X181.867 Y56.636 E40.3529
G1 X182.529 Y57.101 E40.38653
G1 X183.064 Y57.676 E40.41919
G1 X183.477 Y58.357 E40.4523
G1 X183.742 Y59.116 E40.48572
G1 X183.843 Y59.916 E40.51925
G1 X183.85 Y147.749 E44.17092
G1 X183.85 Y149.999 E44.26446
G1 X183.779 Y150.72 E44.29458
G1 X183.545 Y151.49 E44.32804
G1 X183.16 Y152.19 E44.36125
G1 X182.638 Y152.798 E44.39457
G1 X181.979 Y153.299 E44.42899
G1 X181.25 Y153.638 E44.46241
G1 X180.463 Y153.819 E44.49599
G1 X69.662 Y153.832 E49.10256
G1 X68.869 Y153.677 E49.13615
G1 X68.132 Y153.363 E49.16946
G1 X67.471 Y152.899 E49.20303
G1 X66.936 Y152.324 E49.23568
G1 X66.523 Y151.642 E49.26883
G1 X66.258 Y150.883 E49.30226
G1 X66.157 Y150.084 E49.33574
G1 X66.15 Y62.251 E52.98741
G1 X66.15 Y60.001 E53.08096
G1 X66.221 Y59.279 E53.11112
G1 X66.455 Y58.509 E53.14458
G1 X66.84 Y57.809 E53.17779
G1 X67.362 Y57.202 E53.21107
G0 F3600 X67.661 Y57.467
G1 F1500 X68.259 Y57.023 E53.24204
G1 X68.913 Y56.727 E53.27189
G1 X69.62 Y56.572 E53.30198
G1 X180.338 Y56.568 E57.9051
G1 X181.048 Y56.714 E57.93523
G1 X181.704 Y57.001 E57.965
G1 X182.294 Y57.424 E57.99518
G1 X182.767 Y57.943 E58.02438
G1 X183.132 Y58.559 E58.05415
G1 X183.363 Y59.242 E58.08412
G1 X183.446 Y59.959 E58.11413
G1 X183.45 Y147.749 E61.76402
G1 X183.45 Y149.999 E61.85756
G1 X183.381 Y150.679 E61.88598
G1 X183.164 Y151.367 E61.91597
G1 X182.813 Y151.992 E61.94577
G1 X182.339 Y152.533 E61.97567
G1 X181.742 Y152.976 E62.00658
G1 X181.087 Y153.273 E62.03648
G1 X180.38 Y153.428 E62.06657
G1 X69.662 Y153.432 E66.66969
G1 X68.952 Y153.286 E66.69983
G1 X68.295 Y152.998 E66.72965
G1 X67.706 Y152.576 E66.75978
G1 X67.233 Y152.057 E66.78897
G1 X66.868 Y151.44 E66.81878
G1 X66.637 Y150.757 E66.84875
G1 X66.554 Y150.041 E66.87872
G1 X66.55 Y62.251 E70.5286
G1 X66.55 Y60.001 E70.62215
G1 X66.619 Y59.32 E70.65061
G1 X66.836 Y58.632 E70.6806
G1 X67.187 Y58.008 E70.71036
G1 X67.661 Y57.467 E70.74027
;MESH:BikePlate.stl
G0 F3600 X67.947 Y57.749
;TYPE:WALL-OUTER
G1 F1500 X68.477 Y57.359 E70.76762
G1 X69.057 Y57.101 E70.79402
G1 X69.683 Y56.968 E70.82062
G1 X180.317 Y56.968 E75.42025
G1 X180.943 Y57.101 E75.44686
G1 X181.523 Y57.359 E75.47325
G1 X182.04 Y57.735 E75.49983
G1 X182.455 Y58.195 E75.52558
G1 X182.777 Y58.746 E75.55212
G1 X182.976 Y59.35 E75.57856
G1 X183.047 Y59.995 E75.60553
G1 X183.05 Y147.749 E79.25392
G1 X183.05 Y149.989 E79.34705
G1 X182.985 Y150.619 E79.37338
G1 X182.792 Y151.221 E79.39966
G1 X182.473 Y151.778 E79.42635
G1 X182.053 Y152.251 E79.45265
G1 X181.523 Y152.641 E79.48001
G1 X180.943 Y152.899 E79.5064
G1 X180.317 Y153.032 E79.53301
G1 X69.683 Y153.032 E84.13263
G1 X69.057 Y152.899 E84.15924
G1 X68.477 Y152.641 E84.18563
G1 X67.96 Y152.265 E84.21221
G1 X67.545 Y151.805 E84.23797
G1 X67.223 Y151.254 E84.2645
G1 X67.024 Y150.65 E84.29094
G1 X66.953 Y150.005 E84.31792
G1 X66.95 Y62.251 E87.9663
G1 X66.95 Y60.011 E88.05943
G1 X67.015 Y59.381 E88.08576
G1 X67.208 Y58.779 E88.11205
G1 X67.527 Y58.222 E88.13873
G1 X67.947 Y57.749 E88.16503
G0 F3600 X68.108 Y57.631
G0 X68.367 Y57.986
G0 X68.402 Y58.034
G0 X81.79 Y67.705
G0 X82.221 Y67.957
G1 F1500 X81.857 Y68.579 E88.19499
G1 X81.63 Y69.264 E88.225
G1 X81.552 Y69.981 E88.25498
G1 X81.621 Y70.699 E88.28497
G1 X81.841 Y71.386 E88.31496
G1 X82.199 Y72.011 E88.34491
G1 X82.678 Y72.55 E88.37489
G1 X83.274 Y72.989 E88.40566
G1 X83.934 Y73.282 E88.43568
G1 X84.639 Y73.432 E88.46565
G1 X85.361 Y73.432 E88.49567
G1 X86.066 Y73.282 E88.52563
G1 X86.726 Y72.989 E88.55566
G1 X87.31 Y72.564 E88.58568
G1 X87.779 Y72.043 E88.61483
G1 X88.143 Y71.421 E88.64479
G1 X88.37 Y70.736 E88.67479
G1 X88.448 Y70.019 E88.70478
G1 X88.379 Y69.301 E88.73477
G1 X88.159 Y68.614 E88.76476
G1 X87.801 Y67.989 E88.7947
G1 X87.322 Y67.45 E88.82468
G1 X86.726 Y67.011 E88.85546
G1 X86.066 Y66.718 E88.88548
G1 X85.361 Y66.568 E88.91545
G1 X84.639 Y66.568 E88.94546
G1 X83.934 Y66.718 E88.97543
G1 X83.274 Y67.011 E89.00545
G1 X82.69 Y67.436 E89.03548
G1 X82.221 Y67.957 E89.06462
G0 F3600 X82.12 Y68.129
G0 X81.896 Y67.72
;TYPE:WALL-INNER
G1 F1500 X81.491 Y68.413 E89.098
G1 X81.237 Y69.179 E89.13155
G1 X81.15 Y69.978 E89.16496
G1 X81.227 Y70.78 E89.19846
G1 X81.473 Y71.548 E89.23199
G1 X81.872 Y72.246 E89.26541
G1 X82.407 Y72.847 E89.29886
G1 X83.072 Y73.337 E89.33321
G1 X83.81 Y73.665 E89.36678
G1 X84.597 Y73.832 E89.40023
G1 X85.403 Y73.832 E89.43374
G1 X86.19 Y73.665 E89.46719
G1 X86.927 Y73.337 E89.50073
G1 X87.579 Y72.863 E89.53424
G1 X88.104 Y72.28 E89.56686
G1 X88.509 Y71.587 E89.60023
G1 X88.763 Y70.821 E89.63378
G1 X88.85 Y70.022 E89.6672
G1 X88.773 Y69.22 E89.70069
G1 X88.527 Y68.452 E89.73422
G1 X88.128 Y67.754 E89.76765
G1 X87.593 Y67.153 E89.8011
G1 X86.928 Y66.663 E89.83544
G1 X86.19 Y66.335 E89.86902
G1 X85.403 Y66.168 E89.90247
G1 X84.597 Y66.168 E89.93598
G1 X83.81 Y66.335 E89.96942
G1 X83.073 Y66.663 E90.00296
G1 X82.421 Y67.137 E90.03648
G1 X81.896 Y67.72 E90.06909
G0 F3600 X81.816 Y67.662
G0 X81.455 Y68.397
G0 X81.198 Y69.171
G0 X81.11 Y69.978
G0 X81.188 Y70.788
G0 X81.437 Y71.564
G0 X81.84 Y72.269
G0 X82.381 Y72.876
G0 X118.35 Y94.7
G0 X118.35 Y95.2
;TYPE:WALL-OUTER
G1 F1500 X118.35 Y114.8 E90.88397
G1 X131.65 Y114.8 E91.43692
G1 X131.65 Y95.2 E92.25179
G1 X118.35 Y95.2 E92.80474
G0 F3600 X118.35 Y95.4
G0 X117.95 Y94.8
;TYPE:WALL-INNER
G1 F1500 X117.95 Y115.2 E93.65287
G1 X132.05 Y115.2 E94.23908
G1 X132.05 Y94.8 E95.08722
G1 X117.95 Y94.8 E95.67343
G0 F3600 X117.88 Y94.73
G0 X161.365 Y71.537
G0 X161.841 Y71.386
;TYPE:WALL-OUTER
G1 F1500 X162.199 Y72.011 E95.70337
G1 X162.678 Y72.55 E95.73335
G1 X163.274 Y72.989 E95.76413
G1 X163.934 Y73.282 E95.79415
G1 X164.639 Y73.432 E95.82411
G1 X165.361 Y73.432 E95.85413
G1 X166.066 Y73.282 E95.8841
G1 X166.726 Y72.989 E95.91412
G1 X167.31 Y72.564 E95.94415
G1 X167.779 Y72.043 E95.97329
G1 X168.143 Y71.421 E96.00326
G1 X168.37 Y70.736 E96.03326
G1 X168.448 Y70.019 E96.06324
G1 X168.379 Y69.301 E96.09323
G1 X168.159 Y68.614 E96.12322
G1 X167.801 Y67.989 E96.15317
G1 X167.322 Y67.45 E96.18315
G1 X166.726 Y67.011 E96.21392
G1 X166.066 Y66.718 E96.24394
G1 X165.361 Y66.568 E96.27391
G1 X164.639 Y66.568 E96.30393
G1 X163.934 Y66.718 E96.33389
G1 X163.274 Y67.011 E96.36392
G1 X162.69 Y67.436 E96.39395
G1 X162.221 Y67.957 E96.42309
G1 X161.857 Y68.579 E96.45305
G1 X161.63 Y69.264 E96.48305
G1 X161.552 Y69.981 E96.51304
G1 X161.621 Y70.699 E96.54303
G1 X161.841 Y71.386 E96.57302
G0 F3600 X161.94 Y71.559
G0 X161.473 Y71.548
;TYPE:WALL-INNER
G1 F1500 X161.872 Y72.246 E96.60644
G1 X162.407 Y72.847 E96.6399
G1 X163.072 Y73.337 E96.67424
G1 X163.81 Y73.665 E96.70782
G1 X164.597 Y73.832 E96.74126
G1 X165.403 Y73.832 E96.77477
G1 X166.19 Y73.665 E96.80822
G1 X166.927 Y73.337 E96.84176
G1 X167.579 Y72.863 E96.87527
G1 X168.104 Y72.28 E96.90789
G1 X168.509 Y71.587 E96.94126
G1 X168.763 Y70.821 E96.97481
G1 X168.85 Y70.022 E97.00823
G1 X168.773 Y69.22 E97.04173
G1 X168.527 Y68.452 E97.07525
G1 X168.128 Y67.754 E97.10868
G1 X167.593 Y67.153 E97.14213
G1 X166.928 Y66.663 E97.17647
G1 X166.19 Y66.335 E97.21005
G1 X165.403 Y66.168 E97.2435
G1 X164.597 Y66.168 E97.27701
G1 X163.81 Y66.335 E97.31046
G1 X163.073 Y66.663 E97.344
G1 X162.421 Y67.137 E97.37751
G1 X161.896 Y67.72 E97.41013
G1 X161.491 Y68.413 E97.4435
G1 X161.237 Y69.179 E97.47705
G1 X161.15 Y69.978 E97.51046
G1 X161.227 Y70.78 E97.54396
G1 X161.473 Y71.548 E97.57749
G0 F3600 X161.382 Y71.588
G0 X164.639 Y136.068
G0 X164.639 Y136.568
;TYPE:WALL-OUTER
G1 F1500 X163.934 Y136.718 E97.60745
G1 X163.274 Y137.011 E97.63748
G1 X162.69 Y137.436 E97.66751
G1 X162.221 Y137.957 E97.69665
G1 X161.857 Y138.579 E97.72661
G1 X161.63 Y139.264 E97.75661
G1 X161.552 Y139.981 E97.7866
G1 X161.621 Y140.699 E97.81659
G1 X161.841 Y141.386 E97.84658
G1 X162.199 Y142.011 E97.87652
G1 X162.678 Y142.55 E97.9065
G1 X163.274 Y142.989 E97.93728
G1 X163.934 Y143.282 E97.9673
G1 X164.639 Y143.432 E97.99727
G1 X165.361 Y143.432 E98.02728
G1 X166.066 Y143.282 E98.05725
G1 X166.726 Y142.989 E98.08727
G1 X167.31 Y142.564 E98.1173
G1 X167.779 Y142.043 E98.14645
G1 X168.143 Y141.421 E98.17641
G1 X168.37 Y140.736 E98.20641
G1 X168.448 Y140.019 E98.2364
G1 X168.379 Y139.301 E98.26638
G1 X168.159 Y138.614 E98.29637
G1 X167.801 Y137.989 E98.32632
G1 X167.322 Y137.45 E98.3563
G1 X166.726 Y137.011 E98.38707
G1 X166.066 Y136.718 E98.4171
G1 X165.361 Y136.568 E98.44706
G1 X164.639 Y136.568 E98.47708
G0 F3600 X164.444 Y136.609
G0 X164.597 Y136.168
;TYPE:WALL-INNER
G1 F1500 X163.81 Y136.335 E98.51053
G1 X163.073 Y136.663 E98.54407
G1 X162.421 Y137.137 E98.57758
G1 X161.896 Y137.72 E98.6102
G1 X161.491 Y138.413 E98.64357
G1 X161.237 Y139.179 E98.67712
G1 X161.15 Y139.978 E98.71054
G1 X161.227 Y140.78 E98.74403
G1 X161.473 Y141.548 E98.77756
G1 X161.872 Y142.246 E98.81099
G1 X162.407 Y142.847 E98.84444
G1 X163.072 Y143.337 E98.87878
G1 X163.81 Y143.665 E98.91236
G1 X164.597 Y143.832 E98.94581
G1 X165.403 Y143.832 E98.97932
G1 X166.19 Y143.665 E99.01276
G1 X166.927 Y143.337 E99.0463
G1 X167.579 Y142.863 E99.07981
G1 X168.104 Y142.28 E99.11243
G1 X168.509 Y141.587 E99.1458
G1 X168.763 Y140.821 E99.17936
G1 X168.85 Y140.022 E99.21277
G1 X168.773 Y139.22 E99.24627
G1 X168.527 Y138.452 E99.27979
G1 X168.128 Y137.754 E99.31322
G1 X167.593 Y137.153 E99.34667
G1 X166.928 Y136.663 E99.38102
G1 X166.19 Y136.335 E99.41459
G1 X165.403 Y136.168 E99.44804
G1 X164.597 Y136.168 E99.48155
G0 F3600 X164.587 Y136.069
G0 X88.944 Y140.073
G0 X88.448 Y140.019
;TYPE:WALL-OUTER
G1 F1500 X88.379 Y139.301 E99.51154
G1 X88.159 Y138.614 E99.54153
G1 X87.801 Y137.989 E99.57147
G1 X87.322 Y137.45 E99.60145
G1 X86.726 Y137.011 E99.63223
G1 X86.066 Y136.718 E99.66225
G1 X85.361 Y136.568 E99.69222
G1 X84.639 Y136.568 E99.72223
G1 X83.934 Y136.718 E99.7522
G1 X83.274 Y137.011 E99.78222
G1 X82.69 Y137.436 E99.81225
G1 X82.221 Y137.957 E99.8414
G1 X81.857 Y138.579 E99.87136
G1 X81.63 Y139.264 E99.90136
G1 X81.552 Y139.981 E99.93135
G1 X81.621 Y140.699 E99.96133
G1 X81.841 Y141.386 E99.99133
G1 X82.199 Y142.011 E100.02127
G1 X82.678 Y142.55 E100.05125
G1 X83.274 Y142.989 E100.08202
G1 X83.934 Y143.282 E100.11205
G1 X84.639 Y143.432 E100.14201
G1 X85.361 Y143.432 E100.17203
G1 X86.066 Y143.282 E100.202
G1 X86.726 Y142.989 E100.23202
G1 X87.31 Y142.564 E100.26205
G1 X87.779 Y142.043 E100.29119
G1 X88.143 Y141.421 E100.32115
G1 X88.37 Y140.736 E100.35116
G1 X88.448 Y140.019 E100.38114
G0 F3600 X88.429 Y139.82
G0 X88.85 Y140.022
;TYPE:WALL-INNER
G1 F1500 X88.773 Y139.22 E100.41464
G1 X88.527 Y138.452 E100.44817
G1 X88.128 Y137.754 E100.48159
G1 X87.593 Y137.153 E100.51505
G1 X86.928 Y136.663 E100.54939
G1 X86.19 Y136.335 E100.58296
G1 X85.403 Y136.168 E100.61641
G1 X84.597 Y136.168 E100.64992
G1 X83.81 Y136.335 E100.68337
G1 X83.073 Y136.663 E100.71691
G1 X82.421 Y137.137 E100.75042
G1 X81.896 Y137.72 E100.78304
G1 X81.491 Y138.413 E100.81641
G1 X81.237 Y139.179 E100.84996
G1 X81.15 Y139.978 E100.88338
G1 X81.227 Y140.78 E100.91687
G1 X81.473 Y141.548 E100.9504
G1 X81.872 Y142.246 E100.98383
G1 X82.407 Y142.847 E101.01728
G1 X83.072 Y143.337 E101.05162
G1 X83.81 Y143.665 E101.0852
G1 X84.597 Y143.832 E101.11865
G1 X85.403 Y143.832 E101.15216
G1 X86.19 Y143.665 E101.1856
G1 X86.927 Y143.337 E101.21914
G1 X87.579 Y142.863 E101.25266
G1 X88.104 Y142.28 E101.28527
G1 X88.509 Y141.587 E101.31864
G1 X88.763 Y140.821 E101.3522
G1 X88.85 Y140.022 E101.38561
G0 F3600 X88.95 Y140.022
G0 X88.802 Y140.829
G0 X88.545 Y141.603
G0 X88.136 Y142.303
G0 X87.073 Y143.279
G0 X69.734 Y152.533
G0 X69.724 Y152.632
G1 F1500 X69.181 Y152.517 E101.40869
G1 X68.677 Y152.292 E101.43163
G1 X68.231 Y151.968 E101.45455
G1 X67.869 Y151.567 E101.47701
G1 X67.59 Y151.09 E101.49999
G1 X67.418 Y150.566 E101.52292
G1 X67.353 Y149.979 E101.54747
G1 X67.35 Y62.251 E105.19478
G1 X67.35 Y60.033 E105.28699
G1 X67.409 Y59.463 E105.31082
G1 X67.576 Y58.941 E105.3336
G1 X67.853 Y58.457 E105.35679
G1 X68.219 Y58.045 E105.3797
G1 X68.679 Y57.706 E105.40345
G1 X69.181 Y57.483 E105.42629
G1 X69.724 Y57.368 E105.44937
G1 X180.276 Y57.368 E110.04559
G1 X180.819 Y57.483 E110.06866
G1 X181.323 Y57.708 E110.09161
G1 X181.769 Y58.032 E110.11453
G1 X182.131 Y58.433 E110.13699
G1 X182.41 Y58.91 E110.15996
G1 X182.582 Y59.434 E110.18289
G1 X182.647 Y60.021 E110.20745
G1 X182.65 Y147.749 E113.85475
G1 X182.65 Y149.967 E113.94697
G1 X182.591 Y150.537 E113.97079
G1 X182.424 Y151.059 E113.99358
G1 X182.147 Y151.543 E114.01676
G1 X181.781 Y151.955 E114.03967
G1 X181.321 Y152.294 E114.06343
G1 X180.819 Y152.517 E114.08627
G1 X180.276 Y152.632 E114.10934
G1 X69.724 Y152.632 E118.70556
G0 F3600 X69.766 Y152.242
;TYPE:SKIN
G1 F1500 X69.301 Y152.144 E118.72532
G1 X68.877 Y151.954 E118.74463
G1 X68.488 Y151.672 E118.76461
G1 X68.188 Y151.339 E118.78324
G1 X67.946 Y150.924 E118.80322
G1 X67.802 Y150.488 E118.82231
G1 X67.743 Y149.954 E118.84464
G1 X67.74 Y62.251 E122.49091
G1 X67.74 Y60.053 E122.58229
G1 X67.793 Y59.541 E122.60369
G1 X67.934 Y59.101 E122.6229
G1 X68.171 Y58.687 E122.64274
G1 X68.484 Y58.335 E122.66232
G1 X68.877 Y58.046 E122.6826
