; generated by Slic3r 1.35.5-prusa3d-win64 on 2017-06-28 at 20:49:58

; 

; external perimeters extrusion width = 0.45mm
; perimeters extrusion width = 0.45mm
; infill extrusion width = 0.45mm
; solid infill extrusion width = 0.45mm
; top infill extrusion width = 0.45mm
; first layer extrusion width = 0.42mm

M107
M115 U3.0.11 ; tell printer latest fw version
M83  ; extruder relative mode
M104 S215 ; set extruder temp
M140 S55 ; set bed temp
M190 S55 ; wait for bed temp
M109 S215 ; wait for extruder temp
G28 W ; home all without mesh bed level
G80 ; mesh bed leveling
G1 Y-3.0 F1000.0 ; go outside pritn area
G1 X60.0 E9.0  F1000.0 ; intro line
G1 X100.0 E12.5  F1000.0 ; intro line
; Filament gcode

G21 ; set units to millimeters
G90 ; use absolute coordinates
M83 ; use relative distances for extrusion
G1 E-0.80000 F2100.00000
G1 Z0.200 F7200.000
G1 X35.622 Y66.184 F7200.000
G1 E0.80000 F2100.00000
M204 S1000
G1 F2100
G1 X36.269 Y66.033 E0.02229
G1 X75.400 Y62.631 E1.31776
G1 X83.197 Y62.624 E0.26159
G1 X84.872 Y62.794 E0.05647
G1 X86.428 Y63.275 E0.05464
G1 X203.738 Y110.015 E4.23654
G1 X205.914 Y111.049 E0.08083
G1 X207.818 Y112.253 E0.07556
G1 X208.863 Y113.057 E0.04425
G1 X210.540 Y114.616 E0.07683
G1 X212.023 Y116.367 E0.07697
G1 X212.777 Y117.445 E0.04413
G1 X213.911 Y119.438 E0.07695
G1 X214.430 Y120.585 E0.04221
G1 X215.182 Y122.752 E0.07696
G1 X215.670 Y124.990 E0.07684
G1 X215.830 Y126.299 E0.04424
G1 X215.897 Y128.592 E0.07697
G1 X215.691 Y130.873 E0.07684
G1 X215.451 Y132.173 E0.04437
G1 X214.827 Y134.377 E0.07685
G1 X213.944 Y136.495 E0.07697
G1 X213.353 Y137.614 E0.04245
G1 X212.063 Y139.584 E0.07902
G1 X210.490 Y141.437 E0.08155
G1 X209.644 Y142.263 E0.03965
G1 X207.929 Y143.669 E0.07441
G1 X205.897 Y144.963 E0.08079
G1 X203.739 Y145.987 E0.08016
G1 X201.456 Y146.741 E0.08065
G1 X199.133 Y147.202 E0.07948
G1 X197.960 Y147.325 E0.03957
G1 X196.093 Y147.373 E0.06263
G1 X188.142 Y147.068 E0.26695
G1 X184.178 Y146.820 E0.13324
G1 X176.352 Y146.142 E0.26355
G1 X168.397 Y145.196 E0.26877
G1 X160.544 Y144.003 E0.26648
G1 X152.734 Y142.558 E0.26648
G1 X144.955 Y140.859 E0.26712
G1 X141.097 Y139.918 E0.13324
G1 X133.512 Y137.875 E0.26355
G1 X125.861 Y135.549 E0.26825
G1 X118.390 Y133.012 E0.26470
G1 X114.580 Y131.615 E0.13617
G1 X107.208 Y128.707 E0.26584
G1 X99.917 Y125.557 E0.26648
G1 X92.730 Y122.174 E0.26648
G1 X85.673 Y118.571 E0.26584
G1 X82.147 Y116.662 E0.13452
G1 X75.272 Y112.723 E0.26584
G1 X68.510 Y108.555 E0.26648
G1 X61.886 Y104.172 E0.26648
G1 X55.406 Y99.578 E0.26648
G1 X49.092 Y94.791 E0.26584
G1 X42.906 Y89.779 E0.26712
G1 X36.864 Y84.552 E0.26801
G1 X36.271 Y83.958 E0.02816
G1 X35.443 Y82.880 E0.04561
G1 X34.677 Y81.386 E0.05633
G1 X34.252 Y79.912 E0.05145
G1 X34.104 Y78.445 E0.04946
G1 X34.107 Y68.253 E0.34195
G1 X34.244 Y67.591 E0.02267
G1 X34.560 Y66.998 E0.02254
G1 X35.032 Y66.515 E0.02267
G1 X35.569 Y66.213 E0.02066
G1 F5760
G1 X36.269 Y66.033 E-0.25014
G1 F5760
G1 X37.735 Y65.906 E-0.50986
G1 E-0.04000 F2100.00000
G1 X36.401 Y68.212 F7200.000
G1 E0.80000 F2100.00000
G1 F2100
G1 X41.557 Y68.212 E0.17299
G1 X41.667 Y68.323 E0.00524
G1 X41.667 Y75.692 E0.24721
G1 X41.888 Y75.912 E0.01048
G1 X81.170 Y75.912 E1.31785
G1 X81.390 Y75.692 E0.01048
G1 X81.390 Y70.310 E0.18053
G1 X81.170 Y70.090 E0.01048
G1 X76.041 Y70.090 E0.17204
G1 X75.972 Y70.061 E0.00252
G1 X75.419 Y69.508 E0.02624
G1 X75.390 Y69.438 E0.00252
G1 X75.390 Y64.923 E0.15149
G1 X75.501 Y64.812 E0.00524
G1 X83.200 Y64.813 E0.25831
G1 X83.825 Y64.845 E0.02098
G1 X84.445 Y64.940 E0.02106
G1 X85.043 Y65.096 E0.02074
G1 X85.632 Y65.313 E0.02106
G1 X86.196 Y65.590 E0.02106
G1 X86.736 Y65.927 E0.02138
G1 X87.225 Y66.306 E0.02074
G1 X87.671 Y66.730 E0.02064
G1 X88.088 Y67.215 E0.02147
G1 X88.447 Y67.731 E0.02108
G1 X89.963 Y70.111 E0.09467
G1 X91.526 Y72.448 E0.09433
G1 X93.145 Y74.757 E0.09461
G1 X94.809 Y77.023 E0.09433
G1 X96.526 Y79.255 E0.09447
G1 X98.292 Y81.448 E0.09447
G1 X100.105 Y83.602 E0.09447
G1 X101.990 Y85.741 E0.09565
G1 X103.874 Y87.787 E0.09328
G1 X105.827 Y89.815 E0.09447
G1 X107.824 Y91.800 E0.09447
G1 X109.867 Y93.744 E0.09461
G1 X111.974 Y95.659 E0.09551
G1 X114.075 Y97.486 E0.09343
G1 X116.236 Y99.284 E0.09433
G1 X118.444 Y101.039 E0.09461
G1 X120.683 Y102.740 E0.09433
G1 X122.966 Y104.395 E0.09461
G1 X125.278 Y105.995 E0.09433
G1 X127.628 Y107.546 E0.09447
G1 X130.012 Y109.044 E0.09447
G1 X132.432 Y110.491 E0.09461
G1 X134.877 Y111.881 E0.09433
G1 X137.355 Y113.218 E0.09447
G1 X139.862 Y114.499 E0.09447
G1 X142.397 Y115.725 E0.09447
G1 X144.959 Y116.895 E0.09447
G1 X147.545 Y118.007 E0.09447
G1 X150.156 Y119.062 E0.09447
G1 X152.789 Y120.059 E0.09447
G1 X155.448 Y120.999 E0.09461
G1 X158.123 Y121.879 E0.09447
G1 X160.813 Y122.697 E0.09433
G1 X163.524 Y123.458 E0.09447
G1 X166.255 Y124.159 E0.09461
G1 X168.989 Y124.797 E0.09418
G1 X169.812 Y124.949 E0.02808
G1 X170.618 Y125.041 E0.02720
G1 X171.441 Y125.077 E0.02764
G1 X172.265 Y125.056 E0.02764
G1 X173.085 Y124.978 E0.02764
G1 X173.898 Y124.842 E0.02764
G1 X174.699 Y124.650 E0.02764
G1 X175.485 Y124.403 E0.02764
G1 X176.252 Y124.102 E0.02764
G1 X176.996 Y123.748 E0.02764
G1 X177.713 Y123.343 E0.02765
G1 X178.411 Y122.881 E0.02808
G1 X179.066 Y122.379 E0.02768
G1 X179.680 Y121.835 E0.02749
G1 X180.258 Y121.247 E0.02770
G1 X180.787 Y120.629 E0.02728
G1 X181.283 Y119.959 E0.02797
G1 X182.439 Y118.156 E0.07183
G1 X183.065 Y117.316 E0.03517
G1 X183.742 Y116.515 E0.03517
G1 X184.466 Y115.757 E0.03517
G1 X185.239 Y115.040 E0.03536
G1 X186.046 Y114.379 E0.03498
G1 X186.886 Y113.773 E0.03476
G1 X187.781 Y113.205 E0.03559
G1 X188.705 Y112.697 E0.03536
G1 X189.652 Y112.248 E0.03517
G1 X190.620 Y111.860 E0.03498
G1 X191.621 Y111.528 E0.03536
G1 X192.628 Y111.261 E0.03498
G1 X193.644 Y111.057 E0.03476
G1 X194.700 Y110.910 E0.03578
G1 X195.740 Y110.831 E0.03498
G1 X196.788 Y110.814 E0.03517
G1 X197.841 Y110.863 E0.03537
G1 X198.878 Y110.974 E0.03498
G1 X199.912 Y111.149 E0.03517
G1 X200.936 Y111.387 E0.03530
G1 X201.940 Y111.686 E0.03512
G1 X202.922 Y112.046 E0.03509
G1 X203.888 Y112.467 E0.03536
G1 X204.816 Y112.942 E0.03498
G1 X205.719 Y113.475 E0.03517
G1 X206.587 Y114.063 E0.03517
G1 X207.418 Y114.702 E0.03517
G1 X208.213 Y115.394 E0.03536
G1 X208.960 Y116.130 E0.03517
G1 X209.660 Y116.910 E0.03517
G1 X210.309 Y117.727 E0.03498
G1 X210.910 Y118.586 E0.03517
G1 X211.457 Y119.480 E0.03517
G1 X211.948 Y120.406 E0.03517
G1 X212.385 Y121.365 E0.03536
G1 X212.758 Y122.339 E0.03498
G1 X213.073 Y123.339 E0.03517
G1 X213.328 Y124.362 E0.03537
G1 X213.518 Y125.393 E0.03517
G1 X213.646 Y126.433 E0.03517
G1 X213.709 Y127.474 E0.03498
G1 X213.710 Y128.522 E0.03517
G1 X213.646 Y129.569 E0.03517
G1 X213.518 Y130.609 E0.03517
G1 X213.327 Y131.646 E0.03536
G1 X213.073 Y132.663 E0.03517
G1 X212.758 Y133.663 E0.03517
G1 X212.383 Y134.642 E0.03517
G1 X211.951 Y135.591 E0.03498
G1 X211.460 Y136.517 E0.03517
G1 X210.909 Y137.416 E0.03536
G1 X210.312 Y138.271 E0.03498
G1 X209.660 Y139.092 E0.03517
G1 X208.956 Y139.876 E0.03537
G1 X208.213 Y140.608 E0.03498
G1 X207.423 Y141.296 E0.03517
G1 X206.587 Y141.939 E0.03536
G1 X205.719 Y142.527 E0.03517
G1 X204.821 Y143.057 E0.03498
G1 X203.883 Y143.537 E0.03536
G1 X202.922 Y143.956 E0.03517
G1 X201.940 Y144.316 E0.03509
G1 X200.932 Y144.616 E0.03527
G1 X199.917 Y144.852 E0.03496
G1 X198.884 Y145.027 E0.03517
G1 X197.836 Y145.140 E0.03536
G1 X196.790 Y145.188 E0.03512
G1 X196.129 Y145.185 E0.02216
G1 X192.201 Y145.066 E0.13187
G1 X188.279 Y144.884 E0.13170
G1 X184.352 Y144.639 E0.13201
G1 X180.478 Y144.334 E0.13039
G1 X176.509 Y143.959 E0.13374
G1 X172.597 Y143.524 E0.13206
G1 X168.692 Y143.027 E0.13206
G1 X164.794 Y142.467 E0.13211
G1 X160.907 Y141.844 E0.13206
G1 X157.031 Y141.160 E0.13206
G1 X153.167 Y140.413 E0.13201
G1 X149.315 Y139.604 E0.13206
G1 X145.474 Y138.733 E0.13211
G1 X141.651 Y137.801 E0.13201
G1 X137.842 Y136.807 E0.13206
G1 X134.050 Y135.753 E0.13206
G1 X130.273 Y134.637 E0.13211
G1 X126.517 Y133.461 E0.13206
G1 X122.781 Y132.225 E0.13201
G1 X119.111 Y130.945 E0.13039
G1 X115.368 Y129.573 E0.13374
G1 X111.695 Y128.158 E0.13206
G1 X108.043 Y126.684 E0.13211
G1 X104.419 Y125.153 E0.13201
G1 X100.816 Y123.562 E0.13211
G1 X97.243 Y121.915 E0.13201
G1 X93.695 Y120.210 E0.13206
G1 X90.175 Y118.448 E0.13206
G1 X86.683 Y116.630 E0.13206
G1 X83.220 Y114.755 E0.13211
G1 X79.789 Y112.826 E0.13206
G1 X76.391 Y110.842 E0.13201
G1 X73.066 Y108.829 E0.13039
G1 X69.689 Y106.711 E0.13374
G1 X66.387 Y104.565 E0.13211
G1 X63.123 Y102.367 E0.13201
G1 X59.893 Y100.115 E0.13211
G1 X56.701 Y97.814 E0.13201
G1 X53.585 Y95.491 E0.13039
G1 X50.428 Y93.057 E0.13374
G1 X47.348 Y90.603 E0.13211
G1 X44.311 Y88.101 E0.13201
G1 X41.312 Y85.549 E0.13211
G1 X38.351 Y82.946 E0.13225
G1 X37.940 Y82.542 E0.01935
G1 X37.572 Y82.107 E0.01911
G1 X37.237 Y81.625 E0.01970
G1 X36.957 Y81.129 E0.01911
G1 X36.720 Y80.601 E0.01941
G1 X36.534 Y80.053 E0.01941
G1 X36.399 Y79.491 E0.01941
G1 X36.317 Y78.909 E0.01970
G1 X36.290 Y78.338 E0.01919
G1 X36.290 Y68.323 E0.33599
G1 X36.358 Y68.255 E0.00323
G1 X36.689 Y68.611 F7200.000
G1 F1050
G1 X41.269 Y68.611 E0.15365
G1 X41.269 Y76.311 E0.25833
G1 X81.789 Y76.311 E1.35941
G1 X81.789 Y69.691 E0.22209
G1 X76.166 Y69.691 E0.18865
G1 X75.789 Y69.314 E0.01789
G1 X75.789 Y65.211 E0.13765
G1 X83.188 Y65.211 E0.24823
G1 X83.772 Y65.241 E0.01963
G1 X84.360 Y65.330 E0.01995
G1 X84.928 Y65.477 E0.01970
G1 X85.479 Y65.682 E0.01970
G1 X86.006 Y65.941 E0.01970
G1 X86.504 Y66.251 E0.01970
G1 X86.968 Y66.611 E0.01970
G1 X87.394 Y67.016 E0.01970
G1 X87.776 Y67.462 E0.01970
G1 X88.114 Y67.950 E0.01992
G1 X89.628 Y70.327 E0.09455
G1 X91.198 Y72.675 E0.09476
G1 X92.820 Y74.988 E0.09476
G1 X94.492 Y77.264 E0.09476
G1 X96.214 Y79.503 E0.09476
G1 X97.985 Y81.703 E0.09476
G1 X99.805 Y83.864 E0.09476
G1 X101.672 Y85.984 E0.09476
G1 X103.585 Y88.061 E0.09476
G1 X105.544 Y90.096 E0.09476
G1 X107.547 Y92.088 E0.09476
G1 X109.594 Y94.034 E0.09476
G1 X111.684 Y95.935 E0.09476
G1 X113.815 Y97.789 E0.09476
G1 X115.987 Y99.595 E0.09476
G1 X118.198 Y101.353 E0.09476
G1 X120.447 Y103.061 E0.09476
G1 X122.734 Y104.719 E0.09476
G1 X125.056 Y106.327 E0.09476
G1 X127.414 Y107.882 E0.09476
G1 X129.806 Y109.385 E0.09476
G1 X132.230 Y110.835 E0.09476
G1 X134.686 Y112.230 E0.09476
G1 X137.172 Y113.571 E0.09476
G1 X139.687 Y114.857 E0.09476
G1 X142.230 Y116.087 E0.09476
G1 X144.799 Y117.260 E0.09476
G1 X147.394 Y118.376 E0.09476
G1 X150.013 Y119.434 E0.09476
G1 X152.688 Y120.446 E0.09595
G1 X155.317 Y121.376 E0.09358
G1 X158.001 Y122.258 E0.09476
G1 X160.703 Y123.081 E0.09476
G1 X163.423 Y123.843 E0.09476
G1 X166.159 Y124.546 E0.09476
G1 X168.912 Y125.188 E0.09485
G1 X169.747 Y125.343 E0.02849
G1 X170.593 Y125.439 E0.02858
G1 X171.444 Y125.476 E0.02858
G1 X172.296 Y125.454 E0.02858
G1 X173.143 Y125.372 E0.02858
G1 X173.983 Y125.232 E0.02858
G1 X174.812 Y125.033 E0.02858
G1 X175.634 Y124.773 E0.02893
G1 X176.417 Y124.465 E0.02822
G1 X177.186 Y124.099 E0.02858
G1 X177.927 Y123.680 E0.02858
G1 X178.638 Y123.210 E0.02858
G1 X179.317 Y122.689 E0.02873
G1 X179.951 Y122.128 E0.02841
G1 X180.549 Y121.520 E0.02859
G1 X181.102 Y120.873 E0.02857
G1 X181.608 Y120.190 E0.02850
G1 X182.768 Y118.382 E0.07209
G1 X183.379 Y117.561 E0.03432
G1 X184.040 Y116.779 E0.03436
G1 X184.741 Y116.045 E0.03404
G1 X185.499 Y115.343 E0.03467
G1 X186.291 Y114.694 E0.03435
G1 X187.114 Y114.100 E0.03404
G1 X187.987 Y113.547 E0.03467
G1 X188.884 Y113.053 E0.03435
G1 X189.809 Y112.614 E0.03436
G1 X190.760 Y112.233 E0.03436
G1 X191.732 Y111.911 E0.03436
G1 X192.722 Y111.648 E0.03436
G1 X193.726 Y111.447 E0.03436
G1 X194.731 Y111.308 E0.03404
G1 X195.761 Y111.229 E0.03467
G1 X196.785 Y111.213 E0.03435
G1 X197.808 Y111.260 E0.03436
G1 X198.826 Y111.369 E0.03436
G1 X199.836 Y111.540 E0.03435
G1 X200.851 Y111.777 E0.03497
G1 X201.815 Y112.065 E0.03375
G1 X202.776 Y112.417 E0.03436
G1 X203.715 Y112.827 E0.03436
G1 X204.627 Y113.293 E0.03436
G1 X205.508 Y113.814 E0.03436
G1 X206.356 Y114.388 E0.03436
G1 X207.168 Y115.012 E0.03436
G1 X207.940 Y115.685 E0.03436
G1 X208.670 Y116.403 E0.03436
G1 X209.354 Y117.165 E0.03436
G1 X209.991 Y117.967 E0.03436
G1 X210.558 Y118.778 E0.03320
G1 X211.112 Y119.680 E0.03551
G1 X211.592 Y120.585 E0.03435
G1 X212.016 Y121.517 E0.03436
G1 X212.383 Y122.473 E0.03436
G1 X212.690 Y123.450 E0.03436
G1 X212.938 Y124.443 E0.03436
G1 X213.124 Y125.450 E0.03436
G1 X213.249 Y126.467 E0.03436
G1 X213.311 Y127.489 E0.03436
G1 X213.311 Y128.513 E0.03436
G1 X213.249 Y129.535 E0.03436
G1 X213.124 Y130.552 E0.03436
G1 X212.938 Y131.559 E0.03436
G1 X212.690 Y132.552 E0.03436
G1 X212.393 Y133.496 E0.03320
G1 X212.016 Y134.485 E0.03551
G1 X211.592 Y135.417 E0.03435
G1 X211.112 Y136.322 E0.03436
G1 X210.578 Y137.195 E0.03436
G1 X210.011 Y138.007 E0.03320
G1 X209.354 Y138.837 E0.03551
G1 X208.670 Y139.599 E0.03435
G1 X207.940 Y140.317 E0.03436
G1 X207.168 Y140.990 E0.03436
G1 X206.356 Y141.614 E0.03436
G1 X205.508 Y142.188 E0.03436
G1 X204.627 Y142.709 E0.03436
G1 X203.715 Y143.175 E0.03436
G1 X202.776 Y143.585 E0.03435
G1 X201.799 Y143.942 E0.03490
G1 X200.833 Y144.230 E0.03381
G1 X199.836 Y144.462 E0.03436
G1 X198.826 Y144.633 E0.03436
G1 X197.808 Y144.742 E0.03436
G1 X196.784 Y144.789 E0.03440
G1 X196.137 Y144.786 E0.02171
G1 X192.232 Y144.668 E0.13107
G1 X188.302 Y144.486 E0.13199
G1 X184.380 Y144.241 E0.13185
G1 X180.462 Y143.933 E0.13185
G1 X176.549 Y143.562 E0.13185
G1 X172.643 Y143.128 E0.13185
G1 X168.745 Y142.632 E0.13185
G1 X164.854 Y142.073 E0.13185
G1 X160.974 Y141.452 E0.13185
G1 X157.104 Y140.768 E0.13185
G1 X153.245 Y140.022 E0.13185
G1 X149.399 Y139.215 E0.13185
G1 X145.566 Y138.345 E0.13185
G1 X141.796 Y137.426 E0.13020
G1 X137.945 Y136.422 E0.13350
G1 X134.159 Y135.369 E0.13185
G1 X130.390 Y134.256 E0.13185
G1 X126.640 Y133.082 E0.13185
G1 X122.908 Y131.847 E0.13185
G1 X119.197 Y130.553 E0.13185
G1 X115.508 Y129.200 E0.13185
G1 X111.886 Y127.805 E0.13020
G1 X108.196 Y126.316 E0.13350
G1 X104.576 Y124.787 E0.13185
G1 X100.981 Y123.199 E0.13185
G1 X97.412 Y121.554 E0.13185
G1 X93.870 Y119.852 E0.13185
G1 X90.355 Y118.093 E0.13185
G1 X86.869 Y116.277 E0.13185
G1 X83.413 Y114.406 E0.13185
G1 X80.031 Y112.504 E0.13020
G1 X76.594 Y110.499 E0.13350
G1 X73.232 Y108.464 E0.13185
G1 X69.903 Y106.375 E0.13185
G1 X66.608 Y104.233 E0.13185
G1 X63.348 Y102.038 E0.13185
G1 X60.124 Y99.791 E0.13185
G1 X56.936 Y97.492 E0.13185
G1 X53.785 Y95.143 E0.13185
G1 X50.673 Y92.743 E0.13185
G1 X47.600 Y90.293 E0.13185
G1 X44.566 Y87.795 E0.13185
G1 X41.573 Y85.248 E0.13185
G1 X38.625 Y82.656 E0.13171
G1 X38.235 Y82.274 E0.01830
G1 X37.886 Y81.861 E0.01816
G1 X37.577 Y81.416 E0.01816
G1 X37.311 Y80.945 E0.01816
G1 X37.090 Y80.451 E0.01816
G1 X36.916 Y79.939 E0.01816
G1 X36.790 Y79.412 E0.01816
G1 X36.715 Y78.883 E0.01793
G1 X36.689 Y78.331 E0.01856
G1 X36.689 Y68.671 E0.32407
G1 X37.036 Y68.811 F7200.000
G1 X37.066 Y68.988 F7200.000
G1 F1680
G1 X40.892 Y68.988 E0.12835
G1 X40.892 Y76.688 E0.25833
G1 X82.166 Y76.688 E1.38471
G1 X82.166 Y69.314 E0.24740
G1 X76.322 Y69.314 E0.19606
G1 X76.166 Y69.158 E0.00741
G1 X76.166 Y65.588 E0.11976
G1 X83.178 Y65.588 E0.23525
G1 X83.734 Y65.616 E0.01867
G1 X84.284 Y65.700 E0.01867
G1 X84.815 Y65.838 E0.01840
G1 X85.330 Y66.029 E0.01842
G1 X85.823 Y66.271 E0.01842
G1 X86.288 Y66.561 E0.01842
G1 X86.722 Y66.898 E0.01842
G1 X87.120 Y67.276 E0.01842
G1 X87.477 Y67.693 E0.01842
G1 X87.800 Y68.159 E0.01903
G1 X89.312 Y70.533 E0.09443
G1 X90.887 Y72.888 E0.09504
G1 X92.513 Y75.208 E0.09504
G1 X94.190 Y77.491 E0.09504
G1 X95.918 Y79.736 E0.09504
G1 X97.694 Y81.943 E0.09504
G1 X99.519 Y84.110 E0.09504
G1 X101.392 Y86.236 E0.09504
G1 X103.311 Y88.320 E0.09504
G1 X105.275 Y90.361 E0.09504
G1 X107.285 Y92.358 E0.09504
G1 X109.338 Y94.310 E0.09504
G1 X111.433 Y96.216 E0.09504
G1 X113.571 Y98.076 E0.09504
G1 X115.749 Y99.887 E0.09504
G1 X117.966 Y101.650 E0.09504
G1 X120.222 Y103.364 E0.09504
G1 X122.516 Y105.027 E0.09504
G1 X124.845 Y106.639 E0.09504
G1 X127.210 Y108.199 E0.09504
G1 X129.608 Y109.707 E0.09504
G1 X132.040 Y111.161 E0.09504
G1 X134.503 Y112.560 E0.09504
