; generated by Slic3r 1.35.5-prusa3d-win64 on 2017-06-28 at 20:49:36

; 

; external perimeters extrusion width = 0.45mm
; perimeters extrusion width = 0.45mm
; infill extrusion width = 0.45mm
; solid infill extrusion width = 0.45mm
; top infill extrusion width = 0.45mm
; first layer extrusion width = 0.42mm

M107
M115 U3.0.11 ; tell printer latest fw version
M83  ; extruder relative mode
M104 S215 ; set extruder temp
M140 S55 ; set bed temp
M190 S55 ; wait for bed temp
M109 S215 ; wait for extruder temp
G28 W ; home all without mesh bed level
G80 ; mesh bed leveling
G1 Y-3.0 F1000.0 ; go outside pritn area
G1 X60.0 E9.0  F1000.0 ; intro line
G1 X100.0 E12.5  F1000.0 ; intro line
; Filament gcode

G21 ; set units to millimeters
G90 ; use absolute coordinates
M83 ; use relative distances for extrusion
G1 E-0.80000 F2100.00000
G1 Z0.200 F7200.000
G1 X214.546 Y66.256 F7200.000
G1 E0.80000 F2100.00000
M204 S1000
G1 F2100
G1 X215.088 Y66.613 E0.02178
G1 X215.511 Y67.101 E0.02166
G1 X215.789 Y67.688 E0.02178
G1 X215.897 Y68.328 E0.02178
G1 X215.867 Y79.049 E0.35967
G1 X215.576 Y80.636 E0.05414
G1 X215.021 Y82.066 E0.05147
G1 X214.555 Y82.882 E0.03150
G1 X213.641 Y84.056 E0.04994
G1 X210.134 Y87.192 E0.15785
G1 X204.029 Y92.304 E0.26712
G1 X197.763 Y97.215 E0.26711
G1 X191.373 Y101.901 E0.26584
G1 X184.820 Y106.390 E0.26648
G1 X178.126 Y110.666 E0.26648
G1 X171.305 Y114.721 E0.26622
G1 X164.361 Y118.553 E0.26609
G1 X160.804 Y120.405 E0.13452
G1 X153.690 Y123.895 E0.26584
G1 X146.450 Y127.161 E0.26648
G1 X139.127 Y130.187 E0.26584
G1 X135.385 Y131.628 E0.13452
G1 X127.924 Y134.297 E0.26584
G1 X120.378 Y136.726 E0.26597
G1 X112.728 Y138.920 E0.26699
G1 X105.008 Y140.868 E0.26712
G1 X101.134 Y141.746 E0.13325
G1 X93.386 Y143.308 E0.26520
G1 X85.553 Y144.628 E0.26648
G1 X77.663 Y145.697 E0.26712
G1 X69.762 Y146.510 E0.26648
G1 X61.839 Y147.069 E0.26648
G1 X53.878 Y147.374 E0.26728
G1 X52.041 Y147.325 E0.06163
G1 X50.865 Y147.202 E0.03968
G1 X48.544 Y146.741 E0.07939
G1 X46.261 Y145.987 E0.08067
G1 X44.096 Y144.959 E0.08041
G1 X42.074 Y143.671 E0.08041
G1 X41.111 Y142.922 E0.04094
G1 X39.508 Y141.435 E0.07338
G1 X37.935 Y139.581 E0.08156
G1 X36.617 Y137.561 E0.08092
G1 X35.623 Y135.544 E0.07544
G1 X35.152 Y134.312 E0.04425
G1 X34.534 Y132.107 E0.07683
G1 X34.182 Y129.840 E0.07697
G1 X34.102 Y128.524 E0.04425
G1 X34.175 Y126.234 E0.07684
G1 X34.331 Y124.986 E0.04221
G1 X34.820 Y122.745 E0.07696
G1 X35.572 Y120.581 E0.07684
G1 X36.118 Y119.381 E0.04424
G1 X37.258 Y117.390 E0.07697
G1 X38.624 Y115.551 E0.07684
G1 X39.508 Y114.568 E0.04437
G1 X41.190 Y113.013 E0.07684
G1 X43.048 Y111.667 E0.07697
G1 X44.136 Y111.021 E0.04246
G1 X46.261 Y110.015 E0.07888
G1 X163.611 Y63.260 E4.23799
G1 X165.031 Y62.816 E0.04989
G1 X166.058 Y62.659 E0.03488
G1 X174.425 Y62.624 E0.28069
G1 X213.735 Y66.034 E1.32376
G1 X214.488 Y66.240 E0.02621
G1 F5760
G1 X215.088 Y66.613 E-0.24473
G1 F5760
G1 X215.511 Y67.101 E-0.22358
G1 F5760
G1 X215.789 Y67.688 E-0.22489
G1 F5760
G1 X215.821 Y67.878 E-0.06679
G1 E-0.04000 F2100.00000
G1 X213.599 Y68.212 F7200.000
G1 E0.80000 F2100.00000
G1 F2100
G1 X213.710 Y68.323 E0.00524
G1 X213.709 Y78.342 E0.33613
G1 X213.682 Y78.918 E0.01934
G1 X213.602 Y79.482 E0.01912
G1 X213.469 Y80.045 E0.01941
G1 X213.280 Y80.601 E0.01970
G1 X213.043 Y81.129 E0.01941
G1 X212.758 Y81.632 E0.01940
G1 X212.433 Y82.100 E0.01912
G1 X212.060 Y82.542 E0.01941
G1 X211.645 Y82.950 E0.01952
G1 X208.688 Y85.549 E0.13207
G1 X205.690 Y88.100 E0.13206
G1 X202.650 Y90.604 E0.13211
G1 X199.572 Y93.057 E0.13206
G1 X196.456 Y95.460 E0.13201
G1 X193.300 Y97.813 E0.13206
G1 X190.107 Y100.115 E0.13206
G1 X186.877 Y102.367 E0.13211
G1 X183.611 Y104.565 E0.13206
G1 X180.312 Y106.710 E0.13201
G1 X176.977 Y108.804 E0.13211
G1 X173.611 Y110.841 E0.13201
G1 X170.211 Y112.826 E0.13206
G1 X166.780 Y114.755 E0.13206
G1 X163.318 Y116.629 E0.13206
G1 X159.825 Y118.448 E0.13211
G1 X156.260 Y120.231 E0.13374
G1 X152.759 Y121.914 E0.13034
G1 X149.184 Y123.562 E0.13206
G1 X145.583 Y125.152 E0.13206
G1 X141.957 Y126.684 E0.13206
G1 X138.307 Y128.158 E0.13206
G1 X134.632 Y129.573 E0.13211
G1 X130.889 Y130.945 E0.13374
G1 X127.219 Y132.225 E0.13039
G1 X123.483 Y133.461 E0.13201
G1 X119.727 Y134.637 E0.13206
G1 X115.952 Y135.752 E0.13206
G1 X112.159 Y136.807 E0.13206
G1 X108.300 Y137.813 E0.13379
G1 X104.526 Y138.733 E0.13034
G1 X100.687 Y139.604 E0.13206
G1 X96.834 Y140.413 E0.13206
G1 X92.969 Y141.160 E0.13206
G1 X89.042 Y141.853 E0.13379
G1 X85.205 Y142.467 E0.13039
G1 X81.310 Y143.027 E0.13201
G1 X77.405 Y143.524 E0.13206
G1 X73.491 Y143.959 E0.13211
G1 X69.522 Y144.334 E0.13374
G1 X65.649 Y144.638 E0.13034
G1 X61.721 Y144.884 E0.13206
G1 X57.794 Y145.066 E0.13189
G1 X53.873 Y145.185 E0.13160
G1 X53.210 Y145.188 E0.02223
G1 X52.165 Y145.140 E0.03512
G1 X51.116 Y145.027 E0.03537
G1 X50.088 Y144.853 E0.03498
G1 X49.068 Y144.616 E0.03515
G1 X48.060 Y144.316 E0.03527
G1 X47.078 Y143.956 E0.03509
G1 X46.117 Y143.537 E0.03517
G1 X45.179 Y143.057 E0.03536
G1 X44.276 Y142.523 E0.03517
G1 X43.408 Y141.936 E0.03517
G1 X42.582 Y141.300 E0.03498
G1 X41.787 Y140.608 E0.03536
G1 X41.044 Y139.876 E0.03498
G1 X40.343 Y139.096 E0.03517
G1 X39.688 Y138.271 E0.03536
G1 X39.091 Y137.416 E0.03498
G1 X38.543 Y136.522 E0.03517
G1 X38.049 Y135.591 E0.03536
G1 X37.615 Y134.637 E0.03517
G1 X37.242 Y133.663 E0.03498
G1 X36.925 Y132.658 E0.03536
G1 X36.673 Y131.646 E0.03498
G1 X36.482 Y130.615 E0.03517
G1 X36.355 Y129.574 E0.03517
G1 X36.291 Y128.528 E0.03517
G1 X36.291 Y127.474 E0.03536
G1 X36.355 Y126.428 E0.03517
G1 X36.482 Y125.393 E0.03498
G1 X36.672 Y124.362 E0.03517
G1 X36.925 Y123.344 E0.03517
G1 X37.242 Y122.339 E0.03536
G1 X37.617 Y121.360 E0.03517
G1 X38.052 Y120.406 E0.03517
G1 X38.543 Y119.480 E0.03517
G1 X39.087 Y118.591 E0.03498
G1 X39.691 Y117.727 E0.03536
G1 X40.343 Y116.906 E0.03517
G1 X41.040 Y116.130 E0.03498
G1 X41.787 Y115.394 E0.03517
G1 X42.577 Y114.705 E0.03517
G1 X43.408 Y114.066 E0.03517
G1 X44.276 Y113.479 E0.03517
G1 X45.184 Y112.942 E0.03536
G1 X46.117 Y112.465 E0.03517
G1 X47.078 Y112.046 E0.03517
G1 X48.060 Y111.686 E0.03510
G1 X49.064 Y111.387 E0.03512
G1 X50.088 Y111.149 E0.03530
G1 X51.116 Y110.974 E0.03498
G1 X52.159 Y110.863 E0.03517
G1 X53.212 Y110.814 E0.03536
G1 X54.254 Y110.830 E0.03498
G1 X55.300 Y110.910 E0.03517
G1 X56.344 Y111.054 E0.03536
G1 X57.366 Y111.260 E0.03498
G1 X58.379 Y111.528 E0.03517
G1 X59.380 Y111.860 E0.03536
G1 X60.348 Y112.248 E0.03498
G1 X61.295 Y112.696 E0.03517
G1 X62.219 Y113.205 E0.03536
G1 X63.104 Y113.766 E0.03517
G1 X63.950 Y114.376 E0.03498
G1 X64.761 Y115.040 E0.03517
G1 X65.534 Y115.757 E0.03536
G1 X66.258 Y116.515 E0.03517
G1 X66.935 Y117.316 E0.03517
G1 X67.561 Y118.156 E0.03517
G1 X68.716 Y119.958 E0.07179
G1 X69.213 Y120.629 E0.02802
G1 X69.749 Y121.255 E0.02767
G1 X70.328 Y121.843 E0.02768
G1 X70.944 Y122.387 E0.02756
G1 X71.589 Y122.881 E0.02724
G1 X72.276 Y123.336 E0.02764
G1 X72.993 Y123.742 E0.02764
G1 X73.736 Y124.097 E0.02764
G1 X74.503 Y124.399 E0.02764
G1 X75.288 Y124.647 E0.02764
G1 X76.090 Y124.840 E0.02764
G1 X76.915 Y124.978 E0.02808
G1 X77.735 Y125.056 E0.02764
G1 X78.559 Y125.077 E0.02764
G1 X79.369 Y125.042 E0.02720
G1 X80.188 Y124.949 E0.02764
G1 X81.011 Y124.797 E0.02808
G1 X83.745 Y124.159 E0.09418
G1 X86.472 Y123.459 E0.09447
G1 X89.183 Y122.699 E0.09447
G1 X91.877 Y121.879 E0.09447
G1 X94.552 Y120.999 E0.09447
G1 X97.207 Y120.061 E0.09447
G1 X99.840 Y119.064 E0.09447
G1 X102.455 Y118.007 E0.09461
G1 X105.009 Y116.909 E0.09328
G1 X107.603 Y115.725 E0.09565
G1 X110.134 Y114.501 E0.09433
G1 X112.645 Y113.218 E0.09461
G1 X115.123 Y111.881 E0.09447
G1 X117.568 Y110.491 E0.09433
G1 X119.984 Y109.046 E0.09447
G1 X122.372 Y107.546 E0.09461
G1 X124.722 Y105.995 E0.09447
G1 X127.034 Y104.395 E0.09433
G1 X129.317 Y102.740 E0.09461
G1 X131.556 Y101.039 E0.09433
G1 X133.760 Y99.287 E0.09447
G1 X135.928 Y97.484 E0.09461
G1 X138.050 Y95.638 E0.09433
G1 X140.133 Y93.744 E0.09447
G1 X142.176 Y91.800 E0.09461
G1 X144.170 Y89.818 E0.09433
G1 X146.123 Y87.790 E0.09447
G1 X148.031 Y85.718 E0.09447
G1 X149.895 Y83.602 E0.09461
G1 X151.706 Y81.452 E0.09433
G1 X153.472 Y79.258 E0.09447
G1 X155.188 Y77.026 E0.09447
G1 X156.855 Y74.757 E0.09447
G1 X158.474 Y72.448 E0.09461
G1 X160.037 Y70.111 E0.09433
G1 X161.553 Y67.731 E0.09467
G1 X161.912 Y67.215 E0.02109
G1 X162.314 Y66.745 E0.02074
G1 X162.768 Y66.312 E0.02106
G1 X163.264 Y65.927 E0.02106
G1 X163.796 Y65.594 E0.02106
G1 X164.368 Y65.313 E0.02138
G1 X164.957 Y65.096 E0.02106
G1 X165.555 Y64.940 E0.02074
G1 X166.175 Y64.845 E0.02106
G1 X166.800 Y64.813 E0.02098
G1 X174.499 Y64.812 E0.25831
G1 X174.610 Y64.923 E0.00524
G1 X174.610 Y69.439 E0.15149
G1 X174.581 Y69.508 E0.00252
G1 X174.028 Y70.061 E0.02624
G1 X173.959 Y70.090 E0.00252
G1 X168.830 Y70.090 E0.17204
G1 X168.610 Y70.310 E0.01048
G1 X168.610 Y75.692 E0.18053
G1 X168.830 Y75.912 E0.01048
G1 X208.112 Y75.912 E1.31785
G1 X208.332 Y75.692 E0.01048
G1 X208.332 Y68.323 E0.24721
G1 X208.443 Y68.212 E0.00524
G1 X213.539 Y68.212 E0.17097
G1 X213.311 Y68.611 F7200.000
G1 F1050
G1 X213.311 Y78.331 E0.32608
G1 X213.285 Y78.883 E0.01856
G1 X213.210 Y79.412 E0.01793
G1 X213.084 Y79.939 E0.01816
G1 X212.910 Y80.451 E0.01816
G1 X212.689 Y80.945 E0.01816
G1 X212.423 Y81.416 E0.01816
G1 X212.114 Y81.861 E0.01816
G1 X211.765 Y82.274 E0.01816
G1 X211.375 Y82.656 E0.01830
G1 X208.427 Y85.248 E0.13171
G1 X205.434 Y87.795 E0.13185
G1 X202.400 Y90.293 E0.13185
G1 X199.327 Y92.743 E0.13185
G1 X196.215 Y95.143 E0.13185
G1 X193.064 Y97.492 E0.13185
G1 X189.876 Y99.791 E0.13185
G1 X186.652 Y102.038 E0.13185
G1 X183.392 Y104.233 E0.13185
G1 X180.097 Y106.375 E0.13185
G1 X176.768 Y108.464 E0.13185
G1 X173.406 Y110.499 E0.13185
G1 X169.969 Y112.504 E0.13350
G1 X166.587 Y114.406 E0.13020
G1 X163.131 Y116.277 E0.13185
G1 X159.645 Y118.093 E0.13185
G1 X156.130 Y119.852 E0.13185
G1 X152.588 Y121.554 E0.13185
G1 X149.019 Y123.199 E0.13185
G1 X145.424 Y124.787 E0.13185
G1 X141.804 Y126.316 E0.13185
G1 X138.114 Y127.805 E0.13350
G1 X134.492 Y129.200 E0.13020
G1 X130.803 Y130.553 E0.13185
G1 X127.092 Y131.847 E0.13185
G1 X123.360 Y133.082 E0.13185
G1 X119.610 Y134.256 E0.13185
G1 X115.841 Y135.369 E0.13185
G1 X112.055 Y136.422 E0.13185
G1 X108.204 Y137.426 E0.13350
G1 X104.434 Y138.345 E0.13020
G1 X100.601 Y139.215 E0.13185
G1 X96.755 Y140.022 E0.13185
G1 X92.896 Y140.768 E0.13185
G1 X89.026 Y141.452 E0.13185
G1 X85.146 Y142.073 E0.13185
G1 X81.255 Y142.632 E0.13185
G1 X77.357 Y143.128 E0.13185
G1 X73.451 Y143.562 E0.13185
G1 X69.538 Y143.933 E0.13185
G1 X65.621 Y144.241 E0.13185
G1 X61.676 Y144.487 E0.13258
G1 X57.775 Y144.668 E0.13103
G1 X53.863 Y144.786 E0.13130
G1 X53.216 Y144.789 E0.02171
G1 X52.192 Y144.742 E0.03440
G1 X51.174 Y144.633 E0.03436
G1 X50.164 Y144.462 E0.03436
G1 X49.167 Y144.230 E0.03436
G1 X48.185 Y143.937 E0.03436
G1 X47.224 Y143.585 E0.03436
G1 X46.285 Y143.175 E0.03436
G1 X45.373 Y142.709 E0.03436
G1 X44.492 Y142.188 E0.03436
G1 X43.644 Y141.614 E0.03436
G1 X42.832 Y140.990 E0.03436
G1 X42.060 Y140.317 E0.03436
G1 X41.330 Y139.599 E0.03436
G1 X40.646 Y138.837 E0.03436
G1 X40.009 Y138.035 E0.03436
G1 X39.422 Y137.195 E0.03436
G1 X38.888 Y136.322 E0.03436
G1 X38.408 Y135.417 E0.03436
G1 X37.984 Y134.485 E0.03436
G1 X37.617 Y133.529 E0.03436
G1 X37.310 Y132.552 E0.03436
G1 X37.062 Y131.559 E0.03436
G1 X36.876 Y130.552 E0.03436
G1 X36.751 Y129.535 E0.03436
G1 X36.689 Y128.513 E0.03436
G1 X36.689 Y127.489 E0.03436
G1 X36.751 Y126.467 E0.03436
G1 X36.876 Y125.450 E0.03436
G1 X37.062 Y124.443 E0.03436
G1 X37.310 Y123.450 E0.03436
G1 X37.617 Y122.473 E0.03436
G1 X37.984 Y121.517 E0.03436
G1 X38.408 Y120.585 E0.03436
G1 X38.888 Y119.680 E0.03436
G1 X39.422 Y118.807 E0.03436
G1 X40.009 Y117.967 E0.03436
G1 X40.646 Y117.165 E0.03436
G1 X41.330 Y116.403 E0.03436
G1 X42.060 Y115.685 E0.03436
G1 X42.832 Y115.012 E0.03436
G1 X43.644 Y114.388 E0.03436
G1 X44.492 Y113.814 E0.03436
G1 X45.373 Y113.293 E0.03436
G1 X46.285 Y112.827 E0.03436
G1 X47.224 Y112.417 E0.03436
G1 X48.185 Y112.065 E0.03436
G1 X49.167 Y111.772 E0.03436
G1 X50.164 Y111.540 E0.03436
G1 X51.174 Y111.369 E0.03436
G1 X52.192 Y111.260 E0.03436
G1 X53.215 Y111.213 E0.03436
G1 X54.239 Y111.229 E0.03436
G1 X55.260 Y111.307 E0.03436
G1 X56.274 Y111.447 E0.03436
G1 X57.278 Y111.648 E0.03436
G1 X58.268 Y111.911 E0.03436
G1 X59.240 Y112.233 E0.03436
G1 X60.191 Y112.614 E0.03436
G1 X61.116 Y113.053 E0.03436
G1 X62.013 Y113.547 E0.03436
G1 X62.879 Y114.094 E0.03436
G1 X63.709 Y114.694 E0.03436
G1 X64.501 Y115.343 E0.03436
G1 X65.252 Y116.039 E0.03436
G1 X65.960 Y116.779 E0.03436
G1 X66.621 Y117.561 E0.03436
G1 X67.232 Y118.382 E0.03432
G1 X68.391 Y120.189 E0.07201
G1 X68.897 Y120.873 E0.02857
G1 X69.455 Y121.524 E0.02875
G1 X70.048 Y122.128 E0.02841
G1 X70.686 Y122.691 E0.02857
G1 X71.362 Y123.210 E0.02858
G1 X72.073 Y123.680 E0.02858
G1 X72.814 Y124.099 E0.02858
G1 X73.583 Y124.465 E0.02858
G1 X74.376 Y124.777 E0.02858
G1 X75.178 Y125.030 E0.02822
G1 X76.016 Y125.232 E0.02893
G1 X76.857 Y125.372 E0.02858
G1 X77.694 Y125.453 E0.02822
G1 X78.556 Y125.476 E0.02893
G1 X79.407 Y125.439 E0.02858
G1 X80.243 Y125.344 E0.02822
G1 X81.088 Y125.188 E0.02884
G1 X83.841 Y124.546 E0.09485
G1 X86.543 Y123.852 E0.09358
G1 X89.297 Y123.081 E0.09595
G1 X91.999 Y122.258 E0.09476
G1 X94.683 Y121.376 E0.09476
G1 X97.346 Y120.434 E0.09476
G1 X99.987 Y119.434 E0.09476
G1 X102.606 Y118.376 E0.09476
G1 X105.201 Y117.260 E0.09476
G1 X107.770 Y116.087 E0.09476
G1 X110.313 Y114.857 E0.09476
G1 X112.828 Y113.571 E0.09476
G1 X115.314 Y112.230 E0.09476
G1 X117.770 Y110.835 E0.09476
G1 X120.194 Y109.385 E0.09476
G1 X122.586 Y107.882 E0.09476
G1 X124.944 Y106.327 E0.09476
G1 X127.266 Y104.719 E0.09476
G1 X129.553 Y103.061 E0.09476
G1 X131.802 Y101.353 E0.09476
G1 X134.013 Y99.595 E0.09476
G1 X136.185 Y97.789 E0.09476
G1 X138.316 Y95.935 E0.09476
G1 X140.406 Y94.034 E0.09476
G1 X142.427 Y92.112 E0.09358
G1 X144.456 Y90.096 E0.09595
G1 X146.415 Y88.061 E0.09476
G1 X148.328 Y85.984 E0.09476
G1 X150.195 Y83.864 E0.09476
G1 X151.992 Y81.730 E0.09358
G1 X153.786 Y79.503 E0.09595
G1 X155.508 Y77.264 E0.09476
G1 X157.180 Y74.988 E0.09476
G1 X158.802 Y72.675 E0.09476
G1 X160.372 Y70.327 E0.09476
G1 X161.886 Y67.950 E0.09455
G1 X162.224 Y67.462 E0.01992
G1 X162.606 Y67.016 E0.01970
G1 X163.032 Y66.611 E0.01970
G1 X163.496 Y66.251 E0.01970
G1 X163.994 Y65.941 E0.01970
G1 X164.521 Y65.682 E0.01970
G1 X165.079 Y65.476 E0.01995
G1 X165.640 Y65.330 E0.01945
G1 X166.220 Y65.241 E0.01970
G1 X166.812 Y65.211 E0.01988
G1 X174.211 Y65.211 E0.24823
G1 X174.211 Y69.314 E0.13765
G1 X173.834 Y69.691 E0.01789
G1 X168.211 Y69.691 E0.18865
G1 X168.211 Y76.311 E0.22210
G1 X208.731 Y76.311 E1.35941
G1 X208.731 Y68.611 E0.25833
G1 X213.251 Y68.611 E0.15164
G1 X213.240 Y69.005 F7200.000
G1 X212.934 Y68.988 F7200.000
G1 F1680
G1 X212.934 Y78.321 E0.31313
G1 X212.909 Y78.848 E0.01767
G1 X212.839 Y79.342 E0.01675
G1 X212.722 Y79.834 E0.01697
G1 X212.559 Y80.313 E0.01697
G1 X212.352 Y80.775 E0.01697
G1 X212.103 Y81.216 E0.01697
G1 X211.814 Y81.631 E0.01697
G1 X211.488 Y82.017 E0.01697
G1 X211.119 Y82.380 E0.01736
G1 X208.180 Y84.963 E0.13126
G1 X205.192 Y87.506 E0.13165
G1 X202.163 Y90.001 E0.13165
G1 X199.094 Y92.446 E0.13165
G1 X195.987 Y94.842 E0.13165
G1 X192.841 Y97.188 E0.13165
G1 X189.658 Y99.483 E0.13165
G1 X186.439 Y101.727 E0.13165
G1 X183.184 Y103.918 E0.13165
G1 X179.894 Y106.057 E0.13165
G1 X176.571 Y108.143 E0.13165
G1 X173.214 Y110.175 E0.13164
G1 X169.782 Y112.177 E0.13329
G1 X166.404 Y114.076 E0.13000
G1 X162.954 Y115.944 E0.13165
G1 X159.473 Y117.757 E0.13165
G1 X155.964 Y119.513 E0.13165
G1 X152.428 Y121.213 E0.13165
G1 X148.864 Y122.855 E0.13165
G1 X145.274 Y124.440 E0.13165
G1 X141.660 Y125.968 E0.13164
G1 X137.975 Y127.454 E0.13329
G1 X134.360 Y128.847 E0.13000
G1 X130.676 Y130.198 E0.13165
G1 X126.970 Y131.490 E0.13165
G1 X123.245 Y132.723 E0.13165
G1 X119.500 Y133.895 E0.13165
G1 X115.737 Y135.007 E0.13165
G1 X111.957 Y136.058 E0.13164
G1 X108.112 Y137.060 E0.13330
G1 X104.347 Y137.978 E0.13000
