; generated by Slic3r 1.35.5-prusa3d-win64 on 2017-07-25 at 17:23:13

; 

; external perimeters extrusion width = 0.45mm
; perimeters extrusion width = 0.45mm
; infill extrusion width = 0.45mm
; solid infill extrusion width = 0.45mm
; top infill extrusion width = 0.45mm
; first layer extrusion width = 0.42mm

M107
M115 U3.0.11 ; tell printer latest fw version
M83  ; extruder relative mode
M104 S215 ; set extruder temp
M140 S55 ; set bed temp
M190 S55 ; wait for bed temp
M109 S215 ; wait for extruder temp
G28 W ; home all without mesh bed level
G80 ; mesh bed leveling
G1 Y-3.0 F1000.0 ; go outside pritn area
G1 X60.0 E9.0  F1000.0 ; intro line
G1 X100.0 E12.5  F1000.0 ; intro line
; Filament gcode

G21 ; set units to millimeters
G90 ; use absolute coordinates
M83 ; use relative distances for extrusion
G1 E-0.80000 F2100.00000
G1 Z0.200 F7200.000
G1 X94.745 Y55.885 F7200.000
G1 E0.80000 F2100.00000
M204 S1000
G1 F2100
G1 X95.565 Y55.741 E0.02769
G1 X101.629 Y55.741 E0.20154
G1 X102.441 Y55.864 E0.02729
G1 X103.183 Y56.224 E0.02742
G1 X104.587 Y57.562 E0.06445
G1 X104.951 Y58.020 E0.01945
G1 X157.787 Y144.175 E3.35897
G1 X158.028 Y144.766 E0.02121
G1 X158.127 Y145.392 E0.02107
G1 X158.129 Y150.534 E0.17089
G1 X158.069 Y151.079 E0.01823
G1 X157.854 Y151.706 E0.02202
G1 X157.493 Y152.266 E0.02216
G1 X156.243 Y153.529 E0.05906
G1 X155.705 Y153.917 E0.02202
G1 X155.126 Y154.155 E0.02080
G1 X154.509 Y154.256 E0.02080
G1 X151.001 Y154.259 E0.11658
G1 X150.373 Y154.173 E0.02107
G1 X121.721 Y145.345 E0.99642
G1 X120.949 Y144.962 E0.02863
G1 X119.321 Y143.651 E0.06948
G1 X118.945 Y143.263 E0.01796
G1 X92.212 Y108.823 E1.44899
G1 X91.960 Y108.188 E0.02270
G1 X91.871 Y107.511 E0.02270
G1 X91.913 Y59.014 E1.61184
G1 X92.152 Y58.283 E0.02553
G1 X92.583 Y57.647 E0.02553
G1 X93.884 Y56.361 E0.06083
G1 X94.692 Y55.914 E0.03067
G1 X94.905 Y56.230 F7200.000
G1 F2100
G1 X95.586 Y56.118 E0.02296
G1 X101.629 Y56.118 E0.20082
G1 X102.341 Y56.228 E0.02396
G1 X102.988 Y56.547 E0.02396
G1 X104.322 Y57.830 E0.06152
G1 X104.634 Y58.224 E0.01668
G1 X157.455 Y144.354 E3.35804
G1 X157.665 Y144.868 E0.01844
G1 X157.750 Y145.416 E0.01844
G1 X157.701 Y150.993 E0.18535
G1 X157.513 Y151.543 E0.01932
G1 X157.195 Y152.034 E0.01945
G1 X155.993 Y153.247 E0.05676
G1 X155.525 Y153.585 E0.01919
G1 X155.019 Y153.793 E0.01819
G1 X154.478 Y153.880 E0.01819
G1 X151.016 Y153.882 E0.11506
G1 X150.459 Y153.805 E0.01869
G1 X121.837 Y144.986 E0.99542
G1 X121.164 Y144.652 E0.02496
G1 X119.241 Y143.030 E0.08360
G1 X92.545 Y108.646 E1.44678
G1 X92.325 Y108.096 E0.01970
G1 X92.248 Y107.508 E0.01970
G1 X92.283 Y59.089 E1.60922
G1 X92.492 Y58.447 E0.02246
G1 X92.873 Y57.889 E0.02246
G1 X94.122 Y56.653 E0.05840
G1 X94.852 Y56.258 E0.02758
G1 F5760
G1 X95.586 Y56.118 E-0.25898
G1 F5760
G1 X97.033 Y56.118 E-0.50102
G1 E-0.04000 F2100.00000
G1 X100.034 Y63.683 F7200.000
G1 E0.80000 F2100.00000
G1 F2100
G1 X99.814 Y63.904 E0.01038
G1 X99.814 Y103.085 E1.30221
G1 X100.034 Y103.306 E0.01038
G1 X105.466 Y103.306 E0.18051
G1 X105.686 Y103.085 E0.01038
G1 X105.686 Y96.417 E0.22164
G1 X105.797 Y96.306 E0.00519
G1 X109.913 Y96.306 E0.13678
G1 X109.982 Y96.335 E0.00249
G1 X111.035 Y97.388 E0.04950
G1 X111.064 Y97.457 E0.00249
G1 X111.064 Y107.447 E0.33199
G1 X111.551 Y109.318 E0.06428
G1 X125.547 Y134.393 E0.95441
G1 X125.593 Y134.448 E0.00240
G1 X126.923 Y135.524 E0.05684
G1 X126.986 Y135.558 E0.00240
G1 X154.504 Y144.039 E0.95702
G1 X154.576 Y144.105 E0.00324
G1 X155.545 Y145.417 E0.05422
G1 X155.564 Y145.475 E0.00201
G1 X155.564 Y150.543 E0.16843
G1 X155.535 Y150.612 E0.00249
G1 X154.482 Y151.665 E0.04950
G1 X154.413 Y151.694 E0.00249
G1 X151.016 Y151.689 E0.11288
G1 X122.439 Y142.875 E0.99392
G1 X120.945 Y141.657 E0.06407
G1 X103.024 Y109.550 E1.22204
G1 X102.954 Y109.478 E0.00335
G1 X101.645 Y108.710 E0.05045
G1 X101.548 Y108.683 E0.00335
G1 X95.587 Y108.683 E0.19809
G1 X95.518 Y108.655 E0.00249
G1 X94.465 Y107.602 E0.04950
G1 X94.436 Y107.532 E0.00249
G1 X94.436 Y59.457 E1.59780
G1 X94.465 Y59.388 E0.00249
G1 X95.518 Y58.335 E0.04950
G1 X95.587 Y58.306 E0.00249
G1 X101.663 Y58.306 E0.20191
G1 X101.732 Y58.335 E0.00249
G1 X102.785 Y59.388 E0.04950
G1 X102.814 Y59.457 E0.00249
G1 X102.814 Y63.573 E0.13678
G1 X102.703 Y63.683 E0.00519
G1 X100.094 Y63.683 E0.08670
G1 X99.415 Y63.285 F7200.000
G1 F1050
G1 X99.415 Y103.705 E1.34338
G1 X106.085 Y103.705 E0.22168
G1 X106.085 Y96.705 E0.23265
G1 X109.788 Y96.705 E0.12307
G1 X110.665 Y97.582 E0.04122
G1 X110.665 Y107.522 E0.33036
G1 X111.166 Y109.447 E0.06612
G1 X125.254 Y134.687 E0.96068
G1 X126.760 Y135.905 E0.06439
G1 X154.291 Y144.391 E0.95749
G1 X155.165 Y145.574 E0.04888
G1 X155.165 Y150.418 E0.16099
G1 X154.288 Y151.295 E0.04122
G1 X151.090 Y151.295 E0.10629
G1 X122.645 Y142.528 E0.98928
G1 X121.265 Y141.411 E0.05900
G1 X103.294 Y109.216 E1.22543
G1 X101.708 Y108.285 E0.06112
G1 X95.712 Y108.285 E0.19928
G1 X94.835 Y107.408 E0.04122
G1 X94.835 Y59.582 E1.58952
G1 X95.712 Y58.705 E0.04122
G1 X101.538 Y58.705 E0.19363
G1 X102.415 Y59.582 E0.04122
G1 X102.415 Y63.285 E0.12307
G1 X99.475 Y63.285 E0.09771
G1 X99.032 Y63.402 F7200.000
G1 X99.038 Y62.908 F7200.000
G1 F1680
G1 X99.038 Y104.082 E1.36845
G1 X106.462 Y104.082 E0.24675
G1 X106.462 Y97.082 E0.23265
G1 X109.632 Y97.082 E0.10535
G1 X110.288 Y97.738 E0.03084
G1 X110.288 Y107.570 E0.32677
G1 X110.813 Y109.589 E0.06932
G1 X124.960 Y134.934 E0.96471
G1 X126.580 Y136.244 E0.06923
G1 X154.062 Y144.715 E0.95579
G1 X154.788 Y145.698 E0.04063
G1 X154.788 Y150.262 E0.15167
G1 X154.132 Y150.918 E0.03084
G1 X151.147 Y150.918 E0.09921
G1 X122.825 Y142.189 E0.98497
G1 X121.558 Y141.164 E0.05416
G1 X103.573 Y108.943 E1.22642
G1 X101.811 Y107.908 E0.06793
G1 X95.868 Y107.908 E0.19750
G1 X95.212 Y107.252 E0.03084
G1 X95.212 Y59.738 E1.57914
G1 X95.868 Y59.082 E0.03084
G1 X101.382 Y59.082 E0.18325
G1 X102.038 Y59.738 E0.03084
G1 X102.038 Y62.908 E0.10535
G1 X99.098 Y62.908 E0.09771
G1 X98.661 Y62.531 F7200.000
G1 F1680
G1 X98.661 Y104.459 E1.39351
G1 X106.839 Y104.459 E0.27181
G1 X106.839 Y97.459 E0.23265
G1 X109.476 Y97.459 E0.08762
G1 X109.911 Y97.894 E0.02046
G1 X109.911 Y107.618 E0.32318
G1 X110.460 Y109.730 E0.07253
G1 X124.667 Y135.181 E0.96873
G1 X126.399 Y136.583 E0.07407
G1 X153.832 Y145.038 E0.95408
G1 X154.411 Y145.822 E0.03238
G1 X154.411 Y150.106 E0.14236
G1 X153.976 Y150.541 E0.02046
G1 X151.203 Y150.541 E0.09214
G1 X123.006 Y141.850 E0.98067
G1 X121.852 Y140.916 E0.04933
G1 X103.853 Y108.669 E1.22741
G1 X101.913 Y107.531 E0.07474
G1 X96.024 Y107.531 E0.19571
G1 X95.589 Y107.096 E0.02046
G1 X95.589 Y59.894 E1.56876
G1 X96.024 Y59.459 E0.02046
G1 X101.226 Y59.459 E0.17287
G1 X101.661 Y59.894 E0.02046
G1 X101.661 Y62.531 E0.08762
G1 X98.721 Y62.531 E0.09771
G1 F5760
G1 X98.718 Y64.725 E-0.76000
G1 E-0.04000 F2100.00000
G1 X101.548 Y60.183 F7200.000
G1 E0.80000 F2100.00000
G1 F1680
G1 X101.107 Y59.742 E0.02082
G1 X100.571 Y59.742 E0.01790
G1 X101.378 Y60.549 E0.03812
G1 X101.378 Y61.085 E0.01790
G1 X100.035 Y59.742 E0.06343
G1 X99.499 Y59.742 E0.01790
G1 X101.378 Y61.621 E0.08875
G1 X101.378 Y62.157 E0.01790
G1 X98.963 Y59.742 E0.11407
G1 X98.427 Y59.742 E0.01790
G1 X100.933 Y62.248 E0.11838
G1 X100.397 Y62.248 E0.01790
G1 X97.891 Y59.742 E0.11838
G1 X97.355 Y59.742 E0.01790
G1 X99.862 Y62.248 E0.11838
G1 X99.326 Y62.248 E0.01790
G1 X96.819 Y59.742 E0.11838
G1 X96.284 Y59.742 E0.01790
G1 X98.790 Y62.248 E0.11838
G1 X98.378 Y62.248 E0.01375
G1 X98.378 Y62.372 E0.00415
G1 X95.945 Y59.939 E0.11495
G1 X95.872 Y60.011 E0.00343
G1 X95.872 Y60.402 E0.01305
G1 X98.378 Y62.908 E0.11838
G1 X98.378 Y63.444 E0.01790
G1 X95.872 Y60.938 E0.11838
G1 X95.872 Y61.474 E0.01790
G1 X98.378 Y63.980 E0.11838
G1 X98.378 Y64.516 E0.01790
G1 X95.872 Y62.010 E0.11838
G1 X95.872 Y62.546 E0.01790
G1 X98.378 Y65.052 E0.11838
G1 X98.378 Y65.588 E0.01790
G1 X95.872 Y63.082 E0.11838
G1 X95.872 Y63.618 E0.01790
G1 X98.378 Y66.124 E0.11838
G1 X98.378 Y66.660 E0.01790
G1 X95.872 Y64.154 E0.11838
G1 X95.872 Y64.690 E0.01790
G1 X98.378 Y67.196 E0.11838
G1 X98.378 Y67.732 E0.01790
G1 X95.872 Y65.226 E0.11838
G1 X95.872 Y65.762 E0.01790
G1 X98.378 Y68.268 E0.11838
G1 X98.378 Y68.804 E0.01790
G1 X95.872 Y66.298 E0.11838
G1 X95.872 Y66.834 E0.01790
G1 X98.378 Y69.340 E0.11838
G1 X98.378 Y69.876 E0.01790
G1 X95.872 Y67.370 E0.11838
G1 X95.872 Y67.905 E0.01790
G1 X98.378 Y70.412 E0.11838
G1 X98.378 Y70.948 E0.01790
G1 X95.872 Y68.441 E0.11838
G1 X95.872 Y68.977 E0.01790
G1 X98.378 Y71.483 E0.11838
G1 X98.378 Y72.019 E0.01790
G1 X95.872 Y69.513 E0.11838
G1 X95.872 Y70.049 E0.01790
G1 X98.378 Y72.555 E0.11838
G1 X98.378 Y73.091 E0.01790
G1 X95.872 Y70.585 E0.11838
G1 X95.872 Y71.121 E0.01790
G1 X98.378 Y73.627 E0.11838
G1 X98.378 Y74.163 E0.01790
G1 X95.872 Y71.657 E0.11838
G1 X95.872 Y72.193 E0.01790
G1 X98.378 Y74.699 E0.11838
G1 X98.378 Y75.235 E0.01790
G1 X95.872 Y72.729 E0.11838
G1 X95.872 Y73.265 E0.01790
G1 X98.378 Y75.771 E0.11838
G1 X98.378 Y76.307 E0.01790
G1 X95.872 Y73.801 E0.11838
G1 X95.872 Y74.337 E0.01790
G1 X98.378 Y76.843 E0.11838
G1 X98.378 Y77.379 E0.01790
G1 X95.872 Y74.873 E0.11838
G1 X95.872 Y75.409 E0.01790
G1 X98.378 Y77.915 E0.11838
G1 X98.378 Y78.451 E0.01790
G1 X95.872 Y75.945 E0.11838
G1 X95.872 Y76.481 E0.01790
G1 X98.378 Y78.987 E0.11838
G1 X98.378 Y79.523 E0.01790
G1 X95.872 Y77.017 E0.11838
G1 X95.872 Y77.553 E0.01790
G1 X98.378 Y80.059 E0.11838
G1 X98.378 Y80.595 E0.01790
G1 X95.872 Y78.089 E0.11838
G1 X95.872 Y78.624 E0.01790
G1 X98.378 Y81.131 E0.11838
G1 X98.378 Y81.667 E0.01790
G1 X95.872 Y79.160 E0.11838
G1 X95.872 Y79.696 E0.01790
G1 X98.378 Y82.202 E0.11838
G1 X98.378 Y82.738 E0.01790
G1 X95.872 Y80.232 E0.11838
G1 X95.872 Y80.768 E0.01790
G1 X98.378 Y83.274 E0.11838
G1 X98.378 Y83.810 E0.01790
G1 X95.872 Y81.304 E0.11838
G1 X95.872 Y81.840 E0.01790
G1 X98.378 Y84.346 E0.11838
G1 X98.378 Y84.882 E0.01790
G1 X95.872 Y82.376 E0.11838
G1 X95.872 Y82.912 E0.01790
G1 X98.378 Y85.418 E0.11838
G1 X98.378 Y85.954 E0.01790
G1 X95.872 Y83.448 E0.11838
G1 X95.872 Y83.984 E0.01790
G1 X98.378 Y86.490 E0.11838
G1 X98.378 Y87.026 E0.01790
G1 X95.872 Y84.520 E0.11838
G1 X95.872 Y85.056 E0.01790
G1 X98.378 Y87.562 E0.11838
G1 X98.378 Y88.098 E0.01790
G1 X95.872 Y85.592 E0.11838
G1 X95.872 Y86.128 E0.01790
G1 X98.378 Y88.634 E0.11838
G1 X98.378 Y89.170 E0.01790
G1 X95.872 Y86.664 E0.11838
G1 X95.872 Y87.200 E0.01790
G1 X98.378 Y89.706 E0.11838
G1 X98.378 Y90.242 E0.01790
G1 X95.872 Y87.736 E0.11838
G1 X95.872 Y88.272 E0.01790
G1 X98.378 Y90.778 E0.11838
G1 X98.378 Y91.314 E0.01790
G1 X95.872 Y88.808 E0.11838
G1 X95.872 Y89.343 E0.01790
G1 X98.378 Y91.850 E0.11838
G1 X98.378 Y92.386 E0.01790
G1 X95.872 Y89.879 E0.11838
G1 X95.872 Y90.415 E0.01790
G1 X98.378 Y92.921 E0.11838
G1 X98.378 Y93.457 E0.01790
G1 X95.872 Y90.951 E0.11838
G1 X95.872 Y91.487 E0.01790
G1 X98.378 Y93.993 E0.11838
G1 X98.378 Y94.529 E0.01790
G1 X95.872 Y92.023 E0.11838
G1 X95.872 Y92.559 E0.01790
G1 X98.378 Y95.065 E0.11838
G1 X98.378 Y95.601 E0.01790
G1 X95.872 Y93.095 E0.11838
G1 X95.872 Y93.631 E0.01790
G1 X98.378 Y96.137 E0.11838
G1 X98.378 Y96.673 E0.01790
G1 X95.872 Y94.167 E0.11838
G1 X95.872 Y94.703 E0.01790
G1 X98.378 Y97.209 E0.11838
G1 X98.378 Y97.745 E0.01790
G1 X95.872 Y95.239 E0.11838
G1 X95.872 Y95.775 E0.01790
G1 X98.378 Y98.281 E0.11838
G1 X98.378 Y98.817 E0.01790
G1 X95.872 Y96.311 E0.11838
G1 X95.872 Y96.847 E0.01790
G1 X98.378 Y99.353 E0.11838
G1 X98.378 Y99.889 E0.01790
G1 X95.872 Y97.383 E0.11838
G1 X95.872 Y97.919 E0.01790
G1 X98.378 Y100.425 E0.11838
G1 X98.378 Y100.961 E0.01790
G1 X95.872 Y98.455 E0.11838
G1 X95.872 Y98.991 E0.01790
G1 X98.378 Y101.497 E0.11838
G1 X98.378 Y102.033 E0.01790
G1 X95.872 Y99.527 E0.11838
G1 X95.872 Y100.062 E0.01790
G1 X98.378 Y102.569 E0.11838
G1 X98.378 Y103.105 E0.01790
G1 X95.872 Y100.598 E0.11838
G1 X95.872 Y101.134 E0.01790
G1 X98.378 Y103.641 E0.11838
G1 X98.378 Y104.176 E0.01790
G1 X95.872 Y101.670 E0.11838
G1 X95.872 Y102.206 E0.01790
G1 X100.914 Y107.248 E0.23816
G1 X101.450 Y107.248 E0.01790
G1 X98.943 Y104.742 E0.11838
G1 X99.479 Y104.742 E0.01790
G1 X102.456 Y107.718 E0.14060
G1 F5760
G1 X100.904 Y106.167 E-0.76000
G1 E-0.04000 F2100.00000
G1 X103.754 Y108.480 F7200.000
G1 E0.80000 F2100.00000
G1 F1680
G1 X99.846 Y104.572 E0.18461
G1 F5760
G1 X101.397 Y106.124 E-0.76000
G1 E-0.04000 F2100.00000
G1 X100.547 Y107.418 F7200.000
G1 E0.80000 F2100.00000
G1 F1680
G1 X95.872 Y102.742 E0.22086
G1 X95.872 Y103.278 E0.01790
G1 X99.842 Y107.248 E0.18753
G1 X99.306 Y107.248 E0.01790
G1 X95.872 Y103.814 E0.16221
G1 X95.872 Y104.350 E0.01790
G1 X98.770 Y107.248 E0.13689
G1 X98.234 Y107.248 E0.01790
G1 X95.872 Y104.886 E0.11157
G1 X95.872 Y105.422 E0.01790
G1 X97.698 Y107.248 E0.08626
G1 X97.162 Y107.248 E0.01790
G1 X95.872 Y105.958 E0.06094
G1 X95.872 Y106.494 E0.01790
G1 X96.796 Y107.418 E0.04364
G1 F5760
G1 X95.872 Y106.494 E-0.45248
G1 F5760
G1 X95.872 Y105.958 E-0.18563
G1 F5760
G1 X96.121 Y106.207 E-0.12189
G1 E-0.04000 F2100.00000
G1 X104.032 Y108.758 F7200.000
G1 E0.80000 F2100.00000
G1 F1680
G1 X117.061 Y121.787 E0.61548
G1 F5760
G1 X115.509 Y120.236 E-0.76000
G1 E-0.04000 F2100.00000
G1 X117.738 Y123.000 F7200.000
G1 E0.80000 F2100.00000
G1 F1680
G1 X104.709 Y109.971 E0.61548
G1 F5760
G1 X106.260 Y111.523 E-0.76000
G1 E-0.04000 F2100.00000
G1 X105.386 Y111.184 F7200.000
G1 E0.80000 F2100.00000
G1 F1680
G1 X118.415 Y124.213 E0.61548
G1 F5760
G1 X116.863 Y122.662 E-0.76000
G1 E-0.04000 F2100.00000
G1 X119.092 Y125.426 F7200.000
G1 E0.80000 F2100.00000
G1 F1680
G1 X106.063 Y112.397 E0.61548
G1 F5760
G1 X107.614 Y113.949 E-0.76000
G1 E-0.04000 F2100.00000
G1 X106.740 Y113.610 F7200.000
G1 E0.80000 F2100.00000
G1 F1680
G1 X119.769 Y126.639 E0.61548
G1 F5760
G1 X118.218 Y125.088 E-0.76000
G1 E-0.04000 F2100.00000
G1 X120.446 Y127.852 F7200.000
G1 E0.80000 F2100.00000
G1 F1680
G1 X107.417 Y114.823 E0.61548
G1 F5760
G1 X108.969 Y116.375 E-0.76000
G1 E-0.04000 F2100.00000
G1 X108.094 Y116.036 F7200.000
G1 E0.80000 F2100.00000
G1 F1680
G1 X121.123 Y129.066 E0.61548
G1 F5760
G1 X119.572 Y127.514 E-0.76000
G1 E-0.04000 F2100.00000
G1 X121.800 Y130.279 F7200.000
G1 E0.80000 F2100.00000
G1 F1680
G1 X108.771 Y117.249 E0.61548
G1 F5760
G1 X110.323 Y118.801 E-0.76000
G1 E-0.04000 F2100.00000
G1 X109.448 Y118.462 F7200.000
G1 E0.80000 F2100.00000
G1 F1680
G1 X122.477 Y131.492 E0.61548
G1 F5760
G1 X120.926 Y129.940 E-0.76000
G1 E-0.04000 F2100.00000
G1 X123.155 Y132.705 F7200.000
G1 E0.80000 F2100.00000
G1 F1680
G1 X110.125 Y119.675 E0.61548
G1 F5760
G1 X111.677 Y121.227 E-0.76000
G1 E-0.04000 F2100.00000
G1 X110.802 Y120.888 F7200.000
G1 E0.80000 F2100.00000
G1 F1680
G1 X123.832 Y133.918 E0.61548
G1 F5760
G1 X122.280 Y132.366 E-0.76000
G1 E-0.04000 F2100.00000
G1 X124.509 Y135.131 F7200.000
G1 E0.80000 F2100.00000
G1 F1680
G1 X111.480 Y122.102 E0.61548
G1 F5760
G1 X113.031 Y123.653 E-0.76000
G1 E-0.04000 F2100.00000
G1 X112.157 Y123.315 F7200.000
G1 E0.80000 F2100.00000
G1 F1680
G1 X133.689 Y144.847 E1.01715
G1 X134.464 Y145.086 E0.02708
G1 X126.012 Y136.634 E0.39926
G1 X126.263 Y136.837 E0.01082
G1 X126.969 Y137.055 E0.02465
G1 X135.238 Y145.324 E0.39064
G1 X136.013 Y145.563 E0.02708
G1 X127.743 Y137.294 E0.39064
G1 X128.518 Y137.532 E0.02708
G1 X136.788 Y145.802 E0.39064
G1 X137.563 Y146.041 E0.02708
G1 X129.293 Y137.771 E0.39064
G1 X130.068 Y138.010 E0.02708
G1 X138.337 Y146.280 E0.39064
G1 X139.112 Y146.518 E0.02708
G1 X130.842 Y138.249 E0.39064
G1 X131.617 Y138.487 E0.02708
G1 X139.887 Y146.757 E0.39064
G1 X140.662 Y146.996 E0.02708
G1 X132.392 Y138.726 E0.39064
G1 X133.167 Y138.965 E0.02708
G1 X141.436 Y147.235 E0.39064
G1 X142.211 Y147.473 E0.02708
G1 X133.941 Y139.204 E0.39064
G1 X134.716 Y139.443 E0.02708
G1 X142.986 Y147.712 E0.39064
G1 X143.760 Y147.951 E0.02708
G1 X135.491 Y139.681 E0.39064
G1 X136.266 Y139.920 E0.02708
G1 X144.535 Y148.190 E0.39064
G1 X145.310 Y148.429 E0.02708
G1 X137.040 Y140.159 E0.39064
G1 X137.815 Y140.398 E0.02708
G1 X146.085 Y148.667 E0.39064
G1 X146.859 Y148.906 E0.02708
G1 X138.590 Y140.636 E0.39064
G1 X139.364 Y140.875 E0.02708
