; generated by Slic3r 1.35.5-prusa3d-win64 on 2017-08-19 at 00:06:22

; 

; external perimeters extrusion width = 0.45mm
; perimeters extrusion width = 0.45mm
; infill extrusion width = 0.45mm
; solid infill extrusion width = 0.45mm
; top infill extrusion width = 0.45mm
; support material extrusion width = 0.35mm
; first layer extrusion width = 0.42mm

M115 U3.0.11 ; tell printer latest fw version
M83  ; extruder relative mode
M104 S235 ; set extruder temp
M140 S55 ; set bed temp
M190 S55 ; wait for bed temp
M109 S235 ; wait for extruder temp
G28 W ; home all without mesh bed level
G80 ; mesh bed leveling
G1 Y-3.0 F1000.0 ; go outside pritn area
G1 X60.0 E9.0  F1000.0 ; intro line
G1 X100.0 E12.5  F1000.0 ; intro line
; Filament gcode

G21 ; set units to millimeters
G90 ; use absolute coordinates
M83 ; use relative distances for extrusion
M106 S127.5
G1 E-0.80000 F2100.00000
G1 Z0.200 F7200.000
G1 X112.126 Y62.532 F7200.000
G1 E0.80000 F2100.00000
M204 S1000
G1 F2100
G1 X113.049 Y62.631 E0.02909
G1 X113.933 Y62.940 E0.02935
G1 X131.801 Y72.450 E0.63466
G1 X133.586 Y73.508 E0.06505
G1 X135.352 Y74.682 E0.06651
G1 X137.786 Y76.536 E0.09591
G1 X139.374 Y77.915 E0.06595
G1 X140.915 Y79.403 E0.06716
G1 X142.975 Y81.664 E0.09591
G1 X144.302 Y83.323 E0.06659
G1 X145.535 Y85.042 E0.06634
G1 X146.655 Y86.788 E0.06505
G1 X154.283 Y99.708 E0.47043
G1 X154.534 Y100.291 E0.01988
G1 X154.644 Y100.915 E0.01988
G1 X154.649 Y114.168 E0.41555
G1 X154.508 Y115.014 E0.02689
G1 X154.280 Y115.522 E0.01745
G1 X146.564 Y128.762 E0.48050
G1 X145.417 Y130.532 E0.06613
G1 X144.187 Y132.230 E0.06574
G1 X142.886 Y133.843 E0.06497
G1 X141.518 Y135.372 E0.06432
G1 X139.265 Y137.586 E0.09905
G1 X136.840 Y139.620 E0.09922
G1 X135.188 Y140.834 E0.06428
G1 X133.475 Y141.963 E0.06433
G1 X131.620 Y143.052 E0.06745
G1 X128.865 Y144.437 E0.09669
G1 X118.286 Y149.126 E0.36281
G1 X117.369 Y149.342 E0.02955
G1 X113.388 Y149.347 E0.12482
G1 X107.322 Y149.176 E0.19026
G1 X106.506 Y149.029 E0.02600
G1 X106.022 Y148.808 E0.01669
G1 X99.029 Y144.711 E0.25412
G1 X98.591 Y144.305 E0.01873
G1 X98.248 Y143.811 E0.01886
G1 X98.022 Y143.257 E0.01873
G1 X97.921 Y142.665 E0.01886
G1 X97.942 Y137.297 E0.16831
G1 X108.624 Y65.145 E2.28691
G1 X108.781 Y64.586 E0.01821
G1 X109.039 Y64.077 E0.01790
G1 X109.389 Y63.624 E0.01794
G1 X109.822 Y63.239 E0.01817
G1 X110.337 Y62.927 E0.01888
G1 X110.909 Y62.704 E0.01926
G1 X112.067 Y62.541 E0.03666
G1 F5760
G1 X113.049 Y62.631 E-0.34154
G1 F5760
G1 X113.933 Y62.940 E-0.32424
G1 F5760
G1 X114.173 Y63.068 E-0.09422
G1 E-0.04000 F2100.00000
G1 X109.359 Y64.276 F7200.000
G1 E0.80000 F2100.00000
G1 F2100
G1 X110.057 Y63.534 E0.03195
G1 X111.028 Y63.062 E0.03385
G1 X112.126 Y62.909 E0.03478
G1 X112.967 Y62.999 E0.02652
G1 X113.765 Y63.278 E0.02650
G1 X131.619 Y72.780 E0.63412
G1 X133.384 Y73.826 E0.06435
G1 X135.132 Y74.988 E0.06580
G1 X137.549 Y76.830 E0.09530
G1 X139.119 Y78.193 E0.06519
G1 X140.643 Y79.664 E0.06640
G1 X142.690 Y81.911 E0.09530
G1 X144.001 Y83.549 E0.06578
G1 X145.219 Y85.248 E0.06554
G1 X146.333 Y86.985 E0.06471
G1 X153.953 Y99.891 E0.46994
G1 X154.172 Y100.397 E0.01728
G1 X154.268 Y100.936 E0.01716
G1 X154.272 Y114.163 E0.41472
G1 X154.150 Y114.896 E0.02331
G1 X146.240 Y128.569 E0.49528
G1 X145.105 Y130.321 E0.06546
G1 X143.888 Y132.000 E0.06498
G1 X142.597 Y133.601 E0.06451
G1 X141.240 Y135.117 E0.06379
G1 X139.009 Y137.309 E0.09806
G1 X136.613 Y139.319 E0.09807
G1 X134.974 Y140.524 E0.06378
G1 X133.275 Y141.643 E0.06379
G1 X131.442 Y142.719 E0.06667
G1 X128.709 Y144.093 E0.09590
G1 X118.142 Y148.777 E0.36240
G1 X117.346 Y148.966 E0.02567
G1 X113.368 Y148.969 E0.12472
G1 X107.298 Y148.798 E0.19038
G1 X106.652 Y148.680 E0.02060
G1 X99.278 Y144.425 E0.26695
G1 X98.889 Y144.073 E0.01645
G1 X98.587 Y143.644 E0.01645
G1 X98.387 Y143.159 E0.01645
G1 X98.297 Y142.642 E0.01645
G1 X98.315 Y137.346 E0.16607
G1 X108.993 Y65.219 E2.28614
G1 X109.337 Y64.332 E0.02982
G1 F5760
G1 X110.057 Y63.534 E-0.37224
G1 F5760
G1 X111.028 Y63.062 E-0.37393
G1 F5760
G1 X111.067 Y63.057 E-0.01383
G1 E-0.04000 F2100.00000
G1 X144.353 Y100.910 F7200.000
G1 E0.80000 F2100.00000
G1 F2100
G1 X144.353 Y113.974 E0.40960
G1 X145.108 Y113.974 E0.02365
G1 X145.108 Y101.080 E0.40428
G1 X145.862 Y101.080 E0.02365
G1 X145.862 Y113.974 E0.40428
G1 X146.616 Y113.974 E0.02365
G1 X146.616 Y101.080 E0.40428
G1 X147.370 Y101.080 E0.02365
G1 X147.370 Y113.927 E0.40281
G1 X147.537 Y113.895 E0.00532
G1 X148.124 Y113.895 E0.01842
G1 X148.124 Y101.080 E0.40180
G1 X148.878 Y101.080 E0.02365
G1 X148.878 Y113.895 E0.40181
G1 X149.029 Y113.918 E0.00479
G1 X149.161 Y113.974 E0.00448
G1 X149.632 Y113.974 E0.01479
G1 X149.632 Y101.080 E0.40428
G1 X150.387 Y101.080 E0.02365
G1 X150.387 Y113.974 E0.40428
G1 X151.141 Y113.974 E0.02365
G1 X151.141 Y101.080 E0.40428
G1 X151.895 Y101.080 E0.02365
G1 X151.895 Y114.144 E0.40960
G1 F5760
G1 X151.895 Y111.949 E-0.76000
G1 E-0.04000 F2100.00000
G1 X117.204 Y133.360 F7200.000
G1 E0.80000 F2100.00000
G1 F2100
G1 X117.204 Y137.299 E0.12353
G1 X116.695 Y137.383 E0.01615
G1 X116.449 Y137.383 E0.00771
G1 X116.449 Y133.529 E0.12082
G1 X115.695 Y133.529 E0.02365
G1 X115.695 Y137.383 E0.12082
G1 X115.458 Y137.387 E0.00744
G1 X115.270 Y137.422 E0.00599
G1 X115.086 Y137.502 E0.00630
G1 X114.941 Y137.615 E0.00575
G1 X114.941 Y133.529 E0.12810
G1 X114.187 Y133.529 E0.02365
G1 X114.187 Y146.423 E0.40428
G1 X114.941 Y146.423 E0.02365
G1 X114.941 Y145.360 E0.03333
G1 X115.091 Y145.472 E0.00586
G1 X115.273 Y145.546 E0.00618
G1 X115.482 Y145.576 E0.00661
G1 X115.695 Y145.563 E0.00670
G1 X115.695 Y146.423 E0.02698
G1 X116.449 Y146.423 E0.02365
G1 X116.449 Y145.483 E0.02947
G1 X117.204 Y145.388 E0.02383
G1 X117.204 Y146.593 E0.03778
G1 X113.433 Y146.593 F7200.000
G1 F2100
G1 X113.433 Y133.529 E0.40960
G1 X112.679 Y133.529 E0.02365
G1 X112.679 Y146.423 E0.40428
G1 X111.925 Y146.423 E0.02365
G1 X111.925 Y133.529 E0.40428
G1 X111.170 Y133.529 E0.02365
G1 X111.170 Y146.423 E0.40428
G1 X110.416 Y146.423 E0.02365
G1 X110.416 Y133.529 E0.40428
G1 X109.662 Y133.529 E0.02365
G1 X109.662 Y146.423 E0.40428
G1 X108.908 Y146.423 E0.02365
G1 X108.908 Y142.765 E0.11469
G1 X108.726 Y142.788 E0.00574
G1 X108.154 Y142.788 E0.01795
G1 X108.154 Y146.423 E0.11397
G1 X107.400 Y146.423 E0.02365
G1 X107.400 Y142.619 E0.11929
G1 F5760
G1 X107.400 Y144.813 E-0.76000
G1 E-0.04000 F2100.00000
G1 X108.908 Y137.581 F7200.000
G1 E0.80000 F2100.00000
G1 F2100
G1 X108.908 Y133.529 E0.12702
G1 X108.154 Y133.529 E0.02365
G1 X108.154 Y137.383 E0.12082
G1 X107.400 Y137.383 E0.02365
G1 X107.400 Y133.360 E0.12614
G1 F5760
G1 X107.400 Y135.554 E-0.76000
G1 E-0.04000 F2100.00000
G1 X116.526 Y138.949 F7200.000
G1 E0.80000 F2100.00000
G1 F1680
G1 X116.432 Y139.611 E0.01400
G1 F1680
G1 X116.414 Y139.782 E0.00248
G1 X116.412 Y142.140 E0.03414
G1 X116.446 Y142.574 E0.00630
G1 X116.512 Y143.044 E0.00687
G1 X116.248 Y143.208 F7200.000
G1 F1680
G1 X116.947 Y143.907 E0.03233
G1 X117.177 Y143.523 F7200.000
G1 F1680
G1 X117.372 Y143.729 E0.00085
G1 X117.483 Y143.750 E0.00034
G1 X118.079 Y143.845 F7200.000
G1 F1680
G1 X118.642 Y143.815 E0.01340
G1 F1680
G1 X118.912 Y143.790 E0.00463
G1 X119.963 Y143.576 E0.01829
G1 X121.090 Y143.307 E0.01976
G1 X122.007 Y143.066 E0.01616
G1 X123.617 Y142.578 E0.02869
G1 X125.395 Y141.941 E0.03220
G1 X126.476 Y141.497 E0.01993
G1 X128.008 Y140.809 E0.02864
G1 X129.048 Y140.285 E0.01985
G1 X129.691 Y139.947 E0.01239
G1 X130.796 Y139.319 E0.02167
G1 X132.124 Y138.493 E0.02667
G1 X133.107 Y137.834 E0.02017
G1 X134.448 Y136.856 E0.02830
G1 X135.447 Y136.061 E0.02176
G1 X136.811 Y134.885 E0.03072
G1 X137.678 Y134.067 E0.02031
G1 X138.839 Y132.888 E0.02822
G1 X139.480 Y132.196 E0.01608
G1 X140.101 Y131.483 E0.01612
G1 X141.146 Y130.192 E0.02833
G1 X141.862 Y129.242 E0.02029
G1 X142.274 Y128.661 E0.01214
G1 X142.928 Y127.679 E0.02011
G1 X143.436 Y126.879 E0.01616
G1 X144.273 Y125.444 E0.02832
G1 X145.142 Y123.768 E0.03220
G1 X145.741 Y122.463 E0.02448
G1 X146.287 Y121.159 E0.02410
G1 X146.704 Y120.050 E0.02020
G1 X147.227 Y118.478 E0.02824
G1 X147.616 Y117.099 E0.02444
G1 X148.090 Y115.084 E0.03528
G1 F5760
G1 X147.616 Y117.099 E-0.71673
G1 F5760
G1 X147.582 Y117.219 E-0.04327
G1 E-0.04000 F2100.00000
G1 X132.982 Y128.564 F7200.000
G1 E0.80000 F2100.00000
G1 F1680
G1 X131.502 Y127.082 E0.09173
G1 F5760
G1 X132.982 Y128.564 E-0.72558
G1 E-0.07442 F2100.00000
G1 X133.431 Y130.230 F7200.000
G1 E0.80000 F2100.00000
G1 F1680
G1 X133.117 Y130.651 E0.01066
G1 F1680
G1 X132.951 Y130.863 E0.00428
G1 F1680
G1 X132.676 Y131.176 E0.00337
G1 F5760
G1 X132.951 Y130.863 E-0.14428
G1 E-0.65572 F2100.00000
G1 X118.025 Y138.378 F7200.000
G1 E0.80000 F2100.00000
G1 F1680
G1 X117.798 Y138.448 E0.00054
G1 F1680
G1 X117.711 Y138.480 E0.00072
G1 X117.587 Y138.589 E0.00130
G1 F1680
G1 X117.494 Y138.688 E0.00034
G1 F5760
G1 X117.587 Y138.589 E-0.04687
G1 E-0.75313 F2100.00000
G1 X116.135 Y144.130 F7200.000
G1 E0.80000 F2100.00000
G1 F840
G1 X116.135 Y138.762 E0.16833
G1 X116.814 Y138.760 E0.02132
G1 X117.229 Y138.687 E0.01318
G1 X116.952 Y139.047 E0.01423
G1 X116.783 Y139.403 E0.01236
G1 X116.693 Y139.803 E0.01284
G1 X116.689 Y142.125 E0.07282
G1 X116.750 Y142.503 E0.01198
G1 X116.915 Y142.894 E0.01333
G1 X117.186 Y143.257 E0.01418
G1 X117.534 Y143.545 E0.01417
G1 X117.906 Y143.733 E0.01307
G1 X117.880 Y143.896 E0.00516
G1 X116.194 Y144.124 E0.05333
G1 F5760
G1 X116.170 Y141.930 E-0.76000
G1 E-0.04000 F2100.00000
G1 X133.599 Y130.111 F7200.000
G1 E0.80000 F2100.00000
G1 F840
G1 X133.448 Y130.020 E0.00552
G1 X133.510 Y129.819 E0.00661
G1 X133.560 Y129.539 E0.00891
G1 X133.868 Y129.846 E0.01364
G1 X133.642 Y130.069 E0.00996
G1 F5760
G1 X133.448 Y130.020 E-0.06911
G1 F5760
G1 X133.510 Y129.819 E-0.07302
G1 F5760
G1 X133.560 Y129.539 E-0.09840
G1 F5760
G1 X133.868 Y129.846 E-0.15065
G1 F5760
G1 X133.642 Y130.069 E-0.11001
G1 E-0.29880 F2100.00000
G1 X115.758 Y144.548 F7200.000
G1 E0.80000 F2100.00000
G1 F1680
G1 X115.758 Y138.385 E0.19322
G1 X116.781 Y138.383 E0.03209
G1 X118.237 Y138.126 E0.04635
G1 X119.770 Y137.777 E0.04932
G1 X121.118 Y137.400 E0.04387
G1 X122.755 Y136.855 E0.05411
G1 X123.496 Y136.575 E0.02483
G1 X124.935 Y135.965 E0.04900
G1 X126.345 Y135.283 E0.04912
G1 X127.718 Y134.530 E0.04910
G1 X128.910 Y133.799 E0.04386
G1 X129.705 Y133.272 E0.02991
G1 X130.972 Y132.353 E0.04906
G1 X132.274 Y131.299 E0.05251
G1 X132.517 Y131.036 E0.01124
G1 X132.728 Y130.732 E0.01159
G1 X132.904 Y130.399 E0.01180
G1 X133.047 Y130.041 E0.01210
G1 X133.143 Y129.730 E0.01022
G1 X133.193 Y129.452 E0.00884
G1 X133.190 Y129.127 E0.01021
G1 X133.049 Y128.746 E0.01274
G1 X133.202 Y128.647 E0.00571
G1 X134.403 Y129.848 E0.05326
G1 X133.768 Y130.474 E0.02797
G1 X132.579 Y131.548 E0.05020
G1 X131.337 Y132.560 E0.05025
G1 X130.054 Y133.501 E0.04989
G1 X128.715 Y134.381 E0.05025
G1 X127.333 Y135.193 E0.05025
G1 X125.920 Y135.929 E0.04996
G1 X124.966 Y136.373 E0.03299
G1 X123.722 Y136.900 E0.04236
G1 X122.982 Y137.184 E0.02485
G1 X121.461 Y137.700 E0.05036
G1 X120.702 Y137.926 E0.02483
G1 X119.146 Y138.325 E0.05038
G1 X118.255 Y138.519 E0.02858
G1 X117.983 Y138.619 E0.00908
G1 X117.716 Y138.775 E0.00970
G1 X117.477 Y138.982 E0.00991
G1 X117.276 Y139.245 E0.01039
G1 X117.142 Y139.527 E0.00979
G1 X117.070 Y139.845 E0.01022
G1 X117.066 Y142.096 E0.07057
G1 X117.115 Y142.398 E0.00959
G1 X117.245 Y142.705 E0.01046
G1 X117.461 Y142.995 E0.01134
G1 X117.742 Y143.228 E0.01143
G1 X118.063 Y143.391 E0.01130
G1 X118.421 Y143.484 E0.01159
G1 X118.870 Y143.486 E0.01408
G1 X119.898 Y143.277 E0.03289
G1 X121.720 Y142.830 E0.05881
G1 X123.519 Y142.288 E0.05891
G1 X125.287 Y141.654 E0.05891
G1 X127.017 Y140.932 E0.05879
G1 X127.876 Y140.533 E0.02969
G1 X129.544 Y139.680 E0.05873
G1 X130.638 Y139.056 E0.03949
G1 X131.963 Y138.237 E0.04883
G1 X132.750 Y137.712 E0.02967
G1 X134.265 Y136.611 E0.05873
G1 X135.250 Y135.826 E0.03949
G1 X136.433 Y134.813 E0.04883
G1 X137.128 Y134.174 E0.02961
G1 X138.024 Y133.294 E0.03937
G1 X139.097 Y132.165 E0.04883
G1 X139.723 Y131.456 E0.02967
G1 X140.907 Y130.007 E0.05867
G1 X141.475 Y129.254 E0.02957
G1 X142.023 Y128.486 E0.02957
G1 X143.054 Y126.920 E0.05879
G1 X144.004 Y125.299 E0.05891
G1 X144.869 Y123.631 E0.05891
G1 X145.645 Y121.925 E0.05879
G1 X146.003 Y121.050 E0.02963
G1 X146.441 Y119.873 E0.03937
G1 X146.934 Y118.391 E0.04895
G1 X147.438 Y116.583 E0.05888
G1 X147.816 Y114.896 E0.05419
G1 X148.444 Y114.896 E0.01967
G1 X148.309 Y115.558 E0.02118
G1 X147.916 Y117.177 E0.05225
G1 X147.591 Y118.339 E0.03782
G1 X147.305 Y119.249 E0.02993
G1 X146.663 Y121.047 E0.05984
G1 X146.026 Y122.586 E0.05225
G1 X145.525 Y123.684 E0.03782
G1 X144.656 Y125.385 E0.05990
G1 X144.189 Y126.219 E0.02998
G1 X143.190 Y127.850 E0.05995
G1 X142.660 Y128.645 E0.02998
G1 X142.111 Y129.424 E0.02987
G1 X141.101 Y130.749 E0.05225
G1 X140.337 Y131.683 E0.03782
G1 X139.065 Y133.103 E0.05980
G1 X137.893 Y134.288 E0.05225
G1 X137.017 Y135.113 E0.03772
G1 X135.759 Y136.203 E0.05220
G1 X134.819 Y136.959 E0.03782
G1 X133.283 Y138.089 E0.05980
G1 X131.893 Y139.008 E0.05225
G1 X130.864 Y139.638 E0.03782
G1 X130.035 Y140.110 E0.02993
G1 X128.338 Y140.992 E0.05995
G1 X127.473 Y141.399 E0.02998
G1 X125.713 Y142.147 E0.05995
G1 X124.820 Y142.486 E0.02998
G1 X123.918 Y142.802 E0.02998
G1 X122.090 Y143.364 E0.05995
G1 X120.236 Y143.831 E0.05995
G1 X119.301 Y144.029 E0.02998
G1 X117.416 Y144.351 E0.05995
G1 X115.817 Y144.541 E0.05049
G1 X115.519 Y144.951 F7200.000
G1 F1050
G1 X115.381 Y144.928 E0.00439
G1 X115.380 Y138.043 E0.21587
G1 X115.522 Y138.009 E0.00456
G1 X116.748 Y138.006 E0.03844
G1 X118.164 Y137.756 E0.04511
G1 X119.675 Y137.412 E0.04859
G1 X121.007 Y137.039 E0.04337
G1 X122.629 Y136.500 E0.05358
G1 X123.355 Y136.225 E0.02436
G1 X124.779 Y135.622 E0.04848
G1 X126.172 Y134.948 E0.04852
G1 X127.529 Y134.204 E0.04851
G1 X128.707 Y133.481 E0.04336
G1 X129.490 Y132.962 E0.02945
G1 X130.742 Y132.054 E0.04850
G1 X132.015 Y131.023 E0.05134
G1 X132.222 Y130.799 E0.00957
G1 X132.405 Y130.536 E0.01005
G1 X132.561 Y130.241 E0.01046
G1 X132.691 Y129.916 E0.01098
G1 X132.776 Y129.641 E0.00902
G1 X132.815 Y129.420 E0.00703
G1 X132.814 Y129.196 E0.00703
G1 X132.736 Y128.988 E0.00695
G1 X131.097 Y127.344 E0.07279
G1 X131.214 Y127.121 E0.00790
G1 X131.422 Y126.889 E0.00976
G1 X131.627 Y126.741 E0.00794
G1 X131.776 Y126.688 E0.00494
G1 X134.882 Y129.794 E0.13773
G1 X134.806 Y129.941 E0.00520
G1 X134.678 Y130.107 E0.00657
G1 X134.026 Y130.749 E0.02867
G1 X132.825 Y131.834 E0.05075
G1 X131.570 Y132.857 E0.05077
G1 X130.924 Y133.342 E0.02533
G1 X130.267 Y133.812 E0.02533
G1 X128.914 Y134.702 E0.05077
G1 X127.518 Y135.522 E0.05077
G1 X126.806 Y135.904 E0.02533
G1 X126.084 Y136.268 E0.02535
G1 X125.119 Y136.717 E0.03338
G1 X123.864 Y137.250 E0.04277
G1 X123.110 Y137.539 E0.02529
G1 X121.576 Y138.060 E0.05081
G1 X120.803 Y138.290 E0.02528
G1 X119.233 Y138.692 E0.05082
G1 X118.360 Y138.882 E0.02800
G1 X118.144 Y138.961 E0.00721
G1 X117.937 Y139.083 E0.00753
G1 X117.753 Y139.242 E0.00762
G1 X117.599 Y139.443 E0.00795
G1 X117.500 Y139.651 E0.00722
G1 X117.447 Y139.887 E0.00759
G1 X117.444 Y142.066 E0.06832
G1 X117.480 Y142.293 E0.00721
G1 X117.574 Y142.516 E0.00759
G1 X117.736 Y142.733 E0.00850
G1 X117.950 Y142.910 E0.00870
G1 X118.197 Y143.036 E0.00871
G1 X118.470 Y143.107 E0.00884
G1 X118.833 Y143.109 E0.01138
G1 X119.816 Y142.909 E0.03143
G1 X121.620 Y142.466 E0.05826
G1 X123.400 Y141.930 E0.05830
G1 X125.151 Y141.303 E0.05830
G1 X126.865 Y140.587 E0.05825
G1 X127.711 Y140.194 E0.02924
G1 X129.364 Y139.348 E0.05823
G1 X130.445 Y138.731 E0.03902
G1 X131.759 Y137.920 E0.04842
G1 X132.534 Y137.402 E0.02923
G1 X134.037 Y136.311 E0.05823
G1 X135.010 Y135.535 E0.03902
G1 X136.183 Y134.531 E0.04841
G1 X136.868 Y133.901 E0.02921
G1 X137.755 Y133.030 E0.03898
G1 X138.819 Y131.910 E0.04841
G1 X139.436 Y131.212 E0.02923
G1 X140.610 Y129.774 E0.05821
G1 X141.171 Y129.031 E0.02919
G1 X141.712 Y128.273 E0.02919
G1 X142.733 Y126.721 E0.05825
G1 X143.673 Y125.117 E0.05830
G1 X144.530 Y123.466 E0.05830
G1 X145.299 Y121.775 E0.05825
