;FLAVOR:Marlin
;TIME:10403
;Filament used: 11.2144m
;Layer height: 0.25
;MINX:62.95
;MINY:52.968
;MINZ:0.25
;MAXX:187.05
;MAXY:157.032
;MAXZ:5
;Generated with Cura_SteamEngine 4.6.2
M82 ;absolute extrusion mode
G21 ; set units to millimeters
G90 ; use absolute positioning
M82 ; absolute extrusion mode
M104 S210 ; set extruder temp
M140 S55 ; set bed temp
M190 S55 ; wait for bed temp
M109 S210 ; wait for extruder temp
G28 W ; home all without mesh bed level
G80 ; mesh bed leveling
G92 E0.0 ; reset extruder distance position
G1 Y-3.0 F1000.0 ; go outside print area
G1 X60.0 E9.0 F1000.0 ; intro line
G1 X100.0 E21.5 F1000.0 ; intro line
G92 E0.0 ; reset extruder distance position
G92 E0
G92 E0
G1 F2400 E-0.8
;LAYER_COUNT:20
;LAYER:0
M107
G0 F3600 X64.519 Y55.585 Z0.25
;TYPE:SKIRT
G1 F2400 E0
G1 F1500 X64.969 Y55.078 E0.02818
G1 X65.561 Y54.538 E0.0615
G1 X66.127 Y54.122 E0.0907
G1 X66.835 Y53.711 E0.12474
G1 X67.452 Y53.437 E0.1528
G1 X68.204 Y53.193 E0.18567
G1 X68.872 Y53.051 E0.21407
G1 X69.662 Y52.968 E0.24709
G1 X180.338 Y52.968 E4.84846
G1 X181.128 Y53.051 E4.88149
G1 X181.796 Y53.193 E4.90988
G1 X182.548 Y53.437 E4.94275
G1 X183.165 Y53.711 E4.97082
G1 X183.857 Y54.11 E5.00403
G1 X184.41 Y54.512 E5.03245
G1 X185 Y55.044 E5.06548
G1 X185.442 Y55.535 E5.09295
G1 X185.898 Y56.158 E5.12505
G1 X186.239 Y56.741 E5.15313
G1 X186.566 Y57.463 E5.18608
G1 X186.78 Y58.108 E5.21433
G1 X186.95 Y58.891 E5.24764
G1 X187.024 Y59.567 E5.27592
G1 X187.05 Y147.749 E8.9421
G1 X187.05 Y149.999 E9.03564
G1 X186.962 Y151.048 E9.07941
G1 X186.8 Y151.822 E9.11228
G1 X186.592 Y152.469 E9.14054
G1 X186.274 Y153.19 E9.1733
G1 X185.939 Y153.777 E9.2014
G1 X185.481 Y154.415 E9.23405
G1 X185.031 Y154.922 E9.26224
G1 X184.439 Y155.463 E9.29558
G1 X183.874 Y155.878 E9.32472
G1 X183.169 Y156.287 E9.35861
G1 X182.551 Y156.562 E9.38673
G1 X181.796 Y156.807 E9.41973
G1 X181.128 Y156.949 E9.44813
G1 X180.338 Y157.032 E9.48115
G1 X69.662 Y157.032 E14.08252
G1 X68.872 Y156.949 E14.11555
G1 X68.204 Y156.807 E14.14394
G1 X67.449 Y156.562 E14.17694
G1 X66.831 Y156.287 E14.20506
G1 X66.143 Y155.889 E14.23811
G1 X65.591 Y155.488 E14.26648
G1 X65 Y154.956 E14.29954
G1 X64.558 Y154.465 E14.327
G1 X64.1 Y153.839 E14.35925
G1 X63.759 Y153.255 E14.38737
G1 X63.434 Y152.536 E14.42017
G1 X63.22 Y151.891 E14.44842
G1 X63.05 Y151.108 E14.48173
G1 X62.976 Y150.433 E14.50997
G1 X62.95 Y62.251 E18.17615
G1 X62.95 Y60.001 E18.26969
G1 X63.038 Y58.951 E18.3135
G1 X63.2 Y58.177 E18.34638
G1 X63.408 Y57.53 E18.37463
G1 X63.727 Y56.807 E18.40749
G1 X64.062 Y56.221 E18.43555
G1 X64.519 Y55.585 E18.46811
G0 F3600 X64.818 Y55.85
G1 F1500 X65.268 Y55.343 E18.49629
G1 X65.797 Y54.86 E18.52607
G1 X66.363 Y54.444 E18.55528
G1 X66.997 Y54.077 E18.58573
G1 X67.614 Y53.803 E18.6138
G1 X68.287 Y53.584 E18.64323
G1 X68.955 Y53.442 E18.67162
G1 X69.662 Y53.368 E18.70117
G1 X180.338 Y53.368 E23.30255
G1 X181.045 Y53.442 E23.3321
G1 X181.713 Y53.584 E23.36049
G1 X182.386 Y53.803 E23.38992
G1 X183.003 Y54.077 E23.41798
G1 X183.622 Y54.434 E23.44769
G1 X184.175 Y54.836 E23.47612
G1 X184.703 Y55.311 E23.50564
G1 X185.145 Y55.802 E23.53311
G1 X185.553 Y56.36 E23.56185
G1 X185.894 Y56.943 E23.58993
G1 X186.186 Y57.589 E23.6194
G1 X186.4 Y58.234 E23.64766
G1 X186.553 Y58.935 E23.67749
G1 X186.627 Y59.611 E23.70576
G1 X186.65 Y147.749 E27.37011
G1 X186.65 Y149.999 E27.46366
G1 X186.564 Y151.007 E27.50572
G1 X186.419 Y151.7 E27.53515
G1 X186.211 Y152.347 E27.56341
G1 X185.927 Y152.991 E27.59267
G1 X185.592 Y153.578 E27.62077
G1 X185.182 Y154.15 E27.65003
G1 X184.732 Y154.657 E27.67821
G1 X184.202 Y155.14 E27.70802
G1 X183.637 Y155.555 E27.73717
G1 X183.006 Y155.921 E27.7675
G1 X182.388 Y156.196 E27.79562
G1 X181.713 Y156.416 E27.82514
G1 X181.045 Y156.558 E27.85353
G1 X180.338 Y156.632 E27.88308
G1 X69.662 Y156.632 E32.48446
G1 X68.955 Y156.558 E32.51401
G1 X68.287 Y156.416 E32.5424
G1 X67.612 Y156.196 E32.57192
G1 X66.994 Y155.921 E32.60004
G1 X66.378 Y155.566 E32.6296
G1 X65.826 Y155.165 E32.65797
G1 X65.297 Y154.689 E32.68755
G1 X64.855 Y154.198 E32.71502
G1 X64.446 Y153.637 E32.74388
G1 X64.105 Y153.053 E32.772
G1 X63.814 Y152.41 E32.80134
G1 X63.6 Y151.765 E32.82959
G1 X63.447 Y151.065 E32.85938
G1 X63.373 Y150.39 E32.88762
G1 X63.35 Y62.251 E36.55201
G1 X63.35 Y60.001 E36.64555
G1 X63.436 Y58.992 E36.68766
G1 X63.581 Y58.299 E36.71709
G1 X63.789 Y57.652 E36.74535
G1 X64.074 Y57.006 E36.7747
G1 X64.409 Y56.42 E36.80276
G1 X64.818 Y55.85 E36.83193
G0 F3600 X65.117 Y56.116
G1 F1500 X65.567 Y55.609 E36.86012
G1 X66.034 Y55.183 E36.8864
G1 X66.6 Y54.767 E36.9156
G1 X67.159 Y54.442 E36.94248
G1 X67.776 Y54.168 E36.97055
G1 X68.37 Y53.976 E36.9965
G1 X69.038 Y53.834 E37.0249
G1 X69.662 Y53.768 E37.05098
G1 X180.338 Y53.768 E41.65236
G1 X180.962 Y53.834 E41.67844
G1 X181.63 Y53.976 E41.70684
G1 X182.224 Y54.168 E41.73279
G1 X182.841 Y54.442 E41.76086
G1 X183.387 Y54.757 E41.78707
G1 X183.94 Y55.159 E41.81549
G1 X184.406 Y55.579 E41.84157
G1 X184.848 Y56.07 E41.86904
G1 X185.208 Y56.562 E41.89438
G1 X185.549 Y57.145 E41.92246
G1 X185.806 Y57.715 E41.94846
G1 X186.02 Y58.36 E41.97671
G1 X186.155 Y58.979 E42.00305
G1 X186.229 Y59.655 E42.03133
G1 X186.25 Y147.749 E45.69385
G1 X186.25 Y149.999 E45.78739
G1 X186.166 Y150.966 E45.82775
G1 X186.038 Y151.577 E45.8537
G1 X185.83 Y152.224 E45.88196
G1 X185.58 Y152.793 E45.90779
G1 X185.245 Y153.38 E45.93589
G1 X184.883 Y153.884 E45.96169
G1 X184.433 Y154.391 E45.98988
G1 X183.965 Y154.818 E46.01622
G1 X183.4 Y155.233 E46.04536
G1 X182.844 Y155.556 E46.07209
G1 X182.226 Y155.831 E46.10022
G1 X181.63 Y156.024 E46.12626
G1 X180.962 Y156.166 E46.15466
G1 X180.338 Y156.232 E46.18074
G1 X69.662 Y156.232 E50.78212
G1 X69.038 Y156.166 E50.8082
G1 X68.37 Y156.024 E50.8366
G1 X67.774 Y155.831 E50.86264
G1 X67.156 Y155.556 E50.89076
G1 X66.613 Y155.242 E50.91684
G1 X66.061 Y154.841 E50.94521
G1 X65.594 Y154.421 E50.97132
G1 X65.152 Y153.93 E50.99879
G1 X64.791 Y153.436 E51.02423
G1 X64.45 Y152.852 E51.05234
G1 X64.194 Y152.284 E51.07824
G1 X63.98 Y151.639 E51.1065
G1 X63.845 Y151.021 E51.1328
G1 X63.771 Y150.346 E51.16103
G1 X63.75 Y62.251 E54.82359
G1 X63.75 Y60.001 E54.91714
G1 X63.834 Y59.033 E54.95753
G1 X63.962 Y58.422 E54.98349
G1 X64.17 Y57.775 E55.01174
G1 X64.422 Y57.204 E55.03769
G1 X64.757 Y56.618 E55.06575
G1 X65.117 Y56.116 E55.09144
G0 F3600 X65.416 Y56.381
G1 F1500 X65.866 Y55.874 E55.11962
G1 X66.271 Y55.505 E55.1424
G1 X66.837 Y55.089 E55.1716
G1 X67.322 Y54.808 E55.19491
G1 X67.939 Y54.534 E55.22297
G1 X68.453 Y54.367 E55.24544
G1 X69.121 Y54.225 E55.27384
G1 X69.662 Y54.168 E55.29645
G1 X180.338 Y54.168 E59.89783
G1 X180.879 Y54.225 E59.92044
G1 X181.547 Y54.367 E59.94883
G1 X182.061 Y54.534 E59.9713
G1 X182.678 Y54.808 E59.99937
G1 X183.152 Y55.081 E60.02211
G1 X183.705 Y55.483 E60.05054
G1 X184.108 Y55.846 E60.07309
G1 X184.55 Y56.337 E60.10055
G1 X184.862 Y56.764 E60.12254
G1 X185.203 Y57.347 E60.15062
G1 X185.427 Y57.841 E60.17317
G1 X185.641 Y58.486 E60.20142
G1 X185.758 Y59.022 E60.22423
G1 X185.832 Y59.698 E60.25251
G1 X185.85 Y147.749 E63.91324
G1 X185.85 Y149.999 E64.00678
G1 X185.768 Y150.925 E64.04543
G1 X185.657 Y151.455 E64.06795
G1 X185.449 Y152.102 E64.0962
G1 X185.232 Y152.595 E64.1186
G1 X184.897 Y153.182 E64.1467
G1 X184.584 Y153.619 E64.16904
G1 X184.134 Y154.126 E64.19723
G1 X183.728 Y154.495 E64.22004
G1 X183.163 Y154.91 E64.24918
G1 X182.681 Y155.19 E64.27236
G1 X182.063 Y155.465 E64.30048
G1 X181.547 Y155.633 E64.32304
G1 X180.879 Y155.775 E64.35143
G1 X180.338 Y155.832 E64.37405
G1 X69.662 Y155.832 E68.97542
G1 X69.121 Y155.775 E68.99804
G1 X68.453 Y155.633 E69.02643
G1 X67.937 Y155.465 E69.04899
G1 X67.319 Y155.19 E69.07712
G1 X66.848 Y154.919 E69.09971
G1 X66.296 Y154.518 E69.12807
G1 X65.892 Y154.154 E69.15068
G1 X65.45 Y153.663 E69.17815
G1 X65.137 Y153.234 E69.20023
G1 X64.796 Y152.65 E69.22834
G1 X64.573 Y152.158 E69.2508
G1 X64.359 Y151.513 E69.27905
G1 X64.242 Y150.977 E69.30186
G1 X64.168 Y150.302 E69.3301
G1 X64.15 Y62.251 E72.99083
G1 X64.15 Y60.001 E73.08437
G1 X64.232 Y59.074 E73.12307
G1 X64.343 Y58.544 E73.14558
G1 X64.551 Y57.897 E73.17383
G1 X64.769 Y57.403 E73.19628
G1 X65.104 Y56.817 E73.22435
G1 X65.416 Y56.381 E73.24664
G0 F3600 X65.716 Y56.647
G1 F1500 X66.166 Y56.14 E73.27482
G1 X66.508 Y55.827 E73.29409
G1 X67.074 Y55.411 E73.3233
G1 X67.484 Y55.173 E73.34301
G1 X68.101 Y54.899 E73.37107
G1 X68.537 Y54.758 E73.39013
G1 X69.205 Y54.616 E73.41852
G1 X69.662 Y54.568 E73.43762
G1 X180.338 Y54.568 E78.039
G1 X181.463 Y54.758 E78.08643
G1 X181.899 Y54.899 E78.10548
G1 X182.516 Y55.173 E78.13355
G1 X182.917 Y55.405 E78.15281
G1 X183.47 Y55.807 E78.18123
G1 X183.811 Y56.114 E78.20031
G1 X184.253 Y56.605 E78.22778
G1 X184.517 Y56.966 E78.24637
G1 X184.858 Y57.549 E78.27445
G1 X185.047 Y57.967 E78.29352
G1 X185.261 Y58.612 E78.32178
G1 X185.36 Y59.066 E78.34109
G1 X185.434 Y59.742 E78.36937
G1 X185.45 Y147.749 E82.02827
G1 X185.45 Y149.999 E82.12182
G1 X185.37 Y150.884 E82.15876
G1 X185.276 Y151.332 E82.17779
G1 X185.068 Y151.979 E82.20605
G1 X184.885 Y152.396 E82.22498
G1 X184.55 Y152.983 E82.25308
G1 X184.284 Y153.353 E82.27203
G1 X183.834 Y153.86 E82.30021
G1 X183.491 Y154.173 E82.31951
G1 X182.926 Y154.588 E82.34866
G1 X182.518 Y154.825 E82.36828
G1 X181.9 Y155.1 E82.3964
G1 X181.463 Y155.242 E82.4155
G1 X180.795 Y155.384 E82.4439
G1 X180.338 Y155.432 E82.463
G1 X69.662 Y155.432 E87.06437
G1 X69.205 Y155.384 E87.08348
G1 X68.537 Y155.242 E87.11187
G1 X68.1 Y155.1 E87.13097
G1 X67.482 Y154.825 E87.1591
G1 X67.083 Y154.595 E87.17824
G1 X66.531 Y154.194 E87.20661
G1 X66.189 Y153.886 E87.22574
G1 X65.747 Y153.395 E87.25321
G1 X65.482 Y153.032 E87.2719
G1 X65.141 Y152.448 E87.30001
G1 X64.953 Y152.032 E87.31899
G1 X64.739 Y151.387 E87.34724
G1 X64.64 Y150.934 E87.36652
G1 X64.566 Y150.259 E87.39475
G1 X64.55 Y62.251 E91.0537
G1 X64.55 Y60.001 E91.14725
G1 X64.63 Y59.115 E91.18423
G1 X64.724 Y58.667 E91.20326
G1 X64.932 Y58.02 E91.23152
G1 X65.116 Y57.601 E91.25054
G1 X65.451 Y57.015 E91.27861
G1 X65.716 Y56.647 E91.29746
G0 F3600 X65.798 Y57.214
G1 F1500 X66.465 Y56.405 E91.34105
G1 X66.745 Y56.15 E91.3568
G1 X67.311 Y55.734 E91.386
G1 X67.646 Y55.539 E91.40212
G1 X68.263 Y55.265 E91.43018
G1 X68.62 Y55.149 E91.44579
G1 X69.288 Y55.007 E91.47418
G1 X69.662 Y54.968 E91.48982
G1 X180.338 Y54.968 E96.09119
G1 X181.38 Y55.149 E96.13516
G1 X181.737 Y55.265 E96.15077
G1 X182.354 Y55.539 E96.17883
G1 X182.681 Y55.728 E96.19454
G1 X183.234 Y56.13 E96.22296
G1 X183.514 Y56.382 E96.23862
G1 X183.956 Y56.873 E96.26609
G1 X184.513 Y57.751 E96.30932
G1 X184.881 Y58.738 E96.35311
G1 X184.962 Y59.109 E96.3689
G1 X185.036 Y59.785 E96.39717
G1 X185.05 Y147.749 E100.05429
G1 X185.05 Y149.999 E100.14783
G1 X184.973 Y150.843 E100.18307
G1 X184.896 Y151.21 E100.19866
G1 X184.688 Y151.857 E100.22691
G1 X184.202 Y152.785 E100.27047
G1 X183.985 Y153.088 E100.28596
G1 X183.535 Y153.595 E100.31414
G1 X183.255 Y153.851 E100.32992
G1 X182.69 Y154.266 E100.35906
G1 X182.356 Y154.46 E100.37512
G1 X181.738 Y154.735 E100.40324
G1 X181.38 Y154.851 E100.41889
G1 X180.712 Y154.993 E100.44728
G1 X180.338 Y155.032 E100.46292
G1 X69.662 Y155.032 E105.06429
G1 X69.288 Y154.993 E105.07992
G1 X68.62 Y154.851 E105.10832
G1 X68.262 Y154.735 E105.12396
G1 X67.644 Y154.46 E105.15208
G1 X66.766 Y153.87 E105.19606
G1 X66.486 Y153.618 E105.21172
G1 X66.044 Y153.127 E105.23919
G1 X65.487 Y152.247 E105.28249
G1 X65.333 Y151.906 E105.29805
G1 X65.119 Y151.261 E105.3263
G1 X65.038 Y150.89 E105.34209
G1 X64.964 Y150.215 E105.37032
G1 X64.95 Y62.251 E109.02744
G1 X64.95 Y60.001 E109.12098
G1 X65.027 Y59.156 E109.15626
G1 X65.104 Y58.789 E109.17185
G1 X65.312 Y58.142 E109.2001
G1 X65.798 Y57.214 E109.24365
G0 F3600 X66.146 Y57.412
G1 F1500 X66.764 Y56.671 E109.28377
G1 X67.548 Y56.056 E109.3252
G1 X68.426 Y55.63 E109.36577
G1 X69.371 Y55.399 E109.40621
G1 X69.662 Y55.368 E109.41838
G1 X180.338 Y55.368 E114.01976
G1 X181.297 Y55.541 E114.06027
G1 X182.191 Y55.904 E114.10038
G1 X182.999 Y56.454 E114.14102
G1 X183.659 Y57.14 E114.1806
G1 X184.167 Y57.953 E114.22046
G1 X184.502 Y58.864 E114.26081
G1 X184.639 Y59.829 E114.30133
G1 X184.65 Y147.749 E117.95662
G1 X184.65 Y149.999 E118.05017
G1 X184.575 Y150.802 E118.0837
G1 X184.307 Y151.734 E118.12401
G1 X183.855 Y152.587 E118.16415
G1 X183.236 Y153.329 E118.20432
G1 X182.453 Y153.943 E118.24569
G1 X181.575 Y154.369 E118.28626
G1 X180.629 Y154.601 E118.32676
G1 X180.338 Y154.632 E118.33893
G1 X69.662 Y154.632 E122.9403
G1 X68.703 Y154.459 E122.98081
G1 X67.807 Y154.094 E123.02104
G1 X67.001 Y153.547 E123.06153
G1 X66.341 Y152.86 E123.10114
G1 X65.832 Y152.045 E123.14109
G1 X65.498 Y151.135 E123.18139
G1 X65.361 Y150.172 E123.22183
G1 X65.35 Y62.251 E126.87716
G1 X65.35 Y60.001 E126.97071
G1 X65.425 Y59.197 E127.00428
G1 X65.693 Y58.265 E127.0446
G1 X66.146 Y57.412 E127.08475
G0 F3600 X66.493 Y57.611
G1 F1500 X67.063 Y56.936 E127.12148
G1 X67.785 Y56.378 E127.15942
G1 X68.588 Y55.996 E127.19639
G1 X69.454 Y55.79 E127.2334
G1 X180.338 Y55.768 E131.84342
G1 X181.214 Y55.932 E131.88047
G1 X182.029 Y56.27 E131.91715
G1 X182.764 Y56.777 E131.95428
G1 X183.361 Y57.408 E131.99039
G1 X183.822 Y58.155 E132.02689
G1 X184.122 Y58.99 E132.06377
G1 X184.241 Y59.872 E132.10077
G1 X184.25 Y147.749 E135.75428
G1 X184.25 Y149.999 E135.84782
G1 X184.177 Y150.761 E135.87965
G1 X183.926 Y151.612 E135.91653
G1 X183.508 Y152.389 E135.95321
G1 X182.937 Y153.064 E135.98997
G1 X182.216 Y153.621 E136.02785
G1 X181.413 Y154.004 E136.06484
G1 X180.546 Y154.21 E136.10189
G1 X69.662 Y154.232 E140.71191
G1 X68.786 Y154.068 E140.74896
G1 X67.969 Y153.729 E140.78574
G1 X67.236 Y153.223 E140.82277
G1 X66.639 Y152.592 E140.85888
G1 X66.177 Y151.843 E140.89547
G1 X65.878 Y151.009 E140.9323
G1 X65.759 Y150.128 E140.96926
G1 X65.75 Y62.251 E144.62276
G1 X65.75 Y60.001 E144.71631
G1 X65.823 Y59.238 E144.74818
G1 X66.074 Y58.387 E144.78506
G1 X66.493 Y57.611 E144.82173
G0 F3600 X66.84 Y57.809
G1 F1500 X67.362 Y57.202 E144.85501
G1 X68.022 Y56.701 E144.88946
G1 X68.75 Y56.362 E144.92285
G1 X69.537 Y56.181 E144.95642
G1 X180.338 Y56.168 E149.56299
G1 X181.131 Y56.323 E149.59659
G1 X181.867 Y56.636 E149.62984
G1 X182.529 Y57.101 E149.66347
G1 X183.064 Y57.676 E149.69612
G1 X183.477 Y58.357 E149.72924
G1 X183.742 Y59.116 E149.76266
G1 X183.843 Y59.916 E149.79618
G1 X183.85 Y147.749 E153.44786
G1 X183.85 Y149.999 E153.5414
G1 X183.779 Y150.72 E153.57152
G1 X183.545 Y151.49 E153.60498
G1 X183.16 Y152.19 E153.63819
G1 X182.638 Y152.798 E153.67151
G1 X181.979 Y153.299 E153.70593
G1 X181.25 Y153.638 E153.73935
G1 X180.463 Y153.819 E153.77293
G1 X69.662 Y153.832 E158.3795
G1 X68.869 Y153.677 E158.41309
G1 X68.132 Y153.363 E158.44639
G1 X67.471 Y152.899 E158.47997
G1 X66.936 Y152.324 E158.51262
G1 X66.523 Y151.642 E158.54577
G1 X66.258 Y150.883 E158.5792
G1 X66.157 Y150.084 E158.61268
G1 X66.15 Y62.251 E162.26435
G1 X66.15 Y60.001 E162.35789
G1 X66.221 Y59.279 E162.38806
G1 X66.455 Y58.509 E162.42151
G1 X66.84 Y57.809 E162.45473
G0 F3600 X67.187 Y58.008
G1 F1500 X67.661 Y57.467 E162.48463
G1 X68.259 Y57.023 E162.5156
G1 X68.913 Y56.727 E162.54544
G1 X69.62 Y56.572 E162.57554
G1 X180.338 Y56.568 E167.17866
G1 X181.048 Y56.714 E167.20879
G1 X181.704 Y57.001 E167.23856
G1 X182.294 Y57.424 E167.26874
G1 X182.767 Y57.943 E167.29794
G1 X183.132 Y58.559 E167.32771
G1 X183.363 Y59.242 E167.35768
G1 X183.446 Y59.959 E167.38769
G1 X183.45 Y147.749 E171.03757
G1 X183.45 Y149.999 E171.13112
G1 X183.381 Y150.679 E171.15953
G1 X183.164 Y151.367 E171.18953
G1 X182.813 Y151.992 E171.21933
G1 X182.339 Y152.533 E171.24923
G1 X181.742 Y152.976 E171.28014
G1 X181.087 Y153.273 E171.31004
G1 X180.38 Y153.428 E171.34013
G1 X69.662 Y153.432 E175.94325
G1 X68.952 Y153.286 E175.97339
G1 X68.295 Y152.998 E176.00321
G1 X67.706 Y152.576 E176.03334
G1 X67.233 Y152.057 E176.06253
G1 X66.868 Y151.44 E176.09233
G1 X66.637 Y150.757 E176.12231
G1 X66.554 Y150.041 E176.15228
G1 X66.55 Y62.251 E179.80216
G1 X66.55 Y60.001 E179.89571
G1 X66.619 Y59.32 E179.92416
