;FLAVOR:Marlin
;TIME:17899
;Filament used: 21.2295m
;Layer height: 0.2
;MINX:44.2
;MINY:85.7
;MINZ:0.15
;MAXX:205.8
;MAXY:124.3
;MAXZ:29.95
;Generated with Cura_SteamEngine master
M82 ;absolute extrusion mode
G21 ; set units to millimeters
G90 ; use absolute positioning
M82 ; absolute extrusion mode
M104 S235 ; set extruder temp
M140 S0 ; set bed temp
M190 S0 ; wait for bed temp
M109 S235 ; wait for extruder temp
G28 W ; home all without mesh bed level
G80 ; mesh bed leveling
G92 E0.0 ; reset extruder distance position
G1 Y-3.0 F1000.0 ; go outside print area
G1 X60.0 E9.0 F1000.0 ; intro line
G1 X100.0 E21.5 F1000.0 ; intro line
G92 E0.0 ; reset extruder distance position
G92 E0
G92 E0
G1 F2100 E-0.8
;LAYER_COUNT:150
;LAYER:0
M107
G1 F600 Z1.15
G0 F3600 X45.112 Y85.935 Z1.15
;TYPE:SKIRT
G1 F600 Z0.15
G1 F2100 E0
G1 F1800 X45.459 Y85.783 E0.00945
G1 X46 Y85.7 E0.0231
G1 X204 Y85.7 E3.96443
G1 X204.377 Y85.74 E3.97389
G1 X204.737 Y85.858 E3.98334
G1 X205.064 Y86.048 E3.99277
G1 X205.345 Y86.303 E4.00224
G1 X205.565 Y86.612 E4.0117
G1 X205.717 Y86.959 E4.02115
G1 X205.8 Y87.5 E4.0348
G1 X205.8 Y122.5 E4.90788
G1 X205.76 Y122.877 E4.91734
G1 X205.642 Y123.237 E4.92679
G1 X205.452 Y123.564 E4.93622
G1 X205.197 Y123.845 E4.94569
G1 X204.888 Y124.065 E4.95515
G1 X204.541 Y124.217 E4.9646
G1 X204 Y124.3 E4.97825
G1 X46 Y124.3 E8.91958
G1 X45.623 Y124.26 E8.92904
G1 X45.263 Y124.142 E8.93849
G1 X44.936 Y123.952 E8.94792
G1 X44.655 Y123.697 E8.95739
G1 X44.435 Y123.388 E8.96685
G1 X44.283 Y123.041 E8.9763
G1 X44.2 Y122.5 E8.98995
G1 X44.2 Y87.5 E9.86303
G1 X44.24 Y87.123 E9.87249
G1 X44.358 Y86.763 E9.88194
G1 X44.548 Y86.436 E9.89137
G1 X44.803 Y86.155 E9.90084
G1 X45.112 Y85.935 E9.9103
G0 F3600 X45.193 Y86.356
G1 F1800 X45.487 Y86.197 E9.91864
G1 X45.811 Y86.113 E9.92699
G1 X46 Y86.1 E9.93171
G1 X204 Y86.1 E13.87304
G1 X204.332 Y86.14 E13.88138
G1 X204.644 Y86.257 E13.88969
G1 X204.921 Y86.445 E13.89804
G1 X205.144 Y86.693 E13.90636
G1 X205.303 Y86.987 E13.9147
G1 X205.387 Y87.311 E13.92305
G1 X205.4 Y87.5 E13.92777
G1 X205.4 Y122.5 E14.80085
G1 X205.36 Y122.832 E14.80919
G1 X205.243 Y123.144 E14.81751
G1 X205.055 Y123.421 E14.82586
G1 X204.807 Y123.644 E14.83418
G1 X204.513 Y123.803 E14.84251
G1 X204.189 Y123.887 E14.85086
G1 X204 Y123.9 E14.85559
G1 X46 Y123.9 E18.79692
G1 X45.668 Y123.86 E18.80526
G1 X45.356 Y123.743 E18.81357
G1 X45.079 Y123.555 E18.82192
G1 X44.856 Y123.307 E18.83024
G1 X44.697 Y123.013 E18.83858
G1 X44.613 Y122.689 E18.84693
G1 X44.6 Y122.5 E18.85165
G1 X44.6 Y87.5 E19.72473
G1 X44.64 Y87.168 E19.73307
G1 X44.757 Y86.856 E19.74139
G1 X44.945 Y86.579 E19.74974
G1 X45.193 Y86.356 E19.75806
G0 F3600 X45.575 Y86.595
G1 F1800 X45.845 Y86.512 E19.7651
G1 X46 Y86.5 E19.76898
G1 X204 Y86.5 E23.71031
G1 X204.279 Y86.54 E23.71734
G1 X204.536 Y86.656 E23.72437
G1 X204.751 Y86.839 E23.73141
G1 X204.905 Y87.075 E23.73844
G1 X204.988 Y87.345 E23.74549
G1 X205 Y87.5 E23.74937
G1 X205 Y122.5 E24.62245
G1 X204.96 Y122.779 E24.62948
G1 X204.844 Y123.036 E24.63651
G1 X204.661 Y123.251 E24.64355
G1 X204.425 Y123.405 E24.65058
G1 X204.155 Y123.488 E24.65763
G1 X204 Y123.5 E24.66151
G1 X46 Y123.5 E28.60283
G1 X45.721 Y123.46 E28.60986
G1 X45.464 Y123.344 E28.6169
G1 X45.249 Y123.161 E28.62394
G1 X45.095 Y122.925 E28.63097
G1 X45.012 Y122.655 E28.63802
G1 X45 Y122.5 E28.64189
G1 X45 Y87.5 E29.51497
G1 X45.04 Y87.221 E29.522
G1 X45.156 Y86.964 E29.52904
G1 X45.339 Y86.749 E29.53608
G1 X45.575 Y86.595 E29.54311
G0 F3600 X45.726 Y86.966
G1 F1800 X46 Y86.9 E29.55014
G1 X204 Y86.9 E33.49147
G1 X204.215 Y86.94 E33.49692
G1 X204.401 Y87.053 E33.50235
G1 X204.534 Y87.226 E33.50779
G1 X204.6 Y87.5 E33.51482
G1 X204.6 Y122.5 E34.3879
G1 X204.56 Y122.715 E34.39336
G1 X204.447 Y122.901 E34.39879
G1 X204.274 Y123.034 E34.40423
G1 X204 Y123.1 E34.41126
G1 X46 Y123.1 E38.35259
G1 X45.785 Y123.06 E38.35804
G1 X45.599 Y122.947 E38.36347
G1 X45.466 Y122.774 E38.36891
G1 X45.4 Y122.5 E38.37595
G1 X45.4 Y87.5 E39.24902
G1 X45.44 Y87.285 E39.25448
G1 X45.553 Y87.099 E39.25991
G1 X45.726 Y86.966 E39.26535
G0 F3600 X45.839 Y87.381
G1 F1800 X46 Y87.3 E39.26985
G1 X204 Y87.3 E43.21117
G1 X204.119 Y87.339 E43.2143
G1 X204.2 Y87.5 E43.21879
G1 X204.2 Y122.5 E44.09187
G1 X204.161 Y122.619 E44.095
G1 X204 Y122.7 E44.09949
G1 X46 Y122.7 E48.04082
G1 X45.881 Y122.661 E48.04394
G1 X45.8 Y122.5 E48.04844
G1 X45.8 Y87.5 E48.92152
G1 X45.839 Y87.381 E48.92464
;MESH:Object 1
G0 F3600 X46.2 Y87.7
;TYPE:WALL-OUTER
G1 F1500 X203.8 Y87.7 E52.85599
G1 X203.8 Y122.3 E53.71909
G1 X46.2 Y122.3 E57.65044
G1 X46.2 Y87.7 E58.51354
G0 F3600 X46.4 Y87.7
G0 X46.64 Y88.14
G0 X46.64 Y88.2
G0 X203.33 Y121.83
G0 X203.4 Y121.9
;TYPE:WALL-INNER
G1 F1500 X46.6 Y121.9 E62.42493
G1 X46.6 Y88.1 E63.26807
G1 X203.4 Y88.1 E67.17946
G1 X203.4 Y121.9 E68.02261
G0 F3600 X203 Y121.5
G1 F1500 X47 Y121.5 E71.91404
G1 X47 Y88.5 E72.73723
G1 X203 Y88.5 E76.62867
G1 X203 Y121.5 E77.45186
G0 F3600 X202.61 Y121.11
;TYPE:SKIN
G1 F1500 X47.39 Y121.11 E81.32384
G1 X47.39 Y88.89 E82.12757
G1 X202.61 Y88.89 E85.99955
G1 X202.61 Y121.11 E86.80328
G0 F3600 X186.61 Y105.11
G1 F1500 X63.39 Y105.11 E89.87701
G1 X63.39 Y104.89 E89.8825
G1 X186.61 Y104.89 E92.95624
G1 X186.61 Y105.11 E92.96172
G0 F3600 X187.01 Y105.51
G1 F1500 X62.99 Y105.51 E96.05541
G1 X62.99 Y104.49 E96.08086
G1 X187.01 Y104.49 E99.17455
G1 X187.01 Y105.51 E99.19999
G0 F3600 X187.41 Y105.91
G1 F1500 X62.59 Y105.91 E102.31364
G1 X62.59 Y104.09 E102.35904
G1 X187.41 Y104.09 E105.47269
G1 X187.41 Y105.91 E105.51809
G0 F3600 X187.81 Y106.31
G1 F1500 X62.19 Y106.31 E108.65169
G1 X62.19 Y103.69 E108.71705
G1 X187.81 Y103.69 E111.85065
G1 X187.81 Y106.31 E111.91601
G0 F3600 X188.21 Y106.71
G1 F1500 X61.79 Y106.71 E115.06957
G1 X61.79 Y103.29 E115.15488
G1 X188.21 Y103.29 E118.30844
G1 X188.21 Y106.71 E118.39375
G0 F3600 X188.61 Y107.11
G1 F1500 X61.39 Y107.11 E121.56727
G1 X61.39 Y102.89 E121.67254
G1 X188.61 Y102.89 E124.84605
G1 X188.61 Y107.11 E124.95132
G0 F3600 X189.01 Y107.51
G1 F1500 X60.99 Y107.51 E128.14479
G1 X60.99 Y102.49 E128.27002
G1 X189.01 Y102.49 E131.46349
G1 X189.01 Y107.51 E131.58871
G0 F3600 X189.41 Y107.91
G1 F1500 X60.59 Y107.91 E134.80214
G1 X60.59 Y102.09 E134.94732
G1 X189.41 Y102.09 E138.16075
G1 X189.41 Y107.91 E138.30593
G0 F3600 X189.81 Y108.31
G1 F1500 X60.19 Y108.31 E141.53931
G1 X60.19 Y101.69 E141.70445
G1 X189.81 Y101.69 E144.93783
G1 X189.81 Y108.31 E145.10297
G0 F3600 X190.21 Y108.71
G1 F1500 X59.79 Y108.71 E148.35631
G1 X59.79 Y101.29 E148.5414
G1 X190.21 Y101.29 E151.79474
G1 X190.21 Y108.71 E151.97984
G0 F3600 X190.61 Y109.11
G1 F1500 X59.39 Y109.11 E155.25313
G1 X59.39 Y100.89 E155.45818
G1 X190.61 Y100.89 E158.73148
G1 X190.61 Y109.11 E158.93653
G0 F3600 X191.01 Y109.51
G1 F1500 X58.99 Y109.51 E162.22978
G1 X58.99 Y100.49 E162.45478
G1 X191.01 Y100.49 E165.74804
G1 X191.01 Y109.51 E165.97304
G0 F3600 X191.41 Y109.91
G1 F1500 X58.59 Y109.91 E169.28625
G1 X58.59 Y100.09 E169.53121
G1 X191.41 Y100.09 E172.84442
G1 X191.41 Y109.91 E173.08938
G0 F3600 X191.81 Y110.31
G1 F1500 X58.19 Y110.31 E176.42254
G1 X58.19 Y99.69 E176.68746
G1 X191.81 Y99.69 E180.02063
G1 X191.81 Y110.31 E180.28554
G0 F3600 X192.21 Y110.71
G1 F1500 X57.79 Y110.71 E183.63866
G1 X57.79 Y99.29 E183.92354
G1 X192.21 Y99.29 E187.27666
G1 X192.21 Y110.71 E187.56153
G0 F3600 X192.61 Y111.11
G1 F1500 X57.39 Y111.11 E190.93461
G1 X57.39 Y98.89 E191.23944
G1 X192.61 Y98.89 E194.61251
G1 X192.61 Y111.11 E194.91734
G0 F3600 X193.01 Y111.51
G1 F1500 X56.99 Y111.51 E198.31037
G1 X56.99 Y98.49 E198.63516
G1 X193.01 Y98.49 E202.02819
G1 X193.01 Y111.51 E202.35298
G0 F3600 X193.41 Y111.91
G1 F1500 X56.59 Y111.91 E205.76597
G1 X56.59 Y98.09 E206.11071
G1 X193.41 Y98.09 E209.5237
G1 X193.41 Y111.91 E209.86844
G0 F3600 X193.81 Y112.31
G1 F1500 X56.19 Y112.31 E213.30138
G1 X56.19 Y97.69 E213.66608
G1 X193.81 Y97.69 E217.09902
G1 X193.81 Y112.31 E217.46372
G0 F3600 X194.21 Y112.71
G1 F1500 X55.79 Y112.71 E220.91662
G1 X55.79 Y97.29 E221.30128
G1 X194.21 Y97.29 E224.75418
G1 X194.21 Y112.71 E225.13883
G0 F3600 X194.61 Y113.11
G1 F1500 X55.39 Y113.11 E228.61169
G1 X55.39 Y96.89 E229.0163
G1 X194.61 Y96.89 E232.48915
G1 X194.61 Y113.11 E232.89376
G0 F3600 X195.01 Y113.51
G1 F1500 X54.99 Y113.51 E236.38658
G1 X54.99 Y96.49 E236.81114
G1 X195.01 Y96.49 E240.30395
G1 X195.01 Y113.51 E240.72852
G0 F3600 X195.41 Y113.91
G1 F1500 X54.59 Y113.91 E244.24129
G1 X54.59 Y96.09 E244.68581
G1 X195.41 Y96.09 E248.19858
G1 X195.41 Y113.91 E248.6431
G0 F3600 X195.81 Y114.31
G1 F1500 X54.19 Y114.31 E252.17583
G1 X54.19 Y95.69 E252.64031
G1 X195.81 Y95.69 E256.17303
G1 X195.81 Y114.31 E256.63751
G0 F3600 X196.21 Y114.71
G1 F1500 X53.79 Y114.71 E260.19019
G1 X53.79 Y95.29 E260.67462
G1 X196.21 Y95.29 E264.2273
G1 X196.21 Y114.71 E264.71174
G0 F3600 X196.61 Y115.11
G1 F1500 X53.39 Y115.11 E268.28438
G1 X53.39 Y94.89 E268.78877
G1 X196.61 Y94.89 E272.3614
G1 X196.61 Y115.11 E272.86579
G0 F3600 X197.01 Y115.51
G1 F1500 X52.99 Y115.51 E276.45839
G1 X52.99 Y94.49 E276.98273
G1 X197.01 Y94.49 E280.57533
G1 X197.01 Y115.51 E281.09967
G0 F3600 X197.41 Y115.91
G1 F1500 X52.59 Y115.91 E284.71222
G1 X52.59 Y94.09 E285.25652
G1 X197.41 Y94.09 E288.86907
G1 X197.41 Y115.91 E289.41338
G0 F3600 X197.81 Y116.31
G1 F1500 X52.19 Y116.31 E293.04588
G1 X52.19 Y93.69 E293.61014
G1 X197.81 Y93.69 E297.24265
G1 X197.81 Y116.31 E297.8069
G0 F3600 X198.21 Y116.71
G1 F1500 X51.79 Y116.71 E301.45937
G1 X51.79 Y93.29 E302.04358
G1 X198.21 Y93.29 E305.69604
G1 X198.21 Y116.71 E306.28026
G0 F3600 X198.61 Y117.11
G1 F1500 X51.39 Y117.11 E309.95267
G1 X51.39 Y92.89 E310.55684
G1 X198.61 Y92.89 E314.22926
G1 X198.61 Y117.11 E314.83343
G0 F3600 X199.01 Y117.51
G1 F1500 X50.99 Y117.51 E318.52581
G1 X50.99 Y92.49 E319.14993
G1 X199.01 Y92.49 E322.84231
G1 X199.01 Y117.51 E323.46643
G0 F3600 X199.41 Y117.91
G1 F1500 X50.59 Y117.91 E327.17876
G1 X50.59 Y92.09 E327.82284
G1 X199.41 Y92.09 E331.53517
G1 X199.41 Y117.91 E332.17926
G0 F3600 X199.81 Y118.31
G1 F1500 X50.19 Y118.31 E335.91154
G1 X50.19 Y91.69 E336.57558
G1 X199.81 Y91.69 E340.30787
G1 X199.81 Y118.31 E340.97191
G0 F3600 X200.21 Y118.71
G1 F1500 X49.79 Y118.71 E344.72415
G1 X49.79 Y91.29 E345.40814
G1 X200.21 Y91.29 E349.16039
G1 X200.21 Y118.71 E349.84438
G0 F3600 X200.61 Y119.11
G1 F1500 X49.39 Y119.11 E353.61658
G1 X49.39 Y90.89 E354.32053
G1 X200.61 Y90.89 E358.09273
G1 X200.61 Y119.11 E358.79668
G0 F3600 X201.01 Y119.51
G1 F1500 X48.99 Y119.51 E362.58883
G1 X48.99 Y90.49 E363.31274
G1 X201.01 Y90.49 E367.10489
G1 X201.01 Y119.51 E367.8288
G0 F3600 X201.41 Y119.91
G1 F1500 X48.59 Y119.91 E371.64091
G1 X48.59 Y90.09 E372.38477
G1 X201.41 Y90.09 E376.19688
G1 X201.41 Y119.91 E376.94075
G0 F3600 X201.81 Y120.31
G1 F1500 X48.19 Y120.31 E380.77281
G1 X48.19 Y89.69 E381.53663
G1 X201.81 Y89.69 E385.3687
G1 X201.81 Y120.31 E386.13252
G0 F3600 X202.21 Y120.71
M104 S235
G1 F1500 X47.79 Y120.71 E389.98454
G1 X47.79 Y89.29 E390.76832
G1 X202.21 Y89.29 E394.62034
G1 X202.21 Y120.71 E395.40411
G1 F2100 E394.60411
;MESH:NONMESH
G0 F600 X202.21 Y120.71 Z0.35
G0 F3600 X47 Y121.5
;TIME_ELAPSED:634.364393
;LAYER:1
M106 S242.3
;TYPE:WALL-INNER
;MESH:Object 1
G1 F2100 E395.40411
G1 F2550 X47 Y88.5 E396.5017
G1 X203 Y88.5 E401.69028
G1 X203 Y121.5 E402.78786
G1 X47 Y121.5 E407.97644
G0 F5400 X46.6 Y121.9
G1 F2550 X46.6 Y88.1 E409.10064
G1 X203.4 Y88.1 E414.31583
G1 X203.4 Y121.9 E415.44002
G1 X46.6 Y121.9 E420.65521
G0 F5400 X46.2 Y122.3
;TYPE:WALL-OUTER
G1 F1650 X46.2 Y87.7 E421.80601
G1 X203.8 Y87.7 E427.04781
G1 X203.8 Y122.3 E428.19861
G1 X46.2 Y122.3 E433.4404
G0 F5400 X46.2 Y122.1
G0 X46.64 Y121.86
G0 X46.7 Y121.86
G0 X47.39 Y121.11
;TYPE:SKIN
G1 F1650 X47.39 Y88.89 E434.51205
G1 X202.61 Y88.89 E439.67468
G1 X202.61 Y121.11 E440.74633
G1 X47.39 Y121.11 E445.90896
G0 F5400 X186.61 Y105.11
G1 F1650 X63.39 Y105.11 E450.00728
G1 X63.39 Y104.89 E450.01459
G1 X186.61 Y104.89 E454.11291
G1 X186.61 Y105.11 E454.12023
G0 F5400 X187.01 Y105.51
G1 F1650 X62.99 Y105.51 E458.24515
G1 X62.99 Y104.49 E458.27907
G1 X187.01 Y104.49 E462.40399
G1 X187.01 Y105.51 E462.43792
G0 F5400 X187.41 Y105.91
G1 F1650 X62.59 Y105.91 E466.58945
G1 X62.59 Y104.09 E466.64998
G1 X187.41 Y104.09 E470.80151
G1 X187.41 Y105.91 E470.86205
G0 F5400 X187.81 Y106.31
G1 F1650 X62.19 Y106.31 E475.04019
G1 X62.19 Y103.69 E475.12733
G1 X187.81 Y103.69 E479.30546
G1 X187.81 Y106.31 E479.39261
G0 F5400 X188.21 Y106.71
G1 F1650 X61.79 Y106.71 E483.59735
G1 X61.79 Y103.29 E483.7111
G1 X188.21 Y103.29 E487.91585
G1 X188.21 Y106.71 E488.0296
G0 F5400 X188.61 Y107.11
G1 F1650 X61.39 Y107.11 E492.26095
G1 X61.39 Y102.89 E492.40131
G1 X188.61 Y102.89 E496.63266
G1 X188.61 Y107.11 E496.77302
G0 F5400 X189.01 Y107.51
G1 F1650 X60.99 Y107.51 E501.03099
G1 X60.99 Y102.49 E501.19795
G1 X189.01 Y102.49 E505.45591
G1 X189.01 Y107.51 E505.62288
G0 F5400 X189.41 Y107.91
G1 F1650 X60.59 Y107.91 E509.90745
G1 X60.59 Y102.09 E510.10102
G1 X189.41 Y102.09 E514.38559
G1 X189.41 Y107.91 E514.57917
G0 F5400 X189.81 Y108.31
G1 F1650 X60.19 Y108.31 E518.89035
G1 X60.19 Y101.69 E519.11053
G1 X189.81 Y101.69 E523.42171
G1 X189.81 Y108.31 E523.64189
G0 F5400 X190.21 Y108.71
G1 F1650 X59.79 Y108.71 E527.97968
G1 X59.79 Y101.29 E528.22647
G1 X190.21 Y101.29 E532.56425
G1 X190.21 Y108.71 E532.81104
G0 F5400 X190.61 Y109.11
G1 F1650 X59.39 Y109.11 E537.17544
G1 X59.39 Y100.89 E537.44884
G1 X190.61 Y100.89 E541.81323
G1 X190.61 Y109.11 E542.08663
G0 F5400 X191.01 Y109.51
G1 F1650 X58.99 Y109.51 E546.47763
G1 X58.99 Y100.49 E546.77764
G1 X191.01 Y100.49 E551.16864
G1 X191.01 Y109.51 E551.46865
G0 F5400 X191.41 Y109.91
G1 F1650 X58.59 Y109.91 E555.88626
G1 X58.59 Y100.09 E556.21288
G1 X191.41 Y100.09 E560.63049
G1 X191.41 Y109.91 E560.9571
G0 F5400 X191.81 Y110.31
G1 F1650 X58.19 Y110.31 E565.40132
G1 X58.19 Y99.69 E565.75454
G1 X191.81 Y99.69 E570.19876
G1 X191.81 Y110.31 E570.55198
G0 F5400 X192.21 Y110.71
G1 F1650 X57.79 Y110.71 E575.02281
G1 X57.79 Y99.29 E575.40264
G1 X192.21 Y99.29 E579.87347
G1 X192.21 Y110.71 E580.2533
G0 F5400 X192.61 Y111.11
G1 F1650 X57.39 Y111.11 E584.75074
G1 X57.39 Y98.89 E585.15718
G1 X192.61 Y98.89 E589.65461
G1 X192.61 Y111.11 E590.06105
G0 F5400 X193.01 Y111.51
G1 F1650 X56.99 Y111.51 E594.58509
G1 X56.99 Y98.49 E595.01814
G1 X193.01 Y98.49 E599.54218
G1 X193.01 Y111.51 E599.97523
G0 F5400 X193.41 Y111.91
G1 F1650 X56.59 Y111.91 E604.52588
G1 X56.59 Y98.09 E604.98554
G1 X193.41 Y98.09 E609.53619
G1 X193.41 Y111.91 E609.99584
G0 F5400 X193.81 Y112.31
G1 F1650 X56.19 Y112.31 E614.5731
G1 X56.19 Y97.69 E615.05937
G1 X193.81 Y97.69 E619.63663
G1 X193.81 Y112.31 E620.12289
G0 F5400 X194.21 Y112.71
G1 F1650 X55.79 Y112.71 E624.72676
G1 X55.79 Y97.29 E625.23963
G1 X194.21 Y97.29 E629.8435
G1 X194.21 Y112.71 E630.35637
G0 F5400 X194.61 Y113.11
G1 F1650 X55.39 Y113.11 E634.98684
G1 X55.39 Y96.89 E635.52632
G1 X194.61 Y96.89 E640.1568
G1 X194.61 Y113.11 E640.69628
G0 F5400 X195.01 Y113.51
G1 F1650 X54.99 Y113.51 E645.35336
G1 X54.99 Y96.49 E645.91945
G1 X195.01 Y96.49 E650.57653
G1 X195.01 Y113.51 E651.14262
G0 F5400 X195.41 Y113.91
G1 F1650 X54.59 Y113.91 E655.82631
G1 X54.59 Y96.09 E656.41901
G1 X195.41 Y96.09 E661.1027
G1 X195.41 Y113.91 E661.6954
G0 F5400 X195.81 Y114.31
G1 F1650 X54.19 Y114.31 E666.4057
G1 X54.19 Y95.69 E667.025
G1 X195.81 Y95.69 E671.7353
G1 X195.81 Y114.31 E672.35461
G0 F5400 X196.21 Y114.71
G1 F1650 X53.79 Y114.71 E677.09151
G1 X53.79 Y95.29 E677.73743
G1 X196.21 Y95.29 E682.47433
G1 X196.21 Y114.71 E683.12025
G0 F5400 X196.61 Y115.11
G1 F1650 X53.39 Y115.11 E687.88376
G1 X53.39 Y94.89 E688.55628
G1 X196.61 Y94.89 E693.3198
G1 X196.61 Y115.11 E693.99232
G0 F5400 X197.01 Y115.51
G1 F1650 X52.99 Y115.51 E698.78244
G1 X52.99 Y94.49 E699.48157
G1 X197.01 Y94.49 E704.2717
G1 X197.01 Y115.51 E704.97082
G0 F5400 X197.41 Y115.91
G1 F1650 X52.59 Y115.91 E709.78756
G1 X52.59 Y94.09 E710.51329
G1 X197.41 Y94.09 E715.33003
G1 X197.41 Y115.91 E716.05576
G0 F5400 X197.81 Y116.31
G1 F1650 X52.19 Y116.31 E720.8991
G1 X52.19 Y93.69 E721.65145
G1 X197.81 Y93.69 E726.49479
