; generated by Slic3r 1.35.5-prusa3d-win64 on 2017-07-13 at 21:11:43

; 

; external perimeters extrusion width = 0.45mm
; perimeters extrusion width = 0.45mm
; infill extrusion width = 0.45mm
; solid infill extrusion width = 0.45mm
; top infill extrusion width = 0.45mm
; first layer extrusion width = 0.42mm

M107
M115 U3.0.11 ; tell printer latest fw version
M83  ; extruder relative mode
M104 S215 ; set extruder temp
M140 S55 ; set bed temp
M190 S55 ; wait for bed temp
M109 S215 ; wait for extruder temp
G28 W ; home all without mesh bed level
G80 ; mesh bed leveling
G1 Y-3.0 F1000.0 ; go outside pritn area
G1 X60.0 E9.0  F1000.0 ; intro line
G1 X100.0 E12.5  F1000.0 ; intro line
; Filament gcode

G21 ; set units to millimeters
G90 ; use absolute coordinates
M83 ; use relative distances for extrusion
G1 E-0.80000 F2100.00000
G1 Z0.200 F7200.000
G1 X112.718 Y108.583 F7200.000
G1 E0.80000 F2100.00000
M204 S1000
G1 F900
G1 X113.468 Y108.075 E0.02983
G1 X114.298 Y107.809 E0.02869
G1 X115.305 Y107.760 E0.03320
G1 X135.682 Y107.808 E0.67082
G1 X136.273 Y107.962 E0.02012
G1 X136.827 Y108.230 E0.02026
G1 X137.318 Y108.601 E0.02026
G1 X137.727 Y109.061 E0.02026
G1 X138.036 Y109.588 E0.02012
G1 X138.238 Y110.169 E0.02026
G1 X138.322 Y110.774 E0.02012
G1 X138.286 Y111.389 E0.02026
G1 X138.117 Y112.021 E0.02155
G1 X137.818 Y112.608 E0.02169
G1 X137.402 Y113.120 E0.02169
G1 X136.889 Y113.533 E0.02169
G1 X126.498 Y119.925 E0.40165
G1 X125.536 Y120.260 E0.03353
G1 X124.513 Y120.268 E0.03367
G1 X123.918 Y120.113 E0.02026
G1 X123.360 Y119.843 E0.02040
G1 X113.140 Y113.531 E0.39547
G1 X112.688 Y113.180 E0.01883
G1 X112.308 Y112.753 E0.01883
G1 X111.879 Y111.945 E0.03012
G1 X111.701 Y111.043 E0.03026
G1 X111.793 Y110.129 E0.03026
G1 X112.144 Y109.284 E0.03012
G1 X112.680 Y108.629 E0.02786
G1 X112.969 Y108.864 F7200.000
G1 F900
G1 X113.644 Y108.409 E0.02680
G1 X114.385 Y108.177 E0.02556
G1 X115.305 Y108.137 E0.03033
G1 X135.573 Y108.173 E0.66726
G1 X136.095 Y108.298 E0.01765
G1 X136.585 Y108.524 E0.01779
G1 X137.022 Y108.842 E0.01779
G1 X137.389 Y109.239 E0.01779
G1 X137.671 Y109.700 E0.01779
G1 X137.858 Y110.207 E0.01779
G1 X137.942 Y110.740 E0.01779
G1 X137.921 Y111.280 E0.01779
G1 X137.778 Y111.852 E0.01940
G1 X137.516 Y112.380 E0.01940
G1 X137.148 Y112.840 E0.01940
G1 X136.691 Y113.212 E0.01940
G1 X126.338 Y119.583 E0.40022
G1 X125.504 Y119.883 E0.02916
G1 X124.623 Y119.903 E0.02903
G1 X124.074 Y119.769 E0.01859
G1 X123.564 Y119.526 E0.01859
G1 X113.351 Y113.219 E0.39519
G1 X112.669 Y112.604 E0.03023
G1 X112.260 Y111.887 E0.02716
G1 X112.081 Y111.082 E0.02716
G1 X112.149 Y110.260 E0.02716
G1 X112.458 Y109.494 E0.02716
G1 X112.931 Y108.911 E0.02475
G1 X113.222 Y109.145 F7200.000
G1 F900
G1 X113.821 Y108.742 E0.02375
G1 X114.467 Y108.546 E0.02225
G1 X115.305 Y108.514 E0.02762
G1 X135.477 Y108.541 E0.66410
G1 X136.359 Y108.829 E0.03053
G1 X137.062 Y109.432 E0.03053
G1 X137.482 Y110.259 E0.03053
G1 X137.553 Y111.184 E0.03053
G1 X137.435 Y111.691 E0.01715
G1 X137.211 Y112.157 E0.01702
G1 X136.892 Y112.564 E0.01702
G1 X136.489 Y112.894 E0.01715
G1 X126.167 Y119.246 E0.39900
G1 X125.467 Y119.506 E0.02460
G1 X124.716 Y119.535 E0.02473
G1 X124.224 Y119.422 E0.01665
G1 X123.766 Y119.207 E0.01665
G1 X113.561 Y112.906 E0.39486
G1 X113.021 Y112.439 E0.02349
G1 X112.639 Y111.819 E0.02398
G1 X112.462 Y111.108 E0.02411
G1 X112.508 Y110.381 E0.02398
G1 X112.775 Y109.699 E0.02411
G1 X113.184 Y109.191 E0.02149
G1 F5760
G1 X113.821 Y108.742 E-0.26979
G1 F5760
G1 X114.467 Y108.546 E-0.23403
G1 F5760
G1 X115.206 Y108.518 E-0.25617
G1 E-0.04000 F2100.00000
G1 X114.611 Y110.989 F7200.000
G1 E0.80000 F2100.00000
G1 F900
G1 X114.681 Y110.709 E0.00953
G1 X116.546 Y110.713 E0.06137
G1 X116.634 Y110.766 E0.00339
G1 X116.986 Y111.418 E0.02439
G1 X117.111 Y111.515 E0.00522
G1 X117.909 Y111.727 E0.02717
G1 X118.255 Y112.024 E0.01501
G1 X119.256 Y112.699 E0.03976
G1 X120.361 Y113.306 E0.04149
G1 X121.464 Y113.758 E0.03926
G1 X122.626 Y114.109 E0.03996
G1 X123.809 Y114.310 E0.03948
G1 X125.017 Y114.387 E0.03987
G1 X126.213 Y114.307 E0.03946
G1 X127.401 Y114.098 E0.03970
G1 X128.536 Y113.759 E0.03901
G1 X129.656 Y113.291 E0.03997
G1 X130.757 Y112.704 E0.04106
G1 X131.729 Y112.008 E0.03936
G1 X132.684 Y111.214 E0.04088
G1 X133.069 Y110.767 E0.01944
G1 X133.142 Y110.731 E0.00267
G1 X134.067 Y110.707 E0.03047
G1 X135.342 Y110.713 E0.04196
G1 X135.411 Y111.001 E0.00976
G1 X134.623 Y111.403 E0.02912
G1 X134.239 Y111.630 E0.01468
G1 X133.383 Y112.087 E0.03194
G1 X133.331 Y112.098 E0.00174
G1 X132.660 Y112.052 E0.02215
G1 X132.506 Y112.110 E0.00542
G1 X131.923 Y112.701 E0.02732
G1 X131.512 Y113.165 E0.02039
G1 X131.037 Y113.437 E0.01804
G1 X130.659 Y113.748 E0.01610
G1 X129.969 Y114.154 E0.02637
G1 X127.442 Y115.789 E0.09909
G1 X126.053 Y116.721 E0.05507
G1 X125.054 Y117.364 E0.03910
G1 X124.941 Y117.363 E0.00374
G1 X122.584 Y115.763 E0.09378
G1 X121.818 Y115.295 E0.02954
G1 X120.030 Y114.152 E0.06987
G1 X118.685 Y113.346 E0.05164
G1 X117.756 Y112.728 E0.03674
G1 X116.504 Y111.976 E0.04808
G1 X114.663 Y111.019 E0.06830
G1 F5760
G1 X114.681 Y110.709 E-0.10750
G1 F5760
G1 X116.546 Y110.713 E-0.64568
G1 F5760
G1 X116.563 Y110.723 E-0.00681
G1 E-0.04000 F2100.00000
G1 X132.771 Y111.660 F7200.000
G1 E0.80000 F2100.00000
G1 F900
G1 X132.971 Y111.494 E0.00856
G1 X133.287 Y111.126 E0.01594
G1 X134.341 Y111.107 E0.03471
G1 X133.272 Y111.694 E0.04015
G1 X132.831 Y111.664 E0.01454
G1 X132.990 Y111.519 F7200.000
G1 F5760
G1 X132.971 Y111.494 E-0.07638
G1 F5760
G1 X133.287 Y111.126 E-0.16771
G1 F5760
G1 X134.341 Y111.107 E-0.36518
G1 F5760
G1 X133.959 Y111.316 E-0.15072
G1 E-0.04000 F2100.00000
G1 X131.150 Y112.913 F7200.000
G1 E0.80000 F2100.00000
G1 F900
G1 X131.310 Y112.798 E0.00650
G1 X131.202 Y112.883 E0.00454
G1 X131.346 Y112.935 F7200.000
G1 F5760
G1 X131.310 Y112.798 E-0.04777
G1 F5760
G1 X131.202 Y112.883 E-0.04777
G1 E-0.70445 F2100.00000
G1 X116.627 Y111.591 F7200.000
G1 E0.80000 F2100.00000
G1 F900
G1 X115.688 Y111.104 E0.03482
G1 X116.367 Y111.110 E0.02234
G1 X116.599 Y111.538 E0.01603
G1 X116.964 Y111.376 F7200.000
G1 F5760
G1 X115.688 Y111.104 E-0.34937
G1 F5760
G1 X116.367 Y111.110 E-0.23508
G1 F5760
G1 X116.599 Y111.538 E-0.16869
G1 E-0.04686 F2100.00000
G1 X125.002 Y116.923 F7200.000
G1 E0.80000 F2100.00000
G1 F900
G1 X122.796 Y115.426 E0.08775
G1 X122.030 Y114.958 E0.02954
G1 X120.238 Y113.812 E0.07005
G1 X118.898 Y113.009 E0.05141
G1 X117.975 Y112.395 E0.03651
G1 X117.255 Y111.962 E0.02766
G1 X117.702 Y112.075 E0.01520
G1 X118.002 Y112.335 E0.01306
G1 X119.056 Y113.044 E0.04183
G1 X120.171 Y113.662 E0.04198
G1 X121.319 Y114.130 E0.04081
G1 X122.517 Y114.495 E0.04122
G1 X123.751 Y114.706 E0.04123
G1 X125.000 Y114.788 E0.04120
G1 X126.249 Y114.706 E0.04122
G1 X127.482 Y114.489 E0.04119
G1 X128.682 Y114.132 E0.04123
G1 X129.837 Y113.648 E0.04124
G1 X130.728 Y113.174 E0.03320
G1 X130.436 Y113.417 E0.01249
G1 X129.763 Y113.812 E0.02570
G1 X127.222 Y115.456 E0.09963
G1 X125.052 Y116.889 E0.08563
G1 X124.876 Y116.543 F7200.000
G1 X125.005 Y116.469 F7200.000
G1 F900
G1 X123.001 Y115.109 E0.07974
G1 X122.664 Y114.903 E0.01298
G1 X123.707 Y115.081 E0.03483
G1 X125.000 Y115.166 E0.04266
G1 X126.294 Y115.080 E0.04271
G1 X127.412 Y114.884 E0.03736
G1 X125.055 Y116.436 E0.09291
G1 X125.007 Y116.015 F7200.000
G1 F900
G1 X124.239 Y115.494 E0.03056
G1 X125.000 Y115.544 E0.02510
G1 X125.801 Y115.491 E0.02643
G1 X125.058 Y115.982 E0.02934
G1 F5760
G1 X124.239 Y115.494 E-0.33001
G1 F5760
G1 X125.000 Y115.544 E-0.26404
G1 F5760
G1 X125.478 Y115.512 E-0.16594
G1 E-0.04000 F2100.00000
G1 X125.983 Y115.440 F7200.000
G1 E0.80000 F2100.00000
G1 F900
G1 X126.450 Y115.268 E0.00234
G1 F5760
G1 X125.983 Y115.440 E-0.17245
G1 E-0.62755 F2100.00000
G1 X127.587 Y114.814 F7200.000
G1 E0.80000 F2100.00000
G1 F900
G1 X127.755 Y114.737 E0.00361
G1 F900
G1 X128.089 Y114.582 E0.00443
G1 F900
G1 X128.424 Y114.428 E0.00164
G1 F5760
G1 X128.089 Y114.582 E-0.12771
G1 E-0.67229 F2100.00000
G1 X124.058 Y115.442 F7200.000
G1 E0.80000 F2100.00000
G1 F900
G1 X123.620 Y115.277 E0.00105
G1 F5760
G1 X124.058 Y115.442 E-0.16204
G1 E-0.63796 F2100.00000
G1 X122.486 Y114.840 F7200.000
G1 E0.80000 F2100.00000
G1 F900
G1 X122.043 Y114.639 E0.00948
G1 F900
G1 X121.753 Y114.505 E0.00370
G1 F900
G1 X121.608 Y114.438 E0.00069
G1 F5760
G1 X121.753 Y114.505 E-0.05528
G1 E-0.74472 F2100.00000
G1 X133.283 Y111.451 F7200.000
G1 E0.80000 F2100.00000
G1 F900
G1 X133.459 Y111.310 E0.00103
M106 S247.35
G1 F5760
G1 X133.283 Y111.451 E-0.07797
G1 E-0.72203 F2100.00000
G1 Z0.350 F7200.000
M104 S205 ; set temperature
G1 X125.000 Y117.083 F7200.000
G1 E0.80000 F2100.00000
M204 S800
G1 F1500
G1 X122.699 Y115.580 E0.07519
G1 X120.296 Y114.067 E0.07769
G1 X118.344 Y112.923 E0.06190
G1 X115.822 Y111.532 E0.07880
G1 X114.201 Y110.739 E0.04937
G1 X112.604 Y110.023 E0.04789
G1 X111.006 Y109.399 E0.04692
G1 X109.413 Y108.814 E0.04644
G1 X107.915 Y108.341 E0.04299
G1 X105.042 Y107.541 E0.08159
G1 X103.305 Y107.168 E0.04861
G1 X102.757 Y107.099 E0.01509
G1 X100.411 Y106.661 E0.06530
G1 X99.569 Y106.593 E0.02310
G1 X98.303 Y106.409 E0.03501
G1 X97.028 Y106.318 E0.03497
G1 X97.038 Y106.308 E0.00039
G1 X93.733 Y106.007 E0.09079
G1 X92.508 Y106.036 E0.03351
G1 X89.708 Y105.940 E0.07666
G1 X89.465 Y105.868 E0.00692
G1 X88.997 Y105.583 E0.01500
G1 X88.820 Y105.406 E0.00687
G1 X88.574 Y104.949 E0.01418
G1 X88.532 Y104.584 E0.01004
G1 X88.534 Y104.311 E0.00748
G1 X88.730 Y103.667 E0.01844
G1 X88.950 Y103.402 E0.00941
G1 X89.108 Y103.294 E0.00524
G1 X89.486 Y103.118 E0.01140
G1 X89.555 Y103.120 E0.00189
G1 X91.620 Y102.728 E0.05750
G1 X92.185 Y102.589 E0.01591
G1 X94.032 Y102.204 E0.05162
G1 X99.021 Y101.095 E0.13983
G1 X104.230 Y101.102 E0.14251
G1 X106.105 Y101.124 E0.05129
G1 X114.854 Y101.089 E0.23937
G1 X114.694 Y101.899 E0.02259
G1 X114.601 Y103.183 E0.03523
G1 X114.623 Y103.381 E0.00545
G1 X114.585 Y104.412 E0.02822
G1 X114.595 Y104.910 E0.01363
G1 X114.692 Y105.178 E0.00778
G1 X114.742 Y105.666 E0.01343
G1 X114.981 Y106.892 E0.03417
G1 X115.422 Y108.057 E0.03408
G1 X115.952 Y109.171 E0.03374
G1 X116.299 Y109.705 E0.01743
G1 X116.600 Y110.222 E0.01637
G1 X116.869 Y110.511 E0.01081
G1 X117.383 Y111.167 E0.02279
G1 X118.268 Y112.014 E0.03351
G1 X118.512 Y112.217 E0.00871
G1 X119.253 Y112.751 E0.02496
G1 X120.299 Y113.375 E0.03332
G1 X121.415 Y113.874 E0.03345
G1 X122.585 Y114.224 E0.03342
G1 X123.785 Y114.432 E0.03331
G1 X125.000 Y114.508 E0.03331
G1 X126.216 Y114.432 E0.03332
G1 X127.415 Y114.220 E0.03333
G1 X128.580 Y113.862 E0.03334
G1 X129.700 Y113.375 E0.03341
G1 X130.747 Y112.751 E0.03335
G1 X131.488 Y112.217 E0.02496
G1 X131.732 Y112.014 E0.00871
G1 X132.616 Y111.167 E0.03348
G1 X133.384 Y110.208 E0.03361
G1 X134.057 Y109.176 E0.03371
G1 X134.601 Y108.061 E0.03396
G1 X134.956 Y106.957 E0.03173
G1 X135.228 Y105.914 E0.02949
G1 X135.274 Y105.665 E0.00691
G1 X135.385 Y104.424 E0.03410
G1 X135.379 Y103.168 E0.03434
G1 X135.313 Y102.579 E0.01623
G1 X135.307 Y101.906 E0.01840
G1 X135.237 Y101.557 E0.00975
G1 X135.108 Y101.109 E0.01273
G1 X137.740 Y101.085 E0.07200
G1 X151.004 Y101.091 E0.36288
G1 X151.554 Y101.244 E0.01563
G1 X153.803 Y101.718 E0.06288
G1 X157.417 Y102.463 E0.10095
G1 X160.500 Y103.068 E0.08594
G1 X160.945 Y103.302 E0.01377
G1 X161.129 Y103.475 E0.00691
G1 X161.304 Y103.718 E0.00819
G1 X161.386 Y103.902 E0.00551
G1 X161.509 Y104.425 E0.01469
G1 X161.488 Y104.664 E0.00656
G1 X161.326 Y105.179 E0.01477
G1 X161.055 Y105.530 E0.01214
G1 X160.964 Y105.607 E0.00326
G1 X160.761 Y105.711 E0.00622
G1 X160.528 Y105.875 E0.00780
G1 X160.285 Y105.943 E0.00692
G1 X160.009 Y105.977 E0.00759
G1 X159.058 Y105.966 E0.02603
G1 X155.771 Y106.089 E0.08998
G1 X151.695 Y106.396 E0.11183
G1 X149.560 Y106.713 E0.05907
G1 X149.193 Y106.738 E0.01006
G1 X148.641 Y106.814 E0.01525
G1 X145.520 Y107.446 E0.08713
G1 X143.375 Y107.962 E0.06034
G1 X142.200 Y108.298 E0.03343
G1 X140.591 Y108.822 E0.04631
G1 X138.987 Y109.379 E0.04645
G1 X137.398 Y110.032 E0.04700
G1 X135.804 Y110.749 E0.04783
G1 X134.177 Y111.528 E0.04935
G1 X131.613 Y112.950 E0.08020
G1 X129.703 Y114.067 E0.06053
G1 X127.304 Y115.586 E0.07768
G1 X125.051 Y117.050 E0.07354
M204 S1000
G1 X124.871 Y116.704 F7200.000
G1 F5760
G1 X123.190 Y115.887 E-0.76000
G1 E-0.04000 F2100.00000
G1 X132.925 Y111.450 F7200.000
G1 E0.80000 F2100.00000
M204 S800
G1 F2400
G1 X133.723 Y110.453 E0.03492
G1 X134.421 Y109.383 E0.03498
G1 X134.989 Y108.217 E0.03548
G1 X135.357 Y107.073 E0.03286
G1 X135.637 Y106.004 E0.03023
G1 X135.689 Y105.722 E0.00787
G1 X135.803 Y104.441 E0.03517
G1 X135.796 Y103.144 E0.03549
G1 X135.730 Y102.554 E0.01625
G1 X135.725 Y101.863 E0.01890
G1 X135.657 Y101.522 E0.00951
G1 X137.741 Y101.503 E0.05703
G1 X150.947 Y101.509 E0.36129
G1 X151.455 Y101.650 E0.01443
G1 X153.718 Y102.127 E0.06326
G1 X157.335 Y102.872 E0.10103
G1 X160.359 Y103.466 E0.08433
G1 X160.701 Y103.646 E0.01056
G1 X160.814 Y103.752 E0.00424
G1 X160.940 Y103.928 E0.00592
G1 X160.989 Y104.037 E0.00327
G1 X161.087 Y104.455 E0.01175
G1 X161.076 Y104.582 E0.00349
G1 X160.950 Y104.983 E0.01149
G1 X160.730 Y105.258 E0.00963
G1 X160.545 Y105.353 E0.00571
G1 X160.347 Y105.492 E0.00660
G1 X160.203 Y105.532 E0.00410
G1 X159.986 Y105.559 E0.00599
G1 X159.053 Y105.548 E0.02553
G1 X155.748 Y105.672 E0.09048
G1 X151.649 Y105.980 E0.11245
G1 X149.515 Y106.297 E0.05902
G1 X149.150 Y106.322 E0.01000
G1 X148.571 Y106.402 E0.01601
G1 X145.429 Y107.038 E0.08769
G1 X143.269 Y107.558 E0.06079
G1 X142.078 Y107.899 E0.03388
G1 X140.457 Y108.426 E0.04662
G1 X138.839 Y108.988 E0.04688
G1 X137.233 Y109.648 E0.04751
G1 X135.628 Y110.370 E0.04815
G1 X133.985 Y111.157 E0.04982
G1 X132.194 Y112.150 E0.05603
G1 X132.882 Y111.491 E0.02605
M204 S1000
G1 F5760
G1 X133.723 Y110.453 E-0.46267
G1 F5760
G1 X134.192 Y109.735 E-0.29733
G1 E-0.04000 F2100.00000
G1 X134.101 Y110.638 F7200.000
G1 E0.80000 F2100.00000
M204 S800
G1 F2400
G1 X134.786 Y109.589 E0.03425
G1 X135.378 Y108.373 E0.03701
G1 X135.759 Y107.190 E0.03400
G1 X136.045 Y106.095 E0.03097
G1 X136.103 Y105.778 E0.00882
G1 X136.220 Y104.459 E0.03624
G1 X136.214 Y103.120 E0.03663
G1 X136.148 Y102.529 E0.01627
G1 X136.143 Y101.936 E0.01623
G1 X137.742 Y101.921 E0.04375
G1 X150.890 Y101.927 E0.35971
G1 X151.356 Y102.056 E0.01323
G1 X153.632 Y102.536 E0.06364
G1 X157.252 Y103.282 E0.10111
G1 X160.219 Y103.865 E0.08271
G1 X160.456 Y103.989 E0.00734
G1 X160.591 Y104.171 E0.00620
G1 X160.665 Y104.485 E0.00880
G1 X160.574 Y104.786 E0.00862
G1 X160.469 Y104.922 E0.00470
G1 X160.121 Y105.121 E0.01095
G1 X159.962 Y105.141 E0.00438
G1 X159.047 Y105.130 E0.02504
G1 X155.724 Y105.254 E0.09097
G1 X151.603 Y105.565 E0.11308
G1 X149.470 Y105.881 E0.05898
G1 X149.107 Y105.906 E0.00995
G1 X148.500 Y105.990 E0.01677
G1 X145.339 Y106.630 E0.08825
G1 X143.162 Y107.154 E0.06124
G1 X141.956 Y107.499 E0.03433
G1 X140.324 Y108.030 E0.04694
G1 X138.691 Y108.597 E0.04731
G1 X137.067 Y109.264 E0.04802
G1 X135.452 Y109.991 E0.04847
G1 X134.155 Y110.612 E0.03932
M204 S1000
G1 F5760
G1 X134.786 Y109.589 E-0.41598
G1 F5760
G1 X135.220 Y108.696 E-0.34402
G1 E-0.04000 F2100.00000
G1 X117.804 Y112.148 F7200.000
G1 E0.80000 F2100.00000
M204 S800
G1 F2400
G1 X116.015 Y111.161 E0.05590
G1 X114.379 Y110.360 E0.04984
G1 X112.765 Y109.638 E0.04836
G1 X111.154 Y109.008 E0.04732
G1 X109.548 Y108.419 E0.04682
G1 X108.034 Y107.940 E0.04344
G1 X105.142 Y107.135 E0.08214
G1 X103.375 Y106.756 E0.04944
G1 X102.822 Y106.686 E0.01525
G1 X100.466 Y106.246 E0.06556
G1 X99.616 Y106.178 E0.02333
G1 X98.348 Y105.993 E0.03506
G1 X93.747 Y105.589 E0.12637
G1 X92.510 Y105.618 E0.03383
G1 X89.775 Y105.524 E0.07488
G1 X89.630 Y105.481 E0.00413
G1 X89.404 Y105.352 E0.00714
G1 X89.263 Y105.258 E0.00464
G1 X89.158 Y105.154 E0.00403
G1 X88.980 Y104.822 E0.01031
G1 X88.950 Y104.562 E0.00716
G1 X88.951 Y104.374 E0.00513
G1 X89.108 Y103.858 E0.01476
G1 X89.176 Y103.768 E0.00309
G1 X89.325 Y103.654 E0.00513
G1 X89.573 Y103.539 E0.00749
G1 X91.709 Y103.137 E0.05946
G1 X92.277 Y102.996 E0.01601
G1 X94.120 Y102.613 E0.05148
G1 X99.067 Y101.513 E0.13865
