; generated by Slic3r 1.35.5-prusa3d-win64 on 2017-07-13 at 21:20:13

; 

; external perimeters extrusion width = 0.45mm
; perimeters extrusion width = 0.45mm
; infill extrusion width = 0.45mm
; solid infill extrusion width = 0.45mm
; top infill extrusion width = 0.45mm
; support material extrusion width = 0.35mm
; first layer extrusion width = 0.42mm

M107
M115 U3.0.11 ; tell printer latest fw version
M83  ; extruder relative mode
M104 S215 ; set extruder temp
M140 S55 ; set bed temp
M190 S55 ; wait for bed temp
M109 S215 ; wait for extruder temp
G28 W ; home all without mesh bed level
G80 ; mesh bed leveling
G1 Y-3.0 F1000.0 ; go outside pritn area
G1 X60.0 E9.0  F1000.0 ; intro line
G1 X100.0 E12.5  F1000.0 ; intro line
; Filament gcode

G21 ; set units to millimeters
G90 ; use absolute coordinates
M83 ; use relative distances for extrusion
G1 E-0.80000 F2100.00000
G1 Z0.200 F7200.000
G1 X83.911 Y94.969 F7200.000
G1 E0.80000 F2100.00000
M204 S1000
G1 F2100
G1 X84.511 Y94.564 E0.02382
G1 X85.095 Y94.352 E0.02047
G1 X85.708 Y94.276 E0.02034
G1 X127.221 Y94.106 E1.36671
G1 X164.961 Y94.276 E1.24248
G1 X165.622 Y94.365 E0.02195
G1 X166.245 Y94.613 E0.02208
G1 X166.811 Y95.024 E0.02302
G1 X167.256 Y95.563 E0.02302
G1 X167.550 Y96.198 E0.02302
G1 X167.675 Y96.890 E0.02315
G1 X167.678 Y114.778 E0.58892
G1 X167.587 Y115.434 E0.02181
G1 X167.341 Y116.050 E0.02181
G1 X166.916 Y116.631 E0.02369
G1 X166.352 Y117.084 E0.02382
G1 X165.690 Y117.375 E0.02382
G1 X164.974 Y117.483 E0.02382
G1 X85.733 Y117.483 E2.60876
G1 X84.981 Y117.377 E0.02503
G1 X84.286 Y117.069 E0.02503
G1 X83.701 Y116.583 E0.02503
G1 X83.272 Y115.956 E0.02503
G1 X83.061 Y115.380 E0.02021
G1 X82.984 Y114.771 E0.02021
G1 X82.988 Y96.870 E0.58933
G1 X83.123 Y96.163 E0.02369
G1 X83.439 Y95.512 E0.02382
G1 X83.871 Y95.014 E0.02171
G1 X84.154 Y95.261 F7200.000
G1 F2100
G1 X84.695 Y94.893 E0.02153
G1 X85.193 Y94.716 E0.01739
G1 X85.714 Y94.653 E0.01727
G1 X127.222 Y94.483 E1.36654
G1 X164.950 Y94.653 E1.24211
G1 X165.515 Y94.727 E0.01876
G1 X166.050 Y94.936 E0.01889
G1 X166.547 Y95.292 E0.02013
G1 X166.936 Y95.764 E0.02013
G1 X167.193 Y96.319 E0.02013
G1 X167.299 Y96.921 E0.02013
G1 X167.301 Y114.763 E0.58740
G1 X167.226 Y115.324 E0.01864
G1 X167.018 Y115.855 E0.01876
G1 X166.651 Y116.363 E0.02063
G1 X166.160 Y116.759 E0.02076
G1 X165.583 Y117.013 E0.02076
G1 X164.960 Y117.106 E0.02076
G1 X85.734 Y117.106 E2.60827
G1 X85.080 Y117.013 E0.02175
G1 X84.476 Y116.744 E0.02175
G1 X83.971 Y116.319 E0.02175
G1 X83.601 Y115.771 E0.02175
G1 X83.425 Y115.277 E0.01727
G1 X83.361 Y114.761 E0.01715
G1 X83.364 Y96.908 E0.58775
G1 X83.480 Y96.284 E0.02088
G1 X83.756 Y95.717 E0.02076
G1 X84.115 Y95.306 E0.01797
G1 F5760
G1 X84.695 Y94.893 E-0.24671
G1 F5760
G1 X85.193 Y94.716 E-0.18300
G1 F5760
G1 X85.714 Y94.653 E-0.18169
G1 F5760
G1 X86.143 Y94.651 E-0.14860
G1 E-0.04000 F2100.00000
G1 X85.339 Y114.807 F7200.000
G1 E0.80000 F2100.00000
G1 F2100
G1 X85.339 Y96.905 E0.58937
G1 X85.368 Y96.836 E0.00247
G1 X85.544 Y96.660 E0.00820
G1 X85.613 Y96.631 E0.00247
G1 X86.616 Y96.631 E0.03303
G1 X86.794 Y96.705 E0.00633
G1 X86.944 Y96.705 E0.00494
G1 X87.121 Y96.631 E0.00633
G1 X88.125 Y96.631 E0.03303
G1 X88.302 Y96.705 E0.00633
G1 X88.452 Y96.705 E0.00494
G1 X88.630 Y96.631 E0.00633
G1 X89.633 Y96.631 E0.03303
G1 X89.810 Y96.705 E0.00633
G1 X89.960 Y96.705 E0.00494
G1 X90.138 Y96.631 E0.00633
G1 X91.141 Y96.631 E0.03303
G1 X91.319 Y96.705 E0.00633
G1 X91.469 Y96.705 E0.00494
G1 X91.646 Y96.631 E0.00633
G1 X92.649 Y96.631 E0.03303
G1 X92.827 Y96.705 E0.00633
G1 X92.977 Y96.705 E0.00494
G1 X93.155 Y96.631 E0.00633
G1 X94.158 Y96.631 E0.03303
G1 X94.335 Y96.705 E0.00633
G1 X94.485 Y96.705 E0.00494
G1 X94.663 Y96.631 E0.00633
G1 X95.666 Y96.631 E0.03303
G1 X95.844 Y96.705 E0.00633
G1 X95.994 Y96.705 E0.00494
G1 X96.171 Y96.631 E0.00633
G1 X97.174 Y96.631 E0.03303
G1 X97.352 Y96.705 E0.00633
G1 X97.502 Y96.705 E0.00494
G1 X97.680 Y96.631 E0.00633
G1 X98.683 Y96.631 E0.03303
G1 X98.860 Y96.705 E0.00633
G1 X99.010 Y96.705 E0.00494
G1 X99.188 Y96.631 E0.00633
G1 X100.191 Y96.631 E0.03303
G1 X100.369 Y96.705 E0.00633
G1 X100.519 Y96.705 E0.00494
G1 X100.696 Y96.631 E0.00633
G1 X101.699 Y96.631 E0.03303
G1 X101.877 Y96.705 E0.00633
G1 X102.027 Y96.705 E0.00494
G1 X102.205 Y96.631 E0.00633
G1 X103.208 Y96.631 E0.03303
G1 X103.385 Y96.705 E0.00633
G1 X103.535 Y96.705 E0.00494
G1 X103.713 Y96.631 E0.00633
G1 X104.716 Y96.631 E0.03303
G1 X104.894 Y96.705 E0.00633
G1 X105.044 Y96.705 E0.00494
G1 X105.221 Y96.631 E0.00633
G1 X106.224 Y96.631 E0.03303
G1 X106.402 Y96.705 E0.00633
G1 X106.552 Y96.705 E0.00494
G1 X106.730 Y96.631 E0.00633
G1 X107.733 Y96.631 E0.03303
G1 X107.910 Y96.705 E0.00633
G1 X108.060 Y96.705 E0.00494
G1 X108.238 Y96.631 E0.00633
G1 X109.241 Y96.631 E0.03303
G1 X109.419 Y96.705 E0.00633
G1 X109.569 Y96.705 E0.00494
G1 X109.746 Y96.631 E0.00633
G1 X110.749 Y96.631 E0.03303
G1 X110.927 Y96.705 E0.00633
G1 X111.077 Y96.705 E0.00494
G1 X111.254 Y96.631 E0.00633
G1 X112.258 Y96.631 E0.03303
G1 X112.435 Y96.705 E0.00633
G1 X112.585 Y96.705 E0.00494
G1 X112.763 Y96.631 E0.00633
G1 X113.766 Y96.631 E0.03303
G1 X113.943 Y96.705 E0.00633
G1 X114.094 Y96.705 E0.00494
G1 X114.271 Y96.631 E0.00633
G1 X115.274 Y96.631 E0.03303
G1 X115.452 Y96.705 E0.00633
G1 X115.602 Y96.705 E0.00494
G1 X115.779 Y96.631 E0.00633
G1 X116.783 Y96.631 E0.03303
G1 X116.960 Y96.705 E0.00633
G1 X117.110 Y96.705 E0.00494
G1 X117.288 Y96.631 E0.00633
G1 X118.291 Y96.631 E0.03303
G1 X118.468 Y96.705 E0.00633
G1 X118.618 Y96.705 E0.00494
G1 X118.796 Y96.631 E0.00633
G1 X119.799 Y96.631 E0.03303
G1 X119.977 Y96.705 E0.00633
G1 X120.127 Y96.705 E0.00494
G1 X120.304 Y96.631 E0.00633
G1 X121.307 Y96.631 E0.03303
G1 X121.485 Y96.705 E0.00633
G1 X121.635 Y96.705 E0.00494
G1 X121.813 Y96.631 E0.00633
G1 X122.816 Y96.631 E0.03303
G1 X122.885 Y96.660 E0.00247
G1 X123.061 Y96.836 E0.00820
G1 X123.090 Y96.905 E0.00247
G1 X123.090 Y99.899 E0.09856
G1 X123.364 Y100.125 E0.01169
G1 X123.757 Y100.062 E0.01312
G1 X124.997 Y100.012 E0.04086
G1 X126.145 Y100.054 E0.03783
G1 X126.564 Y100.105 E0.01388
G1 X126.818 Y99.879 E0.01117
G1 X126.818 Y96.782 E0.10198
G1 X126.928 Y96.671 E0.00514
G1 X127.608 Y96.671 E0.02238
G1 X127.703 Y96.690 E0.00319
G1 X127.846 Y96.631 E0.00509
G1 X128.849 Y96.631 E0.03303
G1 X129.027 Y96.705 E0.00633
G1 X129.177 Y96.705 E0.00494
G1 X129.354 Y96.631 E0.00633
G1 X130.357 Y96.631 E0.03303
G1 X130.535 Y96.705 E0.00633
G1 X130.685 Y96.705 E0.00494
G1 X130.863 Y96.631 E0.00633
G1 X131.866 Y96.631 E0.03303
G1 X132.043 Y96.705 E0.00633
G1 X132.193 Y96.705 E0.00494
G1 X132.371 Y96.631 E0.00633
G1 X133.374 Y96.631 E0.03303
G1 X133.552 Y96.705 E0.00633
G1 X133.702 Y96.705 E0.00494
G1 X133.879 Y96.631 E0.00633
G1 X134.882 Y96.631 E0.03303
G1 X135.060 Y96.705 E0.00633
G1 X135.210 Y96.705 E0.00494
G1 X135.388 Y96.631 E0.00633
G1 X136.391 Y96.631 E0.03303
G1 X136.568 Y96.705 E0.00633
G1 X136.718 Y96.705 E0.00494
G1 X136.896 Y96.631 E0.00633
G1 X137.899 Y96.631 E0.03303
G1 X138.077 Y96.705 E0.00633
G1 X138.227 Y96.705 E0.00494
G1 X138.404 Y96.631 E0.00633
G1 X139.407 Y96.631 E0.03303
G1 X139.585 Y96.705 E0.00633
G1 X139.735 Y96.705 E0.00494
G1 X139.912 Y96.631 E0.00633
G1 X140.916 Y96.631 E0.03303
G1 X141.093 Y96.705 E0.00633
G1 X141.243 Y96.705 E0.00494
G1 X141.421 Y96.631 E0.00633
G1 X142.424 Y96.631 E0.03303
G1 X142.602 Y96.705 E0.00633
G1 X142.752 Y96.705 E0.00494
G1 X142.929 Y96.631 E0.00633
G1 X143.932 Y96.631 E0.03303
G1 X144.110 Y96.705 E0.00633
G1 X144.260 Y96.705 E0.00494
G1 X144.437 Y96.631 E0.00633
G1 X145.441 Y96.631 E0.03303
G1 X145.618 Y96.705 E0.00633
G1 X145.768 Y96.705 E0.00494
G1 X145.946 Y96.631 E0.00633
G1 X146.949 Y96.631 E0.03303
G1 X147.126 Y96.705 E0.00633
G1 X147.277 Y96.705 E0.00494
G1 X147.454 Y96.631 E0.00633
G1 X148.457 Y96.631 E0.03303
G1 X148.635 Y96.705 E0.00633
G1 X148.785 Y96.705 E0.00494
G1 X148.962 Y96.631 E0.00633
G1 X149.966 Y96.631 E0.03303
G1 X150.143 Y96.705 E0.00633
G1 X150.293 Y96.705 E0.00494
G1 X150.471 Y96.631 E0.00633
G1 X151.474 Y96.631 E0.03303
G1 X151.651 Y96.705 E0.00633
G1 X151.801 Y96.705 E0.00494
G1 X151.979 Y96.631 E0.00633
G1 X152.982 Y96.631 E0.03303
G1 X153.160 Y96.705 E0.00633
G1 X153.310 Y96.705 E0.00494
G1 X153.487 Y96.631 E0.00633
G1 X154.490 Y96.631 E0.03303
G1 X154.668 Y96.705 E0.00633
G1 X154.818 Y96.705 E0.00494
G1 X154.996 Y96.631 E0.00633
G1 X155.999 Y96.631 E0.03303
G1 X156.176 Y96.705 E0.00633
G1 X156.326 Y96.705 E0.00494
G1 X156.504 Y96.631 E0.00633
G1 X157.507 Y96.631 E0.03303
G1 X157.685 Y96.705 E0.00633
G1 X157.835 Y96.705 E0.00494
G1 X158.012 Y96.631 E0.00633
G1 X159.015 Y96.631 E0.03303
G1 X159.193 Y96.705 E0.00633
G1 X159.343 Y96.705 E0.00494
G1 X159.521 Y96.631 E0.00633
G1 X160.524 Y96.631 E0.03303
G1 X160.701 Y96.705 E0.00633
G1 X160.851 Y96.705 E0.00494
G1 X161.029 Y96.631 E0.00633
G1 X162.032 Y96.631 E0.03303
G1 X162.210 Y96.705 E0.00633
G1 X162.360 Y96.705 E0.00494
G1 X162.537 Y96.631 E0.00633
G1 X163.540 Y96.631 E0.03303
G1 X163.718 Y96.705 E0.00633
G1 X163.868 Y96.705 E0.00494
G1 X164.046 Y96.631 E0.00633
G1 X165.049 Y96.631 E0.03303
G1 X165.118 Y96.660 E0.00247
G1 X165.294 Y96.836 E0.00820
G1 X165.323 Y96.905 E0.00247
G1 X165.323 Y114.807 E0.58937
G1 X165.212 Y114.918 E0.00514
G1 X164.532 Y114.918 E0.02238
G1 X164.437 Y114.899 E0.00319
G1 X164.295 Y114.958 E0.00509
G1 X163.291 Y114.958 E0.03303
G1 X163.114 Y114.884 E0.00633
G1 X162.964 Y114.884 E0.00494
G1 X162.786 Y114.958 E0.00633
G1 X161.783 Y114.958 E0.03303
G1 X161.606 Y114.884 E0.00633
G1 X161.456 Y114.884 E0.00494
G1 X161.278 Y114.958 E0.00633
G1 X160.275 Y114.958 E0.03303
G1 X160.097 Y114.884 E0.00633
G1 X159.947 Y114.884 E0.00494
G1 X159.770 Y114.958 E0.00633
G1 X158.766 Y114.958 E0.03303
G1 X158.589 Y114.884 E0.00633
G1 X158.439 Y114.884 E0.00494
G1 X158.261 Y114.958 E0.00633
G1 X157.258 Y114.958 E0.03303
G1 X157.081 Y114.884 E0.00633
G1 X156.931 Y114.884 E0.00494
G1 X156.753 Y114.958 E0.00633
G1 X155.750 Y114.958 E0.03303
G1 X155.572 Y114.884 E0.00633
G1 X155.422 Y114.884 E0.00494
G1 X155.245 Y114.958 E0.00633
G1 X154.242 Y114.958 E0.03303
G1 X154.064 Y114.884 E0.00633
G1 X153.914 Y114.884 E0.00494
G1 X153.736 Y114.958 E0.00633
G1 X152.733 Y114.958 E0.03303
G1 X152.556 Y114.884 E0.00633
G1 X152.406 Y114.884 E0.00494
G1 X152.228 Y114.958 E0.00633
G1 X151.225 Y114.958 E0.03303
G1 X151.047 Y114.884 E0.00633
G1 X150.897 Y114.884 E0.00494
G1 X150.720 Y114.958 E0.00633
G1 X149.717 Y114.958 E0.03303
G1 X149.539 Y114.884 E0.00633
G1 X149.389 Y114.884 E0.00494
G1 X149.211 Y114.958 E0.00633
G1 X148.208 Y114.958 E0.03303
G1 X148.031 Y114.884 E0.00633
G1 X147.881 Y114.884 E0.00494
G1 X147.703 Y114.958 E0.00633
G1 X146.700 Y114.958 E0.03303
G1 X146.522 Y114.884 E0.00633
G1 X146.372 Y114.884 E0.00494
G1 X146.195 Y114.958 E0.00633
G1 X145.192 Y114.958 E0.03303
G1 X145.014 Y114.884 E0.00633
G1 X144.864 Y114.884 E0.00494
G1 X144.686 Y114.958 E0.00633
G1 X143.683 Y114.958 E0.03303
G1 X143.506 Y114.884 E0.00633
G1 X143.356 Y114.884 E0.00494
G1 X143.178 Y114.958 E0.00633
G1 X142.175 Y114.958 E0.03303
G1 X141.997 Y114.884 E0.00633
G1 X141.847 Y114.884 E0.00494
G1 X141.670 Y114.958 E0.00633
G1 X140.667 Y114.958 E0.03303
G1 X140.489 Y114.884 E0.00633
G1 X140.339 Y114.884 E0.00494
G1 X140.161 Y114.958 E0.00633
G1 X139.158 Y114.958 E0.03303
G1 X138.981 Y114.884 E0.00633
G1 X138.831 Y114.884 E0.00494
G1 X138.653 Y114.958 E0.00633
G1 X137.650 Y114.958 E0.03303
G1 X137.472 Y114.884 E0.00633
G1 X137.322 Y114.884 E0.00494
G1 X137.145 Y114.958 E0.00633
G1 X136.142 Y114.958 E0.03303
G1 X135.964 Y114.884 E0.00633
G1 X135.814 Y114.884 E0.00494
G1 X135.637 Y114.958 E0.00633
G1 X134.633 Y114.958 E0.03303
G1 X134.456 Y114.884 E0.00633
G1 X134.306 Y114.884 E0.00494
G1 X134.128 Y114.958 E0.00633
G1 X133.125 Y114.958 E0.03303
G1 X132.947 Y114.884 E0.00633
G1 X132.797 Y114.884 E0.00494
G1 X132.620 Y114.958 E0.00633
G1 X131.617 Y114.958 E0.03303
G1 X131.439 Y114.884 E0.00633
G1 X131.289 Y114.884 E0.00494
G1 X131.112 Y114.958 E0.00633
G1 X130.108 Y114.958 E0.03303
G1 X129.931 Y114.884 E0.00633
G1 X129.781 Y114.884 E0.00494
G1 X129.603 Y114.958 E0.00633
G1 X128.600 Y114.958 E0.03303
G1 X128.423 Y114.884 E0.00633
G1 X128.273 Y114.884 E0.00494
G1 X128.095 Y114.958 E0.00633
G1 X127.092 Y114.958 E0.03303
G1 X126.914 Y114.884 E0.00633
G1 X126.764 Y114.884 E0.00494
G1 X126.587 Y114.958 E0.00633
G1 X125.583 Y114.958 E0.03303
G1 X125.406 Y114.884 E0.00633
G1 X125.256 Y114.884 E0.00494
G1 X125.078 Y114.958 E0.00633
G1 X124.075 Y114.958 E0.03303
G1 X123.898 Y114.884 E0.00633
G1 X123.748 Y114.884 E0.00494
G1 X123.570 Y114.958 E0.00633
G1 X122.567 Y114.958 E0.03303
G1 X122.389 Y114.884 E0.00633
G1 X122.239 Y114.884 E0.00494
G1 X122.062 Y114.958 E0.00633
G1 X121.059 Y114.958 E0.03303
G1 X120.881 Y114.884 E0.00633
G1 X120.731 Y114.884 E0.00494
G1 X120.553 Y114.958 E0.00633
G1 X119.550 Y114.958 E0.03303
G1 X119.373 Y114.884 E0.00633
G1 X119.223 Y114.884 E0.00494
G1 X119.045 Y114.958 E0.00633
G1 X118.042 Y114.958 E0.03303
G1 X117.864 Y114.884 E0.00633
G1 X117.714 Y114.884 E0.00494
G1 X117.537 Y114.958 E0.00633
G1 X116.534 Y114.958 E0.03303
G1 X116.356 Y114.884 E0.00633
G1 X116.206 Y114.884 E0.00494
G1 X116.028 Y114.958 E0.00633
G1 X115.025 Y114.958 E0.03303
G1 X114.848 Y114.884 E0.00633
G1 X114.698 Y114.884 E0.00494
G1 X114.520 Y114.958 E0.00633
G1 X113.517 Y114.958 E0.03303
G1 X113.339 Y114.884 E0.00633
G1 X113.189 Y114.884 E0.00494
G1 X113.012 Y114.958 E0.00633
G1 X112.009 Y114.958 E0.03303
G1 X111.831 Y114.884 E0.00633
G1 X111.681 Y114.884 E0.00494
G1 X111.503 Y114.958 E0.00633
G1 X110.500 Y114.958 E0.03303
G1 X110.323 Y114.884 E0.00633
G1 X110.173 Y114.884 E0.00494
G1 X109.995 Y114.958 E0.00633
G1 X108.992 Y114.958 E0.03303
G1 X108.814 Y114.884 E0.00633
G1 X108.664 Y114.884 E0.00494
G1 X108.487 Y114.958 E0.00633
G1 X107.484 Y114.958 E0.03303
G1 X107.306 Y114.884 E0.00633
G1 X107.156 Y114.884 E0.00494
G1 X106.978 Y114.958 E0.00633
G1 X105.975 Y114.958 E0.03303
G1 X105.798 Y114.884 E0.00633
G1 X105.648 Y114.884 E0.00494
G1 X105.470 Y114.958 E0.00633
G1 X104.467 Y114.958 E0.03303
G1 X104.289 Y114.884 E0.00633
G1 X104.139 Y114.884 E0.00494
G1 X103.962 Y114.958 E0.00633
G1 X102.959 Y114.958 E0.03303
G1 X102.781 Y114.884 E0.00633
G1 X102.631 Y114.884 E0.00494
G1 X102.454 Y114.958 E0.00633
G1 X101.450 Y114.958 E0.03303
G1 X101.273 Y114.884 E0.00633
G1 X101.123 Y114.884 E0.00494
G1 X100.945 Y114.958 E0.00633
G1 X99.942 Y114.958 E0.03303
G1 X99.764 Y114.884 E0.00633
G1 X99.614 Y114.884 E0.00494
G1 X99.437 Y114.958 E0.00633
G1 X98.434 Y114.958 E0.03303
G1 X98.256 Y114.884 E0.00633
G1 X98.106 Y114.884 E0.00494
G1 X97.929 Y114.958 E0.00633
G1 X96.925 Y114.958 E0.03303
G1 X96.748 Y114.884 E0.00633
G1 X96.598 Y114.884 E0.00494
G1 X96.420 Y114.958 E0.00633
G1 X95.417 Y114.958 E0.03303
G1 X95.240 Y114.884 E0.00633
G1 X95.090 Y114.884 E0.00494
G1 X94.912 Y114.958 E0.00633
G1 X93.909 Y114.958 E0.03303
G1 X93.731 Y114.884 E0.00633
G1 X93.581 Y114.884 E0.00494
G1 X93.404 Y114.958 E0.00633
G1 X92.400 Y114.958 E0.03303
G1 X92.223 Y114.884 E0.00633
G1 X92.073 Y114.884 E0.00494
G1 X91.895 Y114.958 E0.00633
G1 X90.892 Y114.958 E0.03303
G1 X90.715 Y114.884 E0.00633
G1 X90.565 Y114.884 E0.00494
G1 X90.387 Y114.958 E0.00633
G1 X89.384 Y114.958 E0.03303
G1 X89.206 Y114.884 E0.00633
G1 X89.056 Y114.884 E0.00494
G1 X88.879 Y114.958 E0.00633
G1 X87.876 Y114.958 E0.03303
G1 X87.698 Y114.884 E0.00633
G1 X87.548 Y114.884 E0.00494
G1 X87.370 Y114.958 E0.00633
G1 X86.367 Y114.958 E0.03303
G1 X86.224 Y114.899 E0.00509
G1 X86.129 Y114.918 E0.00319
G1 X85.449 Y114.918 E0.02238
G1 X85.381 Y114.850 E0.00317
G1 X85.738 Y114.729 F7200.000
G1 F2100
G1 X85.738 Y97.030 E0.58270
G1 X86.492 Y97.030 E0.02483
G1 X86.492 Y114.559 E0.57711
G1 X87.246 Y114.559 E0.02483
G1 X87.246 Y97.030 E0.57711
G1 X88.000 Y97.030 E0.02483
G1 X88.000 Y114.559 E0.57711
G1 X88.754 Y114.559 E0.02483
G1 X88.754 Y97.030 E0.57711
G1 X89.508 Y97.030 E0.02483
G1 X89.508 Y114.559 E0.57711
G1 X90.262 Y114.559 E0.02483
G1 X90.262 Y97.030 E0.57711
G1 X91.017 Y97.030 E0.02483
