; generated by Slic3r 1.35.5-prusa3d-win64 on 2017-08-08 at 19:36:58

; 

; external perimeters extrusion width = 0.45mm
; perimeters extrusion width = 0.45mm
; infill extrusion width = 0.45mm
; solid infill extrusion width = 0.45mm
; top infill extrusion width = 0.45mm
; support material extrusion width = 0.35mm
; first layer extrusion width = 0.42mm

M115 U3.0.11 ; tell printer latest fw version
M83  ; extruder relative mode
M104 S235 ; set extruder temp
M140 S55 ; set bed temp
M190 S55 ; wait for bed temp
M109 S235 ; wait for extruder temp
G28 W ; home all without mesh bed level
G80 ; mesh bed leveling
G1 Y-3.0 F1000.0 ; go outside pritn area
G1 X60.0 E9.0  F1000.0 ; intro line
G1 X100.0 E12.5  F1000.0 ; intro line
; Filament gcode

G21 ; set units to millimeters
G90 ; use absolute coordinates
M83 ; use relative distances for extrusion
M106 S127.5
G1 E-0.80000 F2100.00000
G1 Z0.200 F7200.000
G1 X83.911 Y94.969 F7200.000
G1 E0.80000 F2100.00000
M204 S1000
G1 F2100
G1 X84.511 Y94.564 E0.02269
G1 X85.095 Y94.352 E0.01950
G1 X85.708 Y94.276 E0.01937
G1 X127.221 Y94.106 E1.30163
G1 X164.961 Y94.276 E1.18332
G1 X165.622 Y94.365 E0.02090
G1 X166.245 Y94.613 E0.02103
G1 X166.811 Y95.024 E0.02192
G1 X167.256 Y95.563 E0.02192
G1 X167.550 Y96.198 E0.02192
G1 X167.675 Y96.890 E0.02205
G1 X167.678 Y114.778 E0.56088
G1 X167.587 Y115.434 E0.02078
G1 X167.341 Y116.050 E0.02078
G1 X166.916 Y116.631 E0.02256
G1 X166.352 Y117.084 E0.02269
G1 X165.690 Y117.375 E0.02269
G1 X164.974 Y117.483 E0.02269
G1 X85.733 Y117.483 E2.48454
G1 X84.981 Y117.377 E0.02383
G1 X84.286 Y117.069 E0.02383
G1 X83.701 Y116.583 E0.02383
G1 X83.272 Y115.956 E0.02383
G1 X83.061 Y115.380 E0.01924
G1 X82.984 Y114.771 E0.01924
G1 X82.988 Y96.870 E0.56127
G1 X83.123 Y96.163 E0.02256
G1 X83.439 Y95.512 E0.02269
G1 X83.871 Y95.014 E0.02068
G1 X84.154 Y95.261 F7200.000
G1 F2100
G1 X84.695 Y94.893 E0.02051
G1 X85.193 Y94.716 E0.01657
G1 X85.714 Y94.653 E0.01645
G1 X127.222 Y94.483 E1.30147
G1 X164.950 Y94.653 E1.18296
G1 X165.515 Y94.727 E0.01787
G1 X166.050 Y94.936 E0.01799
G1 X166.547 Y95.292 E0.01917
G1 X166.936 Y95.764 E0.01917
G1 X167.193 Y96.319 E0.01917
G1 X167.299 Y96.921 E0.01917
G1 X167.301 Y114.763 E0.55942
G1 X167.226 Y115.324 E0.01775
G1 X167.018 Y115.855 E0.01787
G1 X166.651 Y116.363 E0.01965
G1 X166.160 Y116.759 E0.01977
G1 X165.583 Y117.013 E0.01977
G1 X164.960 Y117.106 E0.01977
G1 X85.734 Y117.106 E2.48407
G1 X85.080 Y117.013 E0.02071
G1 X84.476 Y116.744 E0.02071
G1 X83.971 Y116.319 E0.02071
G1 X83.601 Y115.771 E0.02071
G1 X83.425 Y115.277 E0.01645
G1 X83.361 Y114.761 E0.01633
G1 X83.364 Y96.908 E0.55976
G1 X83.480 Y96.284 E0.01989
G1 X83.756 Y95.717 E0.01977
G1 X84.115 Y95.306 E0.01712
G1 F5760
G1 X84.695 Y94.893 E-0.24671
G1 F5760
G1 X85.193 Y94.716 E-0.18300
G1 F5760
G1 X85.714 Y94.653 E-0.18169
G1 F5760
G1 X86.143 Y94.651 E-0.14860
G1 E-0.04000 F2100.00000
G1 X85.738 Y114.729 F7200.000
G1 E0.80000 F2100.00000
G1 F2100
G1 X85.738 Y97.030 E0.55495
G1 X86.492 Y97.030 E0.02365
G1 X86.492 Y114.559 E0.54963
G1 X87.246 Y114.559 E0.02365
G1 X87.246 Y97.030 E0.54963
G1 X88.000 Y97.030 E0.02365
G1 X88.000 Y114.559 E0.54963
G1 X88.754 Y114.559 E0.02365
G1 X88.754 Y97.030 E0.54963
G1 X89.508 Y97.030 E0.02365
G1 X89.508 Y114.559 E0.54963
G1 X90.262 Y114.559 E0.02365
G1 X90.262 Y97.030 E0.54963
G1 X91.017 Y97.030 E0.02365
G1 X91.017 Y114.559 E0.54963
G1 X91.771 Y114.559 E0.02365
G1 X91.771 Y97.030 E0.54963
G1 X92.525 Y97.030 E0.02365
G1 X92.525 Y114.559 E0.54963
G1 X93.279 Y114.559 E0.02365
G1 X93.279 Y97.030 E0.54963
G1 X94.033 Y97.030 E0.02365
G1 X94.033 Y114.559 E0.54963
G1 X94.787 Y114.559 E0.02365
G1 X94.787 Y97.030 E0.54963
G1 X95.542 Y97.030 E0.02365
G1 X95.542 Y114.559 E0.54963
G1 X96.296 Y114.559 E0.02365
G1 X96.296 Y97.030 E0.54963
G1 X97.050 Y97.030 E0.02365
G1 X97.050 Y114.559 E0.54963
G1 X97.804 Y114.559 E0.02365
G1 X97.804 Y97.030 E0.54963
G1 X98.558 Y97.030 E0.02365
G1 X98.558 Y114.559 E0.54963
G1 X99.312 Y114.559 E0.02365
G1 X99.312 Y97.030 E0.54963
G1 X100.067 Y97.030 E0.02365
G1 X100.067 Y114.559 E0.54963
G1 X100.821 Y114.559 E0.02365
G1 X100.821 Y97.030 E0.54963
G1 X101.575 Y97.030 E0.02365
G1 X101.575 Y114.559 E0.54963
G1 X102.329 Y114.559 E0.02365
G1 X102.329 Y97.030 E0.54963
G1 X103.083 Y97.030 E0.02365
G1 X103.083 Y114.559 E0.54963
G1 X103.837 Y114.559 E0.02365
G1 X103.837 Y97.030 E0.54963
G1 X104.592 Y97.030 E0.02365
G1 X104.592 Y114.559 E0.54963
G1 X105.346 Y114.559 E0.02365
G1 X105.346 Y97.030 E0.54963
G1 X106.100 Y97.030 E0.02365
G1 X106.100 Y114.559 E0.54963
G1 X106.854 Y114.559 E0.02365
G1 X106.854 Y97.030 E0.54963
G1 X107.608 Y97.030 E0.02365
G1 X107.608 Y114.559 E0.54963
G1 X108.362 Y114.559 E0.02365
G1 X108.362 Y97.030 E0.54963
G1 X109.116 Y97.030 E0.02365
G1 X109.116 Y114.559 E0.54963
G1 X109.871 Y114.559 E0.02365
G1 X109.871 Y97.030 E0.54963
G1 X110.625 Y97.030 E0.02365
G1 X110.625 Y114.559 E0.54963
G1 X111.379 Y114.559 E0.02365
G1 X111.379 Y97.030 E0.54963
G1 X112.133 Y97.030 E0.02365
G1 X112.133 Y114.559 E0.54963
G1 X112.887 Y114.559 E0.02365
G1 X112.887 Y97.030 E0.54963
G1 X113.641 Y97.030 E0.02365
G1 X113.641 Y114.559 E0.54963
G1 X114.396 Y114.559 E0.02365
G1 X114.396 Y97.030 E0.54963
G1 X115.150 Y97.030 E0.02365
G1 X115.150 Y114.559 E0.54963
G1 X115.904 Y114.559 E0.02365
G1 X115.904 Y97.030 E0.54963
G1 X116.658 Y97.030 E0.02365
G1 X116.658 Y114.559 E0.54963
G1 X117.412 Y114.559 E0.02365
G1 X117.412 Y97.030 E0.54963
G1 X118.166 Y97.030 E0.02365
G1 X118.166 Y114.559 E0.54963
G1 X118.921 Y114.559 E0.02365
G1 X118.921 Y97.030 E0.54963
G1 X119.675 Y97.030 E0.02365
G1 X119.675 Y114.559 E0.54963
G1 X120.429 Y114.559 E0.02365
G1 X120.429 Y97.030 E0.54963
G1 X121.183 Y97.030 E0.02365
G1 X121.183 Y114.559 E0.54963
G1 X121.937 Y114.559 E0.02365
G1 X121.937 Y97.030 E0.54963
G1 X122.691 Y97.030 E0.02365
G1 X122.691 Y100.130 E0.09722
G1 X122.556 Y100.267 E0.00602
G1 X122.494 Y100.417 E0.00510
G1 X122.463 Y108.948 E0.26748
G1 X122.465 Y109.587 E0.02002
G1 X122.533 Y109.743 E0.00533
G1 X122.691 Y109.892 E0.00682
G1 X122.691 Y114.559 E0.14635
G1 X123.445 Y114.559 E0.02365
G1 X123.445 Y110.117 E0.13928
G1 X123.825 Y110.169 E0.01200
G1 X124.200 Y110.184 E0.01177
G1 X124.200 Y114.559 E0.13718
G1 X124.954 Y114.559 E0.02365
G1 X124.954 Y110.212 E0.13632
G1 X125.708 Y110.186 E0.02366
G1 X125.708 Y114.559 E0.13714
G1 X126.462 Y114.559 E0.02365
G1 X126.462 Y110.137 E0.13867
G1 X126.902 Y110.051 E0.01404
G1 X127.216 Y109.940 E0.01047
G1 X127.216 Y114.559 E0.14483
G1 X127.970 Y114.559 E0.02365
G1 X127.970 Y97.030 E0.54963
G1 X128.725 Y97.030 E0.02365
G1 X128.725 Y114.559 E0.54963
G1 X129.479 Y114.559 E0.02365
G1 X129.479 Y97.030 E0.54963
G1 X130.233 Y97.030 E0.02365
G1 X130.233 Y114.559 E0.54963
G1 X130.987 Y114.559 E0.02365
G1 X130.987 Y97.030 E0.54963
G1 X131.741 Y97.030 E0.02365
G1 X131.741 Y114.559 E0.54963
G1 X132.495 Y114.559 E0.02365
G1 X132.495 Y97.030 E0.54963
G1 X133.250 Y97.030 E0.02365
G1 X133.250 Y114.559 E0.54963
G1 X134.004 Y114.559 E0.02365
G1 X134.004 Y97.030 E0.54963
G1 X134.758 Y97.030 E0.02365
G1 X134.758 Y114.559 E0.54963
G1 X135.512 Y114.559 E0.02365
G1 X135.512 Y97.030 E0.54963
G1 X136.266 Y97.030 E0.02365
G1 X136.266 Y114.559 E0.54963
G1 X137.020 Y114.559 E0.02365
G1 X137.020 Y97.030 E0.54963
G1 X137.775 Y97.030 E0.02365
G1 X137.775 Y114.559 E0.54963
G1 X138.529 Y114.559 E0.02365
G1 X138.529 Y97.030 E0.54963
G1 X139.283 Y97.030 E0.02365
G1 X139.283 Y114.559 E0.54963
G1 X140.037 Y114.559 E0.02365
G1 X140.037 Y97.030 E0.54963
G1 X140.791 Y97.030 E0.02365
G1 X140.791 Y114.559 E0.54963
G1 X141.545 Y114.559 E0.02365
G1 X141.545 Y97.030 E0.54963
G1 X142.299 Y97.030 E0.02365
G1 X142.299 Y114.559 E0.54963
G1 X143.054 Y114.559 E0.02365
G1 X143.054 Y97.030 E0.54963
G1 X143.808 Y97.030 E0.02365
G1 X143.808 Y114.559 E0.54963
G1 X144.562 Y114.559 E0.02365
G1 X144.562 Y97.030 E0.54963
G1 X145.316 Y97.030 E0.02365
G1 X145.316 Y114.559 E0.54963
G1 X146.070 Y114.559 E0.02365
G1 X146.070 Y97.030 E0.54963
G1 X146.824 Y97.030 E0.02365
G1 X146.824 Y114.559 E0.54963
G1 X147.579 Y114.559 E0.02365
G1 X147.579 Y97.030 E0.54963
G1 X148.333 Y97.030 E0.02365
G1 X148.333 Y114.559 E0.54963
G1 X149.087 Y114.559 E0.02365
G1 X149.087 Y97.030 E0.54963
G1 X149.841 Y97.030 E0.02365
G1 X149.841 Y114.559 E0.54963
G1 X150.595 Y114.559 E0.02365
G1 X150.595 Y97.030 E0.54963
G1 X151.349 Y97.030 E0.02365
G1 X151.349 Y114.559 E0.54963
G1 X152.104 Y114.559 E0.02365
G1 X152.104 Y97.030 E0.54963
G1 X152.858 Y97.030 E0.02365
G1 X152.858 Y114.559 E0.54963
G1 X153.612 Y114.559 E0.02365
G1 X153.612 Y97.030 E0.54963
G1 X154.366 Y97.030 E0.02365
G1 X154.366 Y114.559 E0.54963
G1 X155.120 Y114.559 E0.02365
G1 X155.120 Y97.030 E0.54963
G1 X155.874 Y97.030 E0.02365
G1 X155.874 Y114.559 E0.54963
G1 X156.628 Y114.559 E0.02365
G1 X156.628 Y97.030 E0.54963
G1 X157.383 Y97.030 E0.02365
G1 X157.383 Y114.559 E0.54963
G1 X158.137 Y114.559 E0.02365
G1 X158.137 Y97.030 E0.54963
G1 X158.891 Y97.030 E0.02365
G1 X158.891 Y114.559 E0.54963
G1 X159.645 Y114.559 E0.02365
G1 X159.645 Y97.030 E0.54963
G1 X160.399 Y97.030 E0.02365
G1 X160.399 Y114.559 E0.54963
G1 X161.153 Y114.559 E0.02365
G1 X161.153 Y97.030 E0.54963
G1 X161.908 Y97.030 E0.02365
G1 X161.908 Y114.559 E0.54963
G1 X162.662 Y114.559 E0.02365
G1 X162.662 Y97.030 E0.54963
G1 X163.416 Y97.030 E0.02365
G1 X163.416 Y114.559 E0.54963
G1 X164.170 Y114.559 E0.02365
G1 X164.170 Y97.030 E0.54963
G1 X164.924 Y97.030 E0.02365
G1 X164.924 Y114.729 E0.55495
G1 X127.216 Y100.254 F7200.000
G1 F2100
G1 X127.216 Y96.860 E0.10643
G1 F5760
G1 X127.216 Y99.054 E-0.76000
G1 E-0.04000 F2100.00000
G1 X125.169 Y108.829 F7200.000
G1 E0.80000 F2100.00000
G1 F840
G1 X123.954 Y108.796 E0.03810
G1 X123.845 Y108.778 E0.00346
G1 X123.869 Y101.212 E0.23725
G1 X125.188 Y101.171 E0.04136
G1 X126.160 Y101.208 E0.03050
G1 X126.163 Y102.088 E0.02758
G1 X125.953 Y106.357 E0.13403
G1 X126.088 Y108.791 E0.07641
G1 X125.229 Y108.827 E0.02696
G1 X125.172 Y109.206 F7200.000
G1 F840
G1 X123.920 Y109.172 E0.03927
G1 X123.467 Y109.101 E0.01436
G1 X123.493 Y100.893 E0.25734
G1 X123.828 Y100.836 E0.01066
G1 X125.189 Y100.794 E0.04269
G1 X126.088 Y100.828 E0.02820
G1 X126.536 Y100.896 E0.01421
G1 X126.540 Y102.096 E0.03764
G1 X126.331 Y106.356 E0.13372
G1 X126.483 Y109.114 E0.08662
G1 X126.181 Y109.164 E0.00961
G1 X125.231 Y109.204 E0.02980
G1 X125.174 Y109.584 F7200.000
G1 F840
G1 X123.885 Y109.548 E0.04044
G1 X123.256 Y109.449 E0.01996
G1 X123.089 Y109.398 E0.00548
G1 X123.117 Y100.599 E0.27587
G1 X123.267 Y100.550 E0.00494
G1 X123.790 Y100.460 E0.01666
G1 X125.190 Y100.416 E0.04393
G1 X126.118 Y100.452 E0.02909
G1 X126.742 Y100.550 E0.01981
G1 X126.912 Y100.602 E0.00557
G1 X126.917 Y102.105 E0.04711
G1 X126.709 Y106.355 E0.13342
G1 X126.877 Y109.403 E0.09571
G1 X126.732 Y109.451 E0.00481
G1 X126.213 Y109.540 E0.01649
G1 X125.234 Y109.581 E0.03072
G1 X124.971 Y109.239 F7200.000
G1 F5760
G1 X123.885 Y109.548 E-0.46741
G1 F5760
G1 X123.256 Y109.449 E-0.22054
G1 F5760
G1 X123.089 Y109.398 E-0.06054
G1 F5760
G1 X123.089 Y109.365 E-0.01151
G1 E-0.04000 F2100.00000
G1 X123.961 Y107.882 F7200.000
G1 E0.80000 F2100.00000
G1 F1680
G1 X124.610 Y108.531 E0.03025
G1 X125.185 Y108.545 E0.01896
G1 X124.132 Y107.492 E0.04909
G1 X124.134 Y106.933 E0.01841
G1 X125.723 Y108.523 E0.07408
G1 X125.790 Y108.520 E0.00219
G1 X125.761 Y108.000 E0.01716
G1 X124.136 Y106.375 E0.07575
G1 X124.137 Y105.816 E0.01841
G1 X125.728 Y107.407 E0.07414
G1 X125.695 Y106.814 E0.01958
G1 X124.139 Y105.257 E0.07253
G1 X124.141 Y104.699 E0.01841
G1 X125.676 Y106.234 E0.07156
G1 X125.703 Y105.700 E0.01763
G1 X124.143 Y104.140 E0.07270
G1 X124.144 Y103.581 E0.01841
G1 X125.729 Y105.166 E0.07384
G1 X125.755 Y104.631 E0.01763
G1 X124.146 Y103.023 E0.07497
G1 X124.148 Y102.464 E0.01841
G1 X125.781 Y104.097 E0.07611
G1 X125.807 Y103.563 E0.01763
G1 X124.150 Y101.905 E0.07725
G1 X124.151 Y101.486 E0.01381
G1 X124.287 Y101.482 E0.00448
G1 X125.834 Y103.028 E0.07208
G1 X125.860 Y102.494 E0.01763
G1 X124.830 Y101.465 E0.04797
G1 X125.388 Y101.462 E0.01836
G1 X126.048 Y102.122 E0.03077
M106 S153
G1 F5760
G1 X125.388 Y101.462 E-0.32345
G1 F5760
G1 X124.830 Y101.465 E-0.19297
G1 F5760
G1 X125.328 Y101.962 E-0.24358
G1 E-0.04000 F2100.00000
G1 Z0.300 F7200.000
M104 S240 ; set temperature
G1 X118.551 Y99.857 F7200.000
G1 E0.80000 F2100.00000
G1 F2282.66
G1 X118.551 Y111.589 E0.16025
G1 X119.069 Y111.589 E0.00707
G1 X119.069 Y100.000 E0.15830
G1 X119.586 Y100.000 E0.00707
G1 X119.586 Y111.732 E0.16025
G1 X120.104 Y111.732 F7200.000
G1 F2282.66
G1 X120.104 Y109.953 E0.02429
G1 X120.914 Y110.285 F7200.000
G1 F2282.66
G1 X120.767 Y110.262 E0.00203
G1 X120.767 Y111.589 E0.01813
G1 X124.904 Y111.589 E0.05650
G1 X124.202 Y110.374 E0.01916
G1 X122.696 Y110.345 E0.02057
G1 X121.868 Y110.288 E0.01135
G1 X121.787 Y110.359 E0.00146
G1 X120.914 Y110.285 E0.01197
G1 F5760
G1 X121.787 Y110.359 E-0.30343
G1 F5760
G1 X121.868 Y110.288 E-0.03707
G1 F5760
G1 X122.696 Y110.345 E-0.28768
G1 F5760
G1 X123.077 Y110.352 E-0.13183
G1 E-0.04000 F2100.00000
G1 X116.875 Y111.589 F7200.000
G1 E0.80000 F2100.00000
G1 F2282.66
G1 X115.835 Y109.789 E0.02840
G1 X112.975 Y109.789 E0.03906
G1 X111.936 Y111.589 E0.02840
G1 X116.875 Y111.589 E0.06746
G1 X108.845 Y111.589 F7200.000
G1 F2282.66
G1 X107.806 Y109.789 E0.02840
G1 X104.946 Y109.789 E0.03906
G1 X103.907 Y111.589 E0.02840
G1 X108.845 Y111.589 E0.06746
G1 X108.961 Y107.153 F7200.000
G1 F2282.66
G1 X107.806 Y105.153 E0.03154
G1 X104.946 Y105.153 E0.03906
G1 X103.791 Y107.153 E0.03154
G1 X100.932 Y107.153 E0.03906
G1 X99.777 Y105.153 E0.03154
G1 X96.917 Y105.153 E0.03906
G1 X95.762 Y107.153 E0.03154
G1 X92.902 Y107.153 E0.03906
G1 X91.748 Y105.153 E0.03154
G1 X88.888 Y105.153 E0.03906
G1 X88.000 Y106.691 E0.02426
G1 X88.000 Y107.933 E0.01696
G1 X88.888 Y109.471 E0.02426
G1 X91.748 Y109.471 E0.03906
G1 X92.902 Y107.471 E0.03154
G1 X95.762 Y107.471 E0.03906
G1 X96.917 Y109.471 E0.03154
G1 X99.777 Y109.471 E0.03906
G1 X100.932 Y107.471 E0.03154
G1 X103.791 Y107.471 E0.03906
G1 X104.946 Y109.471 E0.03154
G1 X107.806 Y109.471 E0.03906
G1 X108.961 Y107.471 E0.03154
G1 X111.821 Y107.471 E0.03906
G1 X112.975 Y109.471 E0.03154
G1 X115.835 Y109.471 E0.03906
G1 X116.990 Y107.471 E0.03154
G1 X117.814 Y107.471 E0.01125
G1 X117.814 Y107.153 E0.00434
G1 X116.990 Y107.153 E0.01125
G1 X115.835 Y105.153 E0.03154
G1 X112.975 Y105.153 E0.03906
G1 X111.821 Y107.153 E0.03154
G1 X108.961 Y107.153 E0.03906
G1 X108.961 Y102.517 F7200.000
G1 F2282.66
G1 X107.806 Y100.517 E0.03154
G1 X104.946 Y100.517 E0.03906
G1 X103.791 Y102.517 E0.03154
G1 X100.932 Y102.517 E0.03906
G1 X99.777 Y100.517 E0.03154
G1 X96.917 Y100.517 E0.03906
G1 X95.762 Y102.517 E0.03154
G1 X92.902 Y102.517 E0.03906
G1 X91.748 Y100.517 E0.03154
G1 X88.888 Y100.517 E0.03906
G1 X88.000 Y102.055 E0.02426
G1 X88.000 Y103.297 E0.01696
G1 X88.888 Y104.835 E0.02426
G1 X91.748 Y104.835 E0.03906
G1 X92.902 Y102.835 E0.03154
G1 X95.762 Y102.835 E0.03906
G1 X96.917 Y104.835 E0.03154
G1 X99.777 Y104.835 E0.03906
G1 X100.932 Y102.835 E0.03154
G1 X103.791 Y102.835 E0.03906
G1 X104.946 Y104.835 E0.03154
G1 X107.806 Y104.835 E0.03906
G1 X108.961 Y102.835 E0.03154
G1 X111.821 Y102.835 E0.03906
G1 X112.975 Y104.835 E0.03154
G1 X115.835 Y104.835 E0.03906
G1 X116.990 Y102.835 E0.03154
G1 X117.814 Y102.835 E0.01125
G1 X117.814 Y102.517 E0.00434
G1 X116.990 Y102.517 E0.01125
G1 X115.835 Y100.517 E0.03154
G1 X112.975 Y100.517 E0.03906
G1 X111.821 Y102.517 E0.03154
G1 X108.961 Y102.517 E0.03906
G1 X107.806 Y100.200 F7200.000
G1 F2282.66
G1 X107.921 Y100.000 E0.00315
G1 X104.831 Y100.000 E0.04221
G1 X104.946 Y100.200 E0.00315
G1 X107.806 Y100.200 E0.03906
G1 X115.835 Y100.200 F7200.000
G1 F2282.66
G1 X115.950 Y100.000 E0.00315
G1 X112.860 Y100.000 E0.04221
G1 X112.975 Y100.200 E0.00315
G1 X115.835 Y100.200 E0.03906
G1 X99.777 Y100.200 F7200.000
G1 F2282.66
G1 X99.892 Y100.000 E0.00315
G1 X96.802 Y100.000 E0.04221
G1 X96.917 Y100.200 E0.00315
G1 X99.777 Y100.200 E0.03906
G1 X91.748 Y100.200 F7200.000
G1 F2282.66
G1 X91.863 Y100.000 E0.00315
G1 X88.773 Y100.000 E0.04221
