; generated by Slic3r 1.34.1-prusa3d-win64 on 2017-06-04 at 10:16:38

; external perimeters extrusion width = 0.45mm
; perimeters extrusion width = 0.45mm
; infill extrusion width = 0.45mm
; solid infill extrusion width = 0.45mm
; top infill extrusion width = 0.45mm

M107
M115 U3.0.11 ; tell printer latest fw version
M83  ; extruder relative mode
M104 S215 ; set extruder temp
M140 S55 ; set bed temp
M190 S55 ; wait for bed temp
M109 S215 ; wait for extruder temp
G28 W ; home all without mesh bed level
G80 ; mesh bed leveling
G1 Y-3.0 F1000.0 ; go outside pritn area
G1 X60.0 E9.0  F1000.0 ; intro line
G1 X100.0 E12.5  F1000.0 ; intro line
G21 ; set units to millimeters
G90 ; use absolute coordinates
M83 ; use relative distances for extrusion
G1 E-0.80000 F2100.00000
G1 Z0.200 F7200.000
G1 X107.169 Y124.727 F7200.000
G1 E0.80000 F2100.00000
M204 S1000
G1 F2100
G1 X106.471 Y124.320 E0.02709
G1 X106.123 Y123.959 E0.01684
G1 X105.859 Y123.532 E0.01684
G1 X105.691 Y123.063 E0.01671
G1 X105.624 Y122.566 E0.01684
G1 X105.624 Y92.947 E0.99370
G1 X105.783 Y91.480 E0.04950
G1 X106.043 Y90.547 E0.03248
G1 X106.691 Y89.181 E0.05074
G1 X107.271 Y88.354 E0.03388
G1 X108.389 Y87.242 E0.05292
G1 X109.692 Y86.408 E0.05189
G1 X110.674 Y86.002 E0.03566
G1 X112.230 Y85.664 E0.05340
G1 X139.004 Y85.623 E0.89824
G1 X139.937 Y85.685 E0.03139
G1 X141.312 Y85.997 E0.04728
G1 X142.179 Y86.343 E0.03133
G1 X142.937 Y86.761 E0.02904
G1 X143.690 Y87.308 E0.03121
G1 X144.690 Y88.308 E0.04745
G1 X145.241 Y89.067 E0.03148
G1 X145.686 Y89.888 E0.03133
G1 X146.192 Y91.361 E0.05226
G1 X146.377 Y92.966 E0.05417
G1 X146.372 Y100.152 E0.24111
G1 X146.206 Y100.885 E0.02520
G1 X145.820 Y101.529 E0.02520
G1 X121.105 Y124.253 E1.12639
G1 X120.691 Y124.557 E0.01722
G1 X120.145 Y124.788 E0.01988
G1 X119.559 Y124.876 E0.01988
G1 X107.962 Y124.877 E0.38909
G1 X107.228 Y124.738 E0.02507
G1 F5760
G1 X106.471 Y124.320 E-0.29930
G1 F5760
G1 X106.123 Y123.959 E-0.17382
G1 F5760
G1 X105.859 Y123.532 E-0.17382
G1 F5760
G1 X105.749 Y123.225 E-0.11306
G1 E-0.04000 F2100.00000
G1 X108.964 Y121.536 F7200.000
G1 E0.80000 F2100.00000
G1 F1680
G1 X108.964 Y93.022 E0.95663
G1 X108.991 Y92.550 E0.01586
G1 X109.067 Y92.103 E0.01519
G1 X109.192 Y91.668 E0.01518
G1 X109.365 Y91.251 E0.01516
G1 X109.588 Y90.849 E0.01542
G1 X109.846 Y90.485 E0.01496
G1 X110.147 Y90.147 E0.01519
G1 X110.485 Y89.846 E0.01519
G1 X110.849 Y89.588 E0.01496
G1 X111.251 Y89.365 E0.01542
G1 X111.668 Y89.192 E0.01516
G1 X112.103 Y89.067 E0.01518
G1 X112.550 Y88.991 E0.01519
G1 X113.022 Y88.964 E0.01586
G1 X121.821 Y88.964 E0.29522
G1 X121.514 Y89.092 E0.01117
G1 X121.105 Y89.405 E0.01727
G1 X120.792 Y89.814 E0.01728
G1 X120.595 Y90.289 E0.01727
G1 X120.536 Y90.737 E0.01514
G1 X120.536 Y98.199 E0.25036
G1 X121.536 Y99.199 E0.04745
G1 X121.536 Y119.101 E0.66767
G1 X119.101 Y121.536 E0.11554
G1 X109.024 Y121.536 E0.33806
G1 F5760
G1 X109.020 Y119.342 E-0.76000
G1 E-0.04000 F2100.00000
G1 X140.027 Y99.036 F7200.000
G1 E0.80000 F2100.00000
G1 F840
G1 X140.017 Y91.495 E0.25297
G1 X139.878 Y90.894 E0.02071
G1 X139.629 Y90.375 E0.01929
G1 X139.438 Y90.099 E0.01128
G1 X139.221 Y89.845 E0.01120
G1 X138.785 Y89.468 E0.01932
G1 X138.247 Y89.156 E0.02088
G1 X137.711 Y88.964 E0.01909
G1 X138.978 Y88.964 E0.04250
G1 X139.450 Y88.991 E0.01587
G1 X139.897 Y89.067 E0.01519
G1 X140.332 Y89.192 E0.01518
G1 X140.750 Y89.365 E0.01518
G1 X141.145 Y89.584 E0.01516
G1 X141.520 Y89.850 E0.01541
G1 X141.853 Y90.147 E0.01498
G1 X142.150 Y90.480 E0.01498
G1 X142.416 Y90.855 E0.01541
G1 X142.635 Y91.250 E0.01516
G1 X142.808 Y91.668 E0.01518
G1 X142.933 Y92.103 E0.01518
G1 X143.009 Y92.550 E0.01519
G1 X143.036 Y93.022 E0.01587
G1 X143.036 Y99.036 E0.20176
G1 X140.087 Y99.036 E0.09894
G1 X139.650 Y99.413 F7200.000
G1 F1680
G1 X139.640 Y91.539 E0.26417
G1 X139.520 Y91.019 E0.01788
G1 X139.302 Y90.565 E0.01690
G1 X139.140 Y90.329 E0.00961
G1 X138.953 Y90.112 E0.00960
G1 X138.565 Y89.777 E0.01720
G1 X138.087 Y89.500 E0.01853
G1 X137.594 Y89.323 E0.01759
G1 X137.295 Y89.257 E0.01026
G1 X136.779 Y89.213 E0.01737
G1 X122.462 Y89.213 E0.48035
G1 X122.088 Y89.262 E0.01264
G1 X121.704 Y89.421 E0.01394
G1 X121.374 Y89.674 E0.01394
G1 X121.121 Y90.004 E0.01394
G1 X120.962 Y90.388 E0.01394
G1 X120.913 Y90.762 E0.01264
G1 X120.913 Y98.043 E0.24429
G1 X121.913 Y99.043 E0.04745
G1 X121.913 Y119.257 E0.67815
G1 X119.257 Y121.913 E0.12602
G1 X108.587 Y121.913 E0.35796
G1 X108.587 Y93.011 E0.96963
G1 X108.616 Y92.507 E0.01692
G1 X108.698 Y92.019 E0.01661
G1 X108.835 Y91.544 E0.01661
G1 X109.024 Y91.087 E0.01659
G1 X109.268 Y90.647 E0.01685
G1 X109.550 Y90.249 E0.01638
G1 X109.880 Y89.880 E0.01661
G1 X110.249 Y89.550 E0.01661
G1 X110.647 Y89.268 E0.01638
G1 X111.087 Y89.024 E0.01685
G1 X111.544 Y88.835 E0.01659
G1 X112.019 Y88.698 E0.01661
G1 X112.507 Y88.616 E0.01661
G1 X113.011 Y88.587 E0.01692
G1 X138.989 Y88.587 E0.87153
G1 X139.493 Y88.616 E0.01693
G1 X139.981 Y88.698 E0.01661
G1 X140.456 Y88.835 E0.01661
G1 X140.914 Y89.025 E0.01661
G1 X141.347 Y89.264 E0.01659
G1 X141.756 Y89.555 E0.01684
G1 X142.120 Y89.880 E0.01639
G1 X142.445 Y90.244 E0.01639
G1 X142.736 Y90.653 E0.01684
G1 X142.975 Y91.086 E0.01659
G1 X143.165 Y91.544 E0.01661
G1 X143.302 Y92.019 E0.01661
G1 X143.384 Y92.507 E0.01661
G1 X143.413 Y93.011 E0.01693
G1 X143.413 Y99.413 E0.21477
G1 X139.710 Y99.413 E0.12423
G1 X139.273 Y99.790 F7200.000
G1 F1050
G1 X139.263 Y91.582 E0.27537
G1 X139.162 Y91.145 E0.01506
G1 X138.975 Y90.755 E0.01451
G1 X138.841 Y90.560 E0.00793
G1 X138.685 Y90.379 E0.00800
G1 X138.346 Y90.085 E0.01507
G1 X137.928 Y89.843 E0.01619
G1 X137.489 Y89.686 E0.01563
G1 X137.238 Y89.631 E0.00862
G1 X136.763 Y89.590 E0.01600
G1 X122.486 Y89.590 E0.47898
G1 X122.186 Y89.629 E0.01015
G1 X121.894 Y89.751 E0.01061
G1 X121.643 Y89.943 E0.01061
G1 X121.451 Y90.194 E0.01061
G1 X121.329 Y90.486 E0.01061
G1 X121.290 Y90.786 E0.01015
G1 X121.290 Y97.887 E0.23822
G1 X122.290 Y98.887 E0.04745
G1 X122.290 Y119.413 E0.68863
G1 X119.413 Y122.290 E0.13650
G1 X108.210 Y122.290 E0.37585
G1 X108.210 Y93.000 E0.98264
G1 X108.240 Y92.465 E0.01799
G1 X108.330 Y91.935 E0.01803
G1 X108.479 Y91.419 E0.01803
G1 X108.684 Y90.923 E0.01802
G1 X108.948 Y90.446 E0.01827
G1 X109.255 Y90.014 E0.01779
G1 X109.613 Y89.613 E0.01803
G1 X110.014 Y89.255 E0.01803
G1 X110.446 Y88.948 E0.01779
G1 X110.923 Y88.684 E0.01827
G1 X111.419 Y88.479 E0.01802
G1 X111.935 Y88.330 E0.01803
G1 X112.465 Y88.240 E0.01803
G1 X113.000 Y88.210 E0.01799
G1 X138.999 Y88.210 E0.87224
G1 X139.535 Y88.240 E0.01800
G1 X140.065 Y88.330 E0.01803
G1 X140.581 Y88.479 E0.01803
G1 X141.078 Y88.684 E0.01803
G1 X141.548 Y88.944 E0.01802
G1 X141.991 Y89.260 E0.01826
G1 X142.387 Y89.613 E0.01780
G1 X142.740 Y90.009 E0.01780
G1 X143.056 Y90.452 E0.01826
G1 X143.316 Y90.922 E0.01802
G1 X143.521 Y91.419 E0.01803
G1 X143.670 Y91.935 E0.01803
G1 X143.760 Y92.465 E0.01803
G1 X143.790 Y93.001 E0.01800
G1 X143.790 Y99.790 E0.22777
G1 X139.333 Y99.790 E0.14952
G1 X139.351 Y99.398 F7200.000
G1 F5760
G1 X139.314 Y97.596 E-0.76000
G1 E-0.04000 F2100.00000
G1 X140.138 Y98.139 F7200.000
G1 E0.80000 F2100.00000
G1 F1680
G1 X140.753 Y98.753 E0.02988
G1 X141.300 Y98.753 E0.01882
G1 X140.308 Y97.761 E0.04827
G1 X140.307 Y97.213 E0.01885
G1 X141.847 Y98.753 E0.07492
G1 X142.394 Y98.753 E0.01882
G1 X140.306 Y96.666 E0.10158
G1 X140.306 Y96.118 E0.01885
G1 X142.753 Y98.566 E0.11911
G1 X142.753 Y98.019 E0.01882
G1 X140.305 Y95.570 E0.11914
G1 X140.304 Y95.023 E0.01885
G1 X142.753 Y97.472 E0.11918
G1 X142.753 Y96.925 E0.01882
G1 X140.303 Y94.475 E0.11921
G1 X140.303 Y93.927 E0.01885
G1 X142.753 Y96.378 E0.11924
G1 X142.753 Y95.831 E0.01882
G1 X140.302 Y93.380 E0.11928
G1 X140.301 Y92.832 E0.01885
G1 X142.753 Y95.284 E0.11931
G1 X142.753 Y94.736 E0.01882
G1 X140.301 Y92.284 E0.11935
G1 X140.300 Y91.736 E0.01885
G1 X142.753 Y94.189 E0.11938
G1 X142.753 Y93.642 E0.01882
G1 X140.217 Y91.107 E0.12341
G1 X140.146 Y90.800 E0.01083
G1 X139.840 Y90.183 E0.02370
G1 X142.753 Y93.095 E0.14174
G1 X142.728 Y92.581 E0.01771
G1 X142.716 Y92.511 E0.00244
G1 X139.531 Y89.327 E0.15498
G1 X139.547 Y89.316 E0.00064
G1 X139.530 Y89.291 E0.00105
G1 X139.834 Y89.343 E0.01062
G1 X140.199 Y89.448 E0.01309
G1 X142.800 Y92.049 E0.12656
G1 X142.453 Y91.155 F7200.000
G1 F1680
G1 X140.845 Y89.547 E0.07826
G1 F5760
G1 X142.397 Y91.098 E-0.76000
G1 E-0.04000 F2100.00000
G1 X139.100 Y89.160 F7200.000
G1 E0.80000 F2100.00000
G1 F1680
G1 X138.968 Y89.249 E0.00213
G1 X138.690 Y89.159 E0.00390
G1 F5760
G1 X138.968 Y89.249 E-0.10126
G1 F5760
G1 X139.100 Y89.160 E-0.05533
G1 E-0.64342 F2100.00000
G1 X137.524 Y88.943 F7200.000
G1 E0.80000 F2100.00000
G1 F1680
G1 X136.798 Y88.900 E0.01674
G1 F1680
G1 X122.449 Y88.900 E0.26308
G1 X122.006 Y88.929 E0.00813
G1 F5760
G1 X122.449 Y88.900 E-0.15366
G1 F5760
G1 X124.200 Y88.900 E-0.60634
G1 E-0.04000 F2100.00000
G1 X120.845 Y89.558 F7200.000
G1 E0.80000 F2100.00000
G1 F1680
G1 X120.535 Y89.247 E0.01482
G1 X119.999 Y89.247 E0.01806
G1 X120.509 Y89.757 E0.02433
G1 X120.352 Y90.136 E0.01383
G1 X119.463 Y89.247 E0.04239
G1 X118.927 Y89.247 E0.01806
G1 X120.270 Y90.590 E0.06402
G1 X120.253 Y90.718 E0.00436
G1 X120.253 Y91.109 E0.01317
G1 X118.391 Y89.247 E0.08876
G1 X117.855 Y89.247 E0.01806
G1 X120.253 Y91.645 E0.11430
G1 X120.253 Y92.181 E0.01806
G1 X117.320 Y89.247 E0.13985
G1 X116.784 Y89.247 E0.01806
G1 X120.253 Y92.716 E0.16539
G1 X120.253 Y93.252 E0.01806
G1 X116.248 Y89.247 E0.19094
G1 X115.712 Y89.247 E0.01806
G1 X120.253 Y93.788 E0.21648
G1 X120.253 Y94.324 E0.01806
G1 X115.176 Y89.247 E0.24203
G1 X114.640 Y89.247 E0.01806
G1 X120.253 Y94.860 E0.26757
G1 X120.253 Y95.396 E0.01806
G1 X114.105 Y89.247 E0.29312
G1 X113.569 Y89.247 E0.01806
G1 X120.253 Y95.931 E0.31867
G1 X120.253 Y96.467 E0.01806
G1 X113.033 Y89.247 E0.34421
G1 X112.531 Y89.281 E0.01696
G1 X120.253 Y97.003 E0.36815
G1 X120.253 Y97.539 E0.01806
G1 X112.081 Y89.367 E0.38958
G1 X111.674 Y89.496 E0.01440
G1 X120.423 Y98.245 E0.41709
G1 F5760
G1 X118.871 Y96.693 E-0.76000
G1 E-0.04000 F2100.00000
G1 X121.423 Y99.780 F7200.000
G1 E0.80000 F2100.00000
G1 F1680
G1 X111.302 Y89.660 E0.48249
G1 X110.961 Y89.855 E0.01324
G1 X121.253 Y100.146 E0.49066
G1 X121.253 Y100.682 E0.01806
G1 X110.649 Y90.078 E0.50554
G1 X110.366 Y90.331 E0.01279
G1 X121.253 Y101.218 E0.51903
G1 X121.253 Y101.754 E0.01806
G1 X110.111 Y90.612 E0.53117
G1 X110.067 Y90.661 E0.00223
G1 X109.883 Y90.920 E0.01070
G1 X121.253 Y102.290 E0.54203
G1 X121.253 Y102.826 E0.01806
G1 X109.684 Y91.257 E0.55152
G1 X109.516 Y91.624 E0.01362
G1 X121.253 Y103.362 E0.55955
G1 X121.253 Y103.897 E0.01806
G1 X109.383 Y92.027 E0.56590
G1 X109.291 Y92.471 E0.01529
G1 X121.253 Y104.433 E0.57027
G1 X121.253 Y104.969 E0.01806
G1 X109.251 Y92.967 E0.57220
G1 X109.247 Y93.499 E0.01794
G1 X121.253 Y105.505 E0.57237
G1 X121.253 Y106.041 E0.01806
G1 X109.247 Y94.035 E0.57237
G1 X109.247 Y94.571 E0.01806
G1 X121.253 Y106.577 E0.57237
G1 X121.253 Y107.112 E0.01806
G1 X109.247 Y95.106 E0.57237
G1 X109.247 Y95.642 E0.01806
G1 X121.253 Y107.648 E0.57237
G1 X121.253 Y108.184 E0.01806
G1 X109.247 Y96.178 E0.57237
G1 X109.247 Y96.714 E0.01806
G1 X121.253 Y108.720 E0.57237
G1 X121.253 Y109.256 E0.01806
G1 X109.247 Y97.250 E0.57237
G1 X109.247 Y97.786 E0.01806
G1 X121.253 Y109.792 E0.57237
G1 X121.253 Y110.327 E0.01806
G1 X109.247 Y98.321 E0.57237
G1 X109.247 Y98.857 E0.01806
G1 X121.253 Y110.863 E0.57237
G1 X121.253 Y111.399 E0.01806
G1 X109.247 Y99.393 E0.57237
G1 X109.247 Y99.929 E0.01806
G1 X121.253 Y111.935 E0.57237
G1 X121.253 Y112.471 E0.01806
G1 X109.247 Y100.465 E0.57237
G1 X109.247 Y101.001 E0.01806
G1 X121.253 Y113.007 E0.57237
G1 X121.253 Y113.542 E0.01806
G1 X109.247 Y101.536 E0.57237
G1 X109.247 Y102.072 E0.01806
G1 X121.253 Y114.078 E0.57237
G1 X121.253 Y114.614 E0.01806
G1 X109.247 Y102.608 E0.57237
G1 X109.247 Y103.144 E0.01806
G1 X121.253 Y115.150 E0.57237
G1 X121.253 Y115.686 E0.01806
G1 X109.247 Y103.680 E0.57237
G1 X109.247 Y104.216 E0.01806
G1 X121.253 Y116.222 E0.57237
G1 X121.253 Y116.757 E0.01806
G1 X109.247 Y104.751 E0.57237
G1 X109.247 Y105.287 E0.01806
G1 X121.253 Y117.293 E0.57237
G1 X121.253 Y117.829 E0.01806
G1 X109.247 Y105.823 E0.57237
G1 X109.247 Y106.359 E0.01806
G1 X121.253 Y118.365 E0.57237
G1 X121.253 Y118.901 E0.01806
G1 X109.247 Y106.895 E0.57237
G1 X109.247 Y107.431 E0.01806
G1 X121.027 Y119.210 E0.56157
G1 X120.759 Y119.478 E0.01277
G1 X109.247 Y107.966 E0.54880
G1 X109.247 Y108.502 E0.01806
G1 X120.491 Y119.746 E0.53603
G1 X120.223 Y120.014 E0.01277
G1 X109.247 Y109.038 E0.52325
G1 X109.247 Y109.574 E0.01806
G1 X119.955 Y120.282 E0.51048
G1 X119.687 Y120.550 E0.01277
G1 X109.247 Y110.110 E0.49771
G1 X109.247 Y110.646 E0.01806
G1 X119.419 Y120.818 E0.48494
G1 X119.151 Y121.085 E0.01277
G1 X109.247 Y111.181 E0.47216
G1 X109.247 Y111.717 E0.01806
G1 X118.783 Y121.253 E0.45461
G1 X118.247 Y121.253 E0.01806
G1 X109.247 Y112.253 E0.42906
G1 X109.247 Y112.789 E0.01806
G1 X117.711 Y121.253 E0.40352
G1 X117.175 Y121.253 E0.01806
G1 X109.247 Y113.325 E0.37797
G1 X109.247 Y113.861 E0.01806
G1 X116.640 Y121.253 E0.35243
G1 X116.104 Y121.253 E0.01806
G1 X109.247 Y114.396 E0.32688
G1 X109.247 Y114.932 E0.01806
G1 X115.568 Y121.253 E0.30134
G1 X115.032 Y121.253 E0.01806
G1 X109.247 Y115.468 E0.27579
G1 X109.247 Y116.004 E0.01806
G1 X114.496 Y121.253 E0.25025
G1 X113.960 Y121.253 E0.01806
G1 X109.247 Y116.540 E0.22470
G1 X109.247 Y117.076 E0.01806
G1 X113.424 Y121.253 E0.19916
G1 X112.889 Y121.253 E0.01806
G1 X109.247 Y117.611 E0.17361
G1 X109.247 Y118.147 E0.01806
G1 X112.353 Y121.253 E0.14807
G1 X111.817 Y121.253 E0.01806
G1 X109.247 Y118.683 E0.12252
G1 X109.247 Y119.219 E0.01806
G1 X111.281 Y121.253 E0.09698
G1 X110.745 Y121.253 E0.01806
G1 X109.247 Y119.755 E0.07143
G1 X109.247 Y120.291 E0.01806
G1 X110.209 Y121.253 E0.04589
G1 X109.674 Y121.253 E0.01806
G1 X109.077 Y120.657 E0.02843
M106 S247.35
M104 S205 ; set temperature
G1 F5760
G1 X109.674 Y121.253 E-0.29212
G1 F5760
G1 X110.209 Y121.253 E-0.18559
G1 F5760
G1 X109.633 Y120.677 E-0.28229
G1 E-0.04000 F2100.00000
G1 Z0.350 F7200.000
G1 X109.061 Y121.439 F7200.000
G1 E0.80000 F2100.00000
M204 S800
G1 F2400
G1 X109.061 Y93.015 E0.79246
G1 X109.087 Y92.563 E0.01262
G1 X109.160 Y92.126 E0.01234
G1 X109.283 Y91.702 E0.01233
G1 X109.451 Y91.295 E0.01227
G1 X109.675 Y90.891 E0.01287
G1 X109.921 Y90.545 E0.01183
G1 X110.216 Y90.216 E0.01233
G1 X110.545 Y89.921 E0.01233
G1 X110.891 Y89.675 E0.01183
G1 X111.295 Y89.451 E0.01287
G1 X111.702 Y89.283 E0.01227
G1 X112.126 Y89.160 E0.01233
G1 X112.563 Y89.087 E0.01234
G1 X113.015 Y89.061 E0.01262
G1 X121.395 Y89.061 E0.23364
G1 X121.036 Y89.336 E0.01260
G1 X120.708 Y89.765 E0.01506
G1 X120.501 Y90.264 E0.01506
G1 X120.439 Y90.730 E0.01311
G1 X120.439 Y98.239 E0.20934
G1 X121.439 Y99.239 E0.03943
G1 X121.439 Y119.061 E0.55261
G1 X119.061 Y121.439 E0.09379
G1 X109.121 Y121.439 E0.27713
M204 S1000
G1 F5760
G1 X109.116 Y119.245 E-0.76000
G1 E-0.04000 F2100.00000
G1 X140.022 Y98.939 F7200.000
G1 E0.80000 F2100.00000
M204 S800
G1 F1200
G1 X140.013 Y91.520 E0.20686
G1 X139.952 Y91.164 E0.01006
G1 X139.850 Y90.823 E0.00993
G1 X139.616 Y90.333 E0.01514
G1 X139.413 Y90.038 E0.00998
G1 X139.181 Y89.770 E0.00989
G1 X138.747 Y89.395 E0.01598
G1 X138.167 Y89.061 E0.01866
G1 X138.984 Y89.061 E0.02279
G1 X139.437 Y89.087 E0.01264
G1 X139.874 Y89.160 E0.01234
G1 X140.299 Y89.283 E0.01233
G1 X140.707 Y89.452 E0.01233
G1 X141.092 Y89.664 E0.01227
G1 X141.467 Y89.932 E0.01285
G1 X141.784 Y90.216 E0.01185
